ncols        60
nrows        76
xllcorner    1492836.746718113776
yllcorner    673592.967347414931
cellsize     201.992163917110
NODATA_value -9999
-1.1754940241844054161e+38 -1.1754940241844054161e+38 -1.1754940241844054161e+38 -1.1754940241844054161e+38 -1.1754940241844054161e+38 -1.1754940241844054161e+38 -1.1754940241844054161e+38 -1.1754940241844054161e+38 -1.1754940241844054161e+38 -1.1754940241844054161e+38 -1.1754940241844054161e+38 -1.1754940241844054161e+38 -1.1754940241844054161e+38 -1.1754940241844054161e+38 -1.1754940241844054161e+38 -1.1754940241844054161e+38 -1.1754940241844054161e+38 -1.1754940241844054161e+38 -1.1754940241844054161e+38 -1.1754940241844054161e+38 -1.1754940241844054161e+38 -1.1754940241844054161e+38 -1.1754940241844054161e+38 -1.1754940241844054161e+38 -1.1754940241844054161e+38 -1.1754940241844054161e+38 -1.1754940241844054161e+38 -1.1754940241844054161e+38 -1.1754940241844054161e+38 -1.1754940241844054161e+38 -1.1754940241844054161e+38 -1.1754940241844054161e+38 -1.1754940241844054161e+38 -1.1754940241844054161e+38 -1.1754940241844054161e+38 -1.1754940241844054161e+38 -1.1754940241844054161e+38 -1.1754940241844054161e+38 -1.1754940241844054161e+38 -1.1754940241844054161e+38 -1.1754940241844054161e+38 -1.1754940241844054161e+38 -1.1754940241844054161e+38 -1.1754940241844054161e+38 -1.1754940241844054161e+38 2.8856916856057068799e-07 2.8375225724630581681e-07 -1.1754940241844054161e+38 -1.1754940241844054161e+38 -1.1754940241844054161e+38 -1.1754940241844054161e+38 -1.1754940241844054161e+38 -1.1754940241844054161e+38 -1.1754940241844054161e+38 -1.1754940241844054161e+38 -1.1754940241844054161e+38 -1.1754940241844054161e+38 -1.1754940241844054161e+38 -1.1754940241844054161e+38 -1.1754940241844054161e+38 
-1.1754940241844054161e+38 -1.1754940241844054161e+38 -1.1754940241844054161e+38 -1.1754940241844054161e+38 -1.1754940241844054161e+38 -1.1754940241844054161e+38 -1.1754940241844054161e+38 -1.1754940241844054161e+38 -1.1754940241844054161e+38 -1.1754940241844054161e+38 -1.1754940241844054161e+38 -1.1754940241844054161e+38 -1.1754940241844054161e+38 -1.1754940241844054161e+38 -1.1754940241844054161e+38 -1.1754940241844054161e+38 -1.1754940241844054161e+38 -1.1754940241844054161e+38 -1.1754940241844054161e+38 -1.1754940241844054161e+38 -1.1754940241844054161e+38 -1.1754940241844054161e+38 -1.1754940241844054161e+38 -1.1754940241844054161e+38 -1.1754940241844054161e+38 -1.1754940241844054161e+38 -1.1754940241844054161e+38 -1.1754940241844054161e+38 -1.1754940241844054161e+38 -1.1754940241844054161e+38 -1.1754940241844054161e+38 -1.1754940241844054161e+38 -1.1754940241844054161e+38 -1.1754940241844054161e+38 -1.1754940241844054161e+38 -1.1754940241844054161e+38 -1.1754940241844054161e+38 -1.1754940241844054161e+38 -1.1754940241844054161e+38 3.1172231729215127416e-07 3.0866212341607024428e-07 3.0525370675604790449e-07 3.0151767305142129771e-07 2.9747604912699898705e-07 2.9315191341083846055e-07 3.063161955196846975e-07 3.0099849368525610771e-07 -1.1754940241844054161e+38 -1.1754940241844054161e+38 -1.1754940241844054161e+38 -1.1754940241844054161e+38 -1.1754940241844054161e+38 -1.1754940241844054161e+38 -1.1754940241844054161e+38 -1.1754940241844054161e+38 -1.1754940241844054161e+38 -1.1754940241844054161e+38 -1.1754940241844054161e+38 -1.1754940241844054161e+38 -1.1754940241844054161e+38 
-1.1754940241844054161e+38 -1.1754940241844054161e+38 -1.1754940241844054161e+38 -1.1754940241844054161e+38 -1.1754940241844054161e+38 -1.1754940241844054161e+38 -1.1754940241844054161e+38 -1.1754940241844054161e+38 -1.1754940241844054161e+38 -1.1754940241844054161e+38 -1.1754940241844054161e+38 -1.1754940241844054161e+38 -1.1754940241844054161e+38 -1.1754940241844054161e+38 -1.1754940241844054161e+38 -1.1754940241844054161e+38 -1.1754940241844054161e+38 -1.1754940241844054161e+38 -1.1754940241844054161e+38 -1.1754940241844054161e+38 -1.1754940241844054161e+38 -1.1754940241844054161e+38 -1.1754940241844054161e+38 -1.1754940241844054161e+38 -1.1754940241844054161e+38 -1.1754940241844054161e+38 -1.1754940241844054161e+38 -1.1754940241844054161e+38 -1.1754940241844054161e+38 -1.1754940241844054161e+38 -1.1754940241844054161e+38 -1.1754940241844054161e+38 -1.1754940241844054161e+38 -1.1754940241844054161e+38 3.2120880177899380215e-07 3.2013207373893237673e-07 3.1863390859143692069e-07 3.1672414024797035381e-07 3.1441533110410091467e-07 3.3495140883132989984e-07 3.3195979654010443483e-07 3.2856254961188824382e-07 3.247815527629427379e-07 3.2064056654235173482e-07 3.1616485784979886375e-07 3.3112493724729574751e-07 3.2551690765103558078e-07 3.1963568858373037074e-07 -1.1754940241844054161e+38 -1.1754940241844054161e+38 -1.1754940241844054161e+38 -1.1754940241844054161e+38 -1.1754940241844054161e+38 -1.1754940241844054161e+38 -1.1754940241844054161e+38 -1.1754940241844054161e+38 -1.1754940241844054161e+38 -1.1754940241844054161e+38 -1.1754940241844054161e+38 -1.1754940241844054161e+38 
-1.1754940241844054161e+38 -1.1754940241844054161e+38 -1.1754940241844054161e+38 -1.1754940241844054161e+38 -1.1754940241844054161e+38 -1.1754940241844054161e+38 -1.1754940241844054161e+38 -1.1754940241844054161e+38 -1.1754940241844054161e+38 -1.1754940241844054161e+38 -1.1754940241844054161e+38 -1.1754940241844054161e+38 -1.1754940241844054161e+38 -1.1754940241844054161e+38 -1.1754940241844054161e+38 -1.1754940241844054161e+38 -1.1754940241844054161e+38 -1.1754940241844054161e+38 -1.1754940241844054161e+38 -1.1754940241844054161e+38 -1.1754940241844054161e+38 -1.1754940241844054161e+38 -1.1754940241844054161e+38 -1.1754940241844054161e+38 -1.1754940241844054161e+38 -1.1754940241844054161e+38 -1.1754940241844054161e+38 -1.1754940241844054161e+38 -1.1754940241844054161e+38 3.1861682714406924788e-07 3.2011917028285097331e-07 3.2120013315761752892e-07 3.2185252507588302251e-07 3.2207191225097631104e-07 3.4322752640036924277e-07 3.4250621183673501946e-07 3.4130806625398690812e-07 3.3964136036956915632e-07 3.3751766181921993848e-07 3.5730710123971221037e-07 3.5397647479840088636e-07 3.5019687061321747024e-07 3.4599366927068331279e-07 3.4139426929868932348e-07 3.3642785979282052722e-07 3.5254140584584092721e-07 3.4631966627785004675e-07 3.398029093659715727e-07 -1.1754940241844054161e+38 -1.1754940241844054161e+38 -1.1754940241844054161e+38 -1.1754940241844054161e+38 -1.1754940241844054161e+38 -1.1754940241844054161e+38 -1.1754940241844054161e+38 -1.1754940241844054161e+38 -1.1754940241844054161e+38 -1.1754940241844054161e+38 -1.1754940241844054161e+38 -1.1754940241844054161e+38 
-1.1754940241844054161e+38 -1.1754940241844054161e+38 -1.1754940241844054161e+38 -1.1754940241844054161e+38 -1.1754940241844054161e+38 -1.1754940241844054161e+38 -1.1754940241844054161e+38 -1.1754940241844054161e+38 -1.1754940241844054161e+38 -1.1754940241844054161e+38 -1.1754940241844054161e+38 -1.1754940241844054161e+38 -1.1754940241844054161e+38 -1.1754940241844054161e+38 -1.1754940241844054161e+38 -1.1754940241844054161e+38 -1.1754940241844054161e+38 -1.1754940241844054161e+38 -1.1754940241844054161e+38 -1.1754940241844054161e+38 -1.1754940241844054161e+38 -1.1754940241844054161e+38 -1.1754940241844054161e+38 3.0147873530950164422e-07 3.0521792382387502585e-07 3.0862972266731958371e-07 3.116934976787888445e-07 3.1439029157809272874e-07 3.1670302291786356363e-07 3.3962237466766964644e-07 3.412936848690151237e-07 3.424965768772381125e-07 3.4322269470976607408e-07 3.4346692245890153572e-07 3.6653253232543647755e-07 3.6572782846633344889e-07 3.6439141126720642205e-07 3.6253297253097116482e-07 3.6016595572618825827e-07 3.8168755622791650239e-07 3.7797087770741200075e-07 3.7375639294623397291e-07 3.6907348999193345662e-07 3.6395394431565364357e-07 3.5843154932990728412e-07 3.758074171855696477e-07 3.6889082366542425007e-07 3.6165582173453003634e-07 -1.1754940241844054161e+38 -1.1754940241844054161e+38 -1.1754940241844054161e+38 -1.1754940241844054161e+38 -1.1754940241844054161e+38 -1.1754940241844054161e+38 -1.1754940241844054161e+38 -1.1754940241844054161e+38 -1.1754940241844054161e+38 -1.1754940241844054161e+38 -1.1754940241844054161e+38 -1.1754940241844054161e+38 
-1.1754940241844054161e+38 -1.1754940241844054161e+38 -1.1754940241844054161e+38 -1.1754940241844054161e+38 -1.1754940241844054161e+38 -1.1754940241844054161e+38 -1.1754940241844054161e+38 -1.1754940241844054161e+38 -1.1754940241844054161e+38 -1.1754940241844054161e+38 -1.1754940241844054161e+38 -1.1754940241844054161e+38 -1.1754940241844054161e+38 -1.1754940241844054161e+38 -1.1754940241844054161e+38 -1.1754940241844054161e+38 -1.1754940241844054161e+38 -1.1754940241844054161e+38 2.7867466201314528007e-07 2.8370300242386292666e-07 2.8852213063146336935e-07 2.9310731974874215666e-07 2.9743418394900800195e-07 3.2059742238743638154e-07 3.2474190447828732431e-07 3.2852662457116821315e-07 3.3192779369528579991e-07 3.3492355555608810391e-07 3.3749415706552099437e-07 3.6251179835744551383e-07 3.6437538142308767419e-07 3.6571708506016875617e-07 3.6652713220064470079e-07 3.6679961112895398401e-07 3.9199571233439201023e-07 3.9109579574869712815e-07 3.8960152437539363746e-07 3.8752432374167256057e-07 3.848797973660111893e-07 3.8168755622791650239e-07 4.04168616796596325e-07 3.9945811636243888643e-07 3.9422874920091999229e-07 3.8851752037771802861e-07 3.8236353816500923131e-07 4.011224916666833451e-07 3.9341733781839138828e-07 3.8536876445505185984e-07 -1.1754940241844054161e+38 -1.1754940241844054161e+38 -1.1754940241844054161e+38 -1.1754940241844054161e+38 -1.1754940241844054161e+38 -1.1754940241844054161e+38 -1.1754940241844054161e+38 -1.1754940241844054161e+38 -1.1754940241844054161e+38 -1.1754940241844054161e+38 -1.1754940241844054161e+38 -1.1754940241844054161e+38 
-1.1754940241844054161e+38 -1.1754940241844054161e+38 -1.1754940241844054161e+38 -1.1754940241844054161e+38 -1.1754940241844054161e+38 -1.1754940241844054161e+38 -1.1754940241844054161e+38 -1.1754940241844054161e+38 -1.1754940241844054161e+38 -1.1754940241844054161e+38 -1.1754940241844054161e+38 -1.1754940241844054161e+38 -1.1754940241844054161e+38 2.5124788294306199532e-07 2.5695905492284509819e-07 2.6258032903569983318e-07 2.6808905317921016831e-07 2.7346186470822431147e-07 2.9539955903601367027e-07 3.0094415137682517525e-07 3.0626421221313648857e-07 3.1133163247432094067e-07 3.1611850204171787482e-07 3.4134637871829909272e-07 3.4594958719935675617e-07 3.501569096897583222e-07 3.5394086239648459014e-07 3.572760931547236396e-07 3.6013975091009342577e-07 3.8750064845771703403e-07 3.8958361869845248293e-07 3.9108377336560806725e-07 3.9198968693199276458e-07 3.9229445292221498676e-07 4.1987280496869061608e-07 4.1886377744049241301e-07 4.1718880083863041364e-07 4.1486120494482747745e-07 4.1189926491824735422e-07 4.0832600234352867119e-07 4.3282656747578585055e-07 4.2754874129968811758e-07 4.2169520497736812104e-07 4.1530904582032235339e-07 4.0843576698534889147e-07 4.2871189975812740158e-07 4.2010961465166474227e-07 4.1113736415354651399e-07 -1.1754940241844054161e+38 -1.1754940241844054161e+38 -1.1754940241844054161e+38 -1.1754940241844054161e+38 -1.1754940241844054161e+38 -1.1754940241844054161e+38 -1.1754940241844054161e+38 -1.1754940241844054161e+38 -1.1754940241844054161e+38 -1.1754940241844054161e+38 -1.1754940241844054161e+38 -1.1754940241844054161e+38 
-1.1754940241844054161e+38 -1.1754940241844054161e+38 -1.1754940241844054161e+38 -1.1754940241844054161e+38 -1.1754940241844054161e+38 -1.1754940241844054161e+38 -1.1754940241844054161e+38 2.1622805945753498236e-07 2.2206330640983651392e-07 2.2792129072968236869e-07 2.3378633784432167886e-07 2.3964147999322449323e-07 2.4546849886064592283e-07 2.6527388286012865137e-07 2.7153060955242835917e-07 2.7769735311267140787e-07 2.8374876137604587711e-07 2.8965851583961921278e-07 3.1345103934654616751e-07 3.1957560508999449667e-07 3.2545938211114844307e-07 3.3107031072177051101e-07 3.3637644492046092637e-07 3.4134637871829909272e-07 3.690244056997471489e-07 3.7371182770584709942e-07 3.7793117257933772635e-07 3.8165293858583027031e-07 3.8485055142700730357e-07 4.1483468748992891051e-07 4.1716873511177254841e-07 4.1885030555022240151e-07 4.1986604060184617992e-07 4.2020778323603735771e-07 4.5045669594401260838e-07 4.4932232867722632363e-07 4.474397883313940838e-07 4.4482470684670261107e-07 4.414986563006095821e-07 4.3748863731707388069e-07 4.6423815547314006835e-07 4.5830952899450494442e-07 4.5174093088462541346e-07 4.4458283809944987297e-07 4.4458283809944987297e-07 4.6799308961453789379e-07 4.5883041366323595867e-07 4.4920500386069761589e-07 4.3918154801758646499e-07 -1.1754940241844054161e+38 -1.1754940241844054161e+38 -1.1754940241844054161e+38 -1.1754940241844054161e+38 -1.1754940241844054161e+38 -1.1754940241844054161e+38 -1.1754940241844054161e+38 -1.1754940241844054161e+38 -1.1754940241844054161e+38 -1.1754940241844054161e+38 -1.1754940241844054161e+38 
-1.1754940241844054161e+38 -1.1754940241844054161e+38 1.8785121369546686765e-07 1.9338270362823095638e-07 1.9899607650586403906e-07 2.0468201000767294317e-07 2.1042994546860427363e-07 2.2710170810569252353e-07 2.3343889665738970507e-07 2.3981024810382223222e-07 2.4619870941933186259e-07 2.5258574964936997276e-07 2.589513030670786975e-07 2.8031001875206129625e-07 2.8717394684463215526e-07 2.9394897183010471053e-07 3.0060670042075798847e-07 3.071176024604937993e-07 3.329589333134208573e-07 3.3973637414419499692e-07 3.4625588796188822016e-07 3.5248075391791644506e-07 3.5837439327224274166e-07 3.6390068203218106646e-07 3.9417395214513817336e-07 3.9940832152751681861e-07 4.0412419366475660354e-07 4.0828726355357503053e-07 4.118665231089835288e-07 4.4479492089521954767e-07 4.4741722149410634302e-07 4.493071799060999183e-07 4.5044907892588526011e-07 4.5044907892588526011e-07 4.8450863232574192807e-07 4.8408395514343283139e-07 4.8280514874932123348e-07 4.8068335445350385271e-07 4.7773721689736703411e-07 4.7399214508914155886e-07 5.0464922196624684148e-07 4.9873949592438293621e-07 4.9206198582396609709e-07 4.8467182978129130788e-07 4.7662817337368323933e-07 5.0205994739371817559e-07 4.9176696848007850349e-07 4.8097160743054701015e-07 4.6974886913631053176e-07 -1.1754940241844054161e+38 -1.1754940241844054161e+38 -1.1754940241844054161e+38 -1.1754940241844054161e+38 -1.1754940241844054161e+38 -1.1754940241844054161e+38 -1.1754940241844054161e+38 -1.1754940241844054161e+38 -1.1754940241844054161e+38 -1.1754940241844054161e+38 -1.1754940241844054161e+38 
1.7706565813568886369e-07 1.8240982058159715962e-07 1.9642016013676766306e-07 2.0238294951013813261e-07 2.0844296955147001427e-07 2.1459044319271924905e-07 2.208142149129344034e-07 2.3865425191615941003e-07 2.4554316269131959416e-07 2.5247996404687000904e-07 2.5944621029339032248e-07 2.664215799086377956e-07 2.7338410291122272611e-07 2.9644328947142639663e-07 3.0398402373066346627e-07 3.1143846968006982934e-07 3.1877485184850229416e-07 3.2595988841421785764e-07 3.5406807796789507847e-07 3.6158201055513927713e-07 3.6881996834381425288e-07 3.7573997246909129899e-07 3.7573997246909129899e-07 3.8229990195759455673e-07 4.1524265270709292963e-07 4.2163389935012673959e-07 4.2749297790578566492e-07 4.3277677264086378273e-07 4.3744518052335479297e-07 4.7395076308021089062e-07 4.7770367928023915738e-07 4.8065794544527307153e-07 4.8278803888024413027e-07 4.8407537178718484938e-07 4.8450863232574192807e-07 5.2114273785264231265e-07 5.1969675496366107836e-07 5.172984174350858666e-07 5.1396972367001581006e-07 5.0974074383702827618e-07 5.433985847957956139e-07 5.3671669775212649256e-07 5.2917459925083676353e-07 5.2083754553677863441e-07 5.1177505611121887341e-07 5.3944171440889476798e-07 5.2784974968744791113e-07 5.1571294079622020945e-07 5.0311859922658186406e-07 -1.1754940241844054161e+38 -1.1754940241844054161e+38 -1.1754940241844054161e+38 -1.1754940241844054161e+38 -1.1754940241844054161e+38 -1.1754940241844054161e+38 -1.1754940241844054161e+38 -1.1754940241844054161e+38 -1.1754940241844054161e+38 -1.1754940241844054161e+38 -1.1754940241844054161e+38 
1.8481908625744836172e-07 1.9056311373333301162e-07 2.0545532208871009061e-07 2.1188715493281051749e-07 2.1843392516984749818e-07 2.2508547203869966324e-07 2.3183002895166282542e-07 2.3865425191615941003e-07 2.584293667950987583e-07 2.6598962676871451549e-07 2.7359428145246056374e-07 2.8122124717810947914e-07 2.8122124717810947914e-07 3.054247201816906454e-07 3.1376913511849124916e-07 3.2206540367951674853e-07 3.3027995982592983637e-07 3.3837721957752364688e-07 3.6834643424299429171e-07 3.7694022125833726022e-07 3.8528671097992628347e-07 3.9333846757472201716e-07 4.010472878235304961e-07 4.0836474113348231185e-07 4.4450845848587050568e-07 4.5167217876951326616e-07 4.5824691596862976439e-07 4.6418219312727160286e-07 4.6943105758145975415e-07 5.0969401854672469199e-07 5.1393180910963565111e-07 5.1726971150856115855e-07 5.1967748504466726445e-07 5.2113307447143597528e-07 5.2162300789859727956e-07 5.6208205023722257465e-07 5.6044206075966940261e-07 5.5772272844478720799e-07 5.5395031495208968408e-07 5.4916068847887800075e-07 5.8619235687729087658e-07 5.7861467439579428174e-07 5.7007116538443369791e-07 5.6063908004944096319e-07 5.504007276613265276e-07 5.8054155260833795182e-07 5.6745238907751627266e-07 5.5377324770233826712e-07 5.3960604873282136396e-07 -1.1754940241844054161e+38 -1.1754940241844054161e+38 -1.1754940241844054161e+38 -1.1754940241844054161e+38 -1.1754940241844054161e+38 -1.1754940241844054161e+38 -1.1754940241844054161e+38 -1.1754940241844054161e+38 -1.1754940241844054161e+38 -1.1754940241844054161e+38 -1.1754940241844054161e+38 
1.9297010567242978141e-07 1.9297010567242978141e-07 2.0818538359890226275e-07 2.1498323121704743244e-07 2.2192536164311604807e-07 2.2900287888205639319e-07 2.3620523847966978792e-07 2.4352016225748229772e-07 2.6399078478789306246e-07 2.7215486397835775279e-07 2.8040315669386473019e-07 2.8871403401353745721e-07 2.9706336590606952086e-07 3.2321420917469367851e-07 3.3239228969250689261e-07 3.4153322303609456867e-07 3.5059960623584629502e-07 3.5955144994659349322e-07 3.9220691405716934241e-07 4.0175629578698135447e-07 4.110459599360183347e-07 4.2002162103926821146e-07 4.2862788518505112734e-07 4.3680873318407975603e-07 4.7654464196966728196e-07 4.8459452273164060898e-07 4.9199149998457869515e-07 4.9867645657286630012e-07 5.045940838499518577e-07 5.4910776725591858849e-07 5.5390739817084977403e-07 5.57690157165779965e-07 5.6042017604340799153e-07 5.620710794573824387e-07 5.6262683756358455867e-07 6.0742331697838380933e-07 6.055571475371834822e-07 6.0246395605645375326e-07 5.9817506325998692773e-07 5.9273338592902291566e-07 6.3356844748341245577e-07 6.2494774510923889466e-07 6.152401965664466843e-07 6.0453766081991489045e-07 5.9293768117640865967e-07 5.8054155260833795182e-07 6.110011554483207874e-07 5.9554378140092012472e-07 5.7956810906034661457e-07 -1.1754940241844054161e+38 -1.1754940241844054161e+38 -1.1754940241844054161e+38 -1.1754940241844054161e+38 -1.1754940241844054161e+38 -1.1754940241844054161e+38 -1.1754940241844054161e+38 -1.1754940241844054161e+38 -1.1754940241844054161e+38 -1.1754940241844054161e+38 -1.1754940241844054161e+38 
-1.1754940241844054161e+38 2.0153920843313244404e-07 2.1770203773030516459e-07 2.2503164132103847805e-07 2.325291745819413336e-07 2.4018564204197900835e-07 2.479902434515679488e-07 2.5593024588488333393e-07 2.7788078682533523533e-07 2.8678121566372283269e-07 2.9578953331110824365e-07 3.0488237712233967613e-07 3.1403359912474115845e-07 3.4231848644594720099e-07 3.5242771900811931118e-07 3.625144415764225414e-07 3.7253693108141305856e-07 3.8245033806560968515e-07 3.9220691405716934241e-07 4.2871889149864728097e-07 4.3907951408073131461e-07 4.4910660790264955722e-07 4.5873636622673075181e-07 4.6790395913376414683e-07 5.1168098025300423615e-07 5.2075034773224615492e-07 5.2909507530785049312e-07 5.3664541610487503931e-07 5.4333622756530530751e-07 5.926733592787059024e-07 5.9812629160660435446e-07 6.0242695099077536725e-07 6.0553225011972244829e-07 6.0741075458281557076e-07 6.0804330814789864235e-07 6.5777425106716691516e-07 6.5564353235458838753e-07 6.5211310129598132335e-07 6.4722070192146929912e-07 6.4101777752512134612e-07 6.8615236159530468285e-07 6.7631259526024223305e-07 6.652468869106087368e-07 6.5306511487506213598e-07 6.3988323972807847895e-07 6.2582137161371065304e-07 6.5898365164684946649e-07 6.4146979639190249145e-07 6.4146979639190249145e-07 6.234090506040956825e-07 -1.1754940241844054161e+38 -1.1754940241844054161e+38 -1.1754940241844054161e+38 -1.1754940241844054161e+38 -1.1754940241844054161e+38 -1.1754940241844054161e+38 -1.1754940241844054161e+38 -1.1754940241844054161e+38 -1.1754940241844054161e+38 -1.1754940241844054161e+38 
-1.1754940241844054161e+38 2.1054761134564614622e-07 2.2772233876366954064e-07 2.3562952833344752435e-07 2.4373173346248222515e-07 2.5202001552315778099e-07 2.6048343215734348632e-07 2.691088525352824945e-07 2.9266206524880544748e-07 3.0237455916903854813e-07 3.1222316465573385358e-07 3.2218281376117374748e-07 3.3222514161934668664e-07 3.6285089777265966404e-07 3.7400164387690892909e-07 3.8514903621944540646e-07 3.962465484619315248e-07 4.0724384575696603861e-07 4.1808701212175947148e-07 4.5805529680364998057e-07 4.6963472755123802926e-07 4.808613311979570426e-07 4.9166141025125398301e-07 5.0195973244626657106e-07 5.5029454415489453822e-07 5.605405704045551829e-07 5.6998106856553931721e-07 5.7853389989759307355e-07 5.861215868208091706e-07 6.4094933804881293327e-07 6.4716505221440456808e-07 6.5207086663576774299e-07 6.5561511064515798353e-07 6.5775992652561399154e-07 6.5848223584907827899e-07 7.1384613420377718285e-07 7.1140453883344889618e-07 7.1140453883344889618e-07 7.0736069801569101401e-07 7.0176008648559218273e-07 7.5443637115313322283e-07 7.4467402555455919355e-07 7.3340373774044564925e-07 7.2074738000083016232e-07 7.0683677222405094653e-07 6.9181049866529065184e-07 7.3112244081130484119e-07 7.1195859163708519191e-07 6.9205930230964440852e-07 6.7158782712795073166e-07 -1.1754940241844054161e+38 -1.1754940241844054161e+38 -1.1754940241844054161e+38 -1.1754940241844054161e+38 -1.1754940241844054161e+38 -1.1754940241844054161e+38 -1.1754940241844054161e+38 -1.1754940241844054161e+38 -1.1754940241844054161e+38 -1.1754940241844054161e+38 
-1.1754940241844054161e+38 2.2001715649366815342e-07 2.2772233876366954064e-07 2.4680696242285193875e-07 2.555676417159702396e-07 2.645456902428122703e-07 2.737301372235378949e-07 2.8310762445471482351e-07 3.083970625539222965e-07 3.1900574981591489632e-07 3.2978419994833529927e-07 3.4070561127919063438e-07 3.5173937362742435653e-07 3.8493536180794762913e-07 3.9725264855405839626e-07 4.0959136526907968801e-07 4.2189964233330101706e-07 4.3412097738837474026e-07 4.4619451955441036262e-07 4.9002079549609334208e-07 5.0299064469072618522e-07 5.1558913582994136959e-07 5.2773094694202882238e-07 5.3932876653561834246e-07 5.9281751418893691152e-07 6.044259066584345419e-07 6.1513793525591609068e-07 6.1513793525591609068e-07 6.248558861443598289e-07 6.3348790035888669081e-07 6.9458667439903365448e-07 7.0169642185646807775e-07 7.0731232426624046639e-07 7.1137196755444165319e-07 7.1382976329914527014e-07 7.774086157041892875e-07 7.7647496254940051585e-07 7.7366649975374457426e-07 7.6901699230802478269e-07 7.6258180570221156813e-07 8.2122636513304314576e-07 8.0998859175451798365e-07 7.9703255551066831686e-07 7.8250570823001908138e-07 7.6656675673802965321e-07 7.4938213856512447819e-07 7.9245893402912770398e-07 7.7056785130480420776e-07 7.478928409909713082e-07 7.2462592015654081479e-07 -1.1754940241844054161e+38 -1.1754940241844054161e+38 -1.1754940241844054161e+38 -1.1754940241844054161e+38 -1.1754940241844054161e+38 -1.1754940241844054161e+38 -1.1754940241844054161e+38 -1.1754940241844054161e+38 -1.1754940241844054161e+38 -1.1754940241844054161e+38 
-1.1754940241844054161e+38 2.2997025439508433919e-07 2.3827230677397892578e-07 2.5859512220449687447e-07 2.6807305175680085085e-07 2.7780433242696744855e-07 2.8777824923054140527e-07 2.9798133027725270949e-07 3.2515220027562463656e-07 3.3675067356853105593e-07 3.485589843421621481e-07 3.6054859720024978742e-07 3.7268657138156413566e-07 4.0870719431040924974e-07 4.2233290287185809575e-07 4.3601176002994179726e-07 4.3601176002994179726e-07 4.4968601287109777331e-07 4.6329233782671508379e-07 5.1004923307118588127e-07 5.2490241841951501556e-07 5.3946223488310351968e-07 5.5363386763929156587e-07 5.6731829545242362656e-07 6.2567670511270989664e-07 6.397467586793936789e-07 6.5293801299048936926e-07 6.6513041474536294118e-07 6.7620783283928176388e-07 6.8606033210016903467e-07 7.5434655855133314617e-07 7.6250870506555656902e-07 7.6896139944437891245e-07 7.7362903994071530178e-07 7.764561473777575884e-07 8.4772619857176323421e-07 8.4664765154229826294e-07 8.434041092186816968e-07 8.3803695360984420404e-07 8.3061371469739242457e-07 8.2122636513304314576e-07 8.8310196133534191176e-07 8.6815060740264016204e-07 8.514147680216410663e-07 8.3308651710467529483e-07 8.1336645507690263912e-07 8.6063664639368653297e-07 8.3555028140835929662e-07 8.0963491200236603618e-07 7.8311688866961048916e-07 -1.1754940241844054161e+38 -1.1754940241844054161e+38 -1.1754940241844054161e+38 -1.1754940241844054161e+38 -1.1754940241844054161e+38 -1.1754940241844054161e+38 -1.1754940241844054161e+38 -1.1754940241844054161e+38 -1.1754940241844054161e+38 -1.1754940241844054161e+38 
-1.1754940241844054161e+38 2.4042978452598617878e-07 2.4937872922237147577e-07 2.7102609578832925763e-07 2.8128539497629390098e-07 2.8128539497629390098e-07 2.9183945571276126429e-07 3.0267807460404583253e-07 3.3058847748179687187e-07 3.4299807794013759121e-07 3.5569041756389196962e-07 3.6864022945337637793e-07 3.818173865965945879e-07 3.9518658923043403774e-07 4.3431410290395433549e-07 4.4940941279492108151e-07 4.6459817326649499591e-07 4.7981620809878222644e-07 4.9499249143991619349e-07 5.463482466439018026e-07 5.6302360462723299861e-07 5.7940610531659331173e-07 5.9538638197409454733e-07 6.1084955405021901242e-07 6.7564707251221989281e-07 6.9165508875812520273e-07 7.0669176466253702529e-07 7.2061430955727701075e-07 7.3328385497006820515e-07 7.4456858101257239468e-07 8.2112296695413533598e-07 8.3052941590722184628e-07 8.3797277738995035179e-07 8.4336090822034748271e-07 8.4662588051287457347e-07 9.2678595819961628877e-07 9.2553472086365218274e-07 9.2177276656002504751e-07 9.1555091330519644544e-07 9.0695226617754087783e-07 8.9608960252007818781e-07 9.6520250281173503026e-07 9.4787839088894543238e-07 9.2852212674188194796e-07 9.0736739366548135877e-07 8.8465696990169817582e-07 9.3660196398559492081e-07 9.077584195438248571e-07 8.7804767190391430631e-07 8.4773705566476564854e-07 -1.1754940241844054161e+38 -1.1754940241844054161e+38 -1.1754940241844054161e+38 -1.1754940241844054161e+38 -1.1754940241844054161e+38 -1.1754940241844054161e+38 -1.1754940241844054161e+38 -1.1754940241844054161e+38 -1.1754940241844054161e+38 -1.1754940241844054161e+38 
-1.1754940241844054161e+38 -1.1754940241844054161e+38 2.5141898163383302744e-07 2.7337088681633758824e-07 2.8413282393557892647e-07 2.9524343858611246105e-07 3.0669642114844464231e-07 3.1848236403675400652e-07 3.4844742913264781237e-07 3.62009444643263123e-07 3.7591144064208492637e-07 3.9012746810840326361e-07 4.0462597894475038629e-07 4.1936948491638759151e-07 4.6191723868105327711e-07 4.7866541308394516818e-07 4.9555796977074351162e-07 5.1252368393761571497e-07 5.2948303164157550782e-07 5.8598601526682614349e-07 6.0474877727756393142e-07 6.2322618532562046312e-07 6.4129164911719271913e-07 6.5881170030479552224e-07 7.3093497121590189636e-07 7.4920461656802217476e-07 7.664007739549560938e-07 7.8235302680695895106e-07 7.9689482390676857904e-07 8.0986728789866901934e-07 8.9597000396679504775e-07 9.0685466602735687047e-07 9.1547650526990764774e-07 9.2172257382117095403e-07 9.2550948238567798398e-07 1.0159898238271125592e-06 1.0145315627596573904e-06 1.010148480418138206e-06 1.0029036729974905029e-06 9.9289957233850145712e-07 9.8027544481738004833e-07 1.0577001603451208211e-06 1.0375406418461352587e-06 1.0150614571102778427e-06 9.9054818747390527278e-07 9.6429607765458058566e-07 1.0214558869847678579e-06 9.8817793059424730018e-07 9.5400662303291028365e-07 9.1925812739646062255e-07 -1.1754940241844054161e+38 -1.1754940241844054161e+38 -1.1754940241844054161e+38 -1.1754940241844054161e+38 -1.1754940241844054161e+38 -1.1754940241844054161e+38 -1.1754940241844054161e+38 -1.1754940241844054161e+38 -1.1754940241844054161e+38 -1.1754940241844054161e+38 
-1.1754940241844054161e+38 -1.1754940241844054161e+38 2.6296120836377667729e-07 2.8631257009692490101e-07 2.9794887268508318812e-07 3.0998697297945909668e-07 3.2242218139799661003e-07 3.3524628406667034142e-07 3.67432193115746486e-07 3.8226519905038003344e-07 3.9750560176798899192e-07 4.1312719645247852895e-07 4.2909726971629424952e-07 4.4537628696161846165e-07 4.9169216254085768014e-07 5.1030184522460331209e-07 5.2911991588189266622e-07 5.4806758953418466263e-07 5.6705596307438099757e-07 6.2932974742579972371e-07 6.5048948272306006402e-07 6.7138074655304080807e-07 6.9185716711217537522e-07 7.1176299343278515153e-07 7.3093497121590189636e-07 8.1316289879396208562e-07 8.3289586427781614475e-07 8.5123900817052344792e-07 8.6799178689034306444e-07 8.8296189915126888081e-07 9.8013651950168423355e-07 9.9278599918761756271e-07 1.0028170436271466315e-06 1.010090159070387017e-06 1.0145021178686874919e-06 1.1170182006026152521e-06 1.1153105106131988578e-06 1.1101792551926337183e-06 1.1017028782589477487e-06 1.0900092775045777671e-06 1.0752710295491851866e-06 1.1622760212048888206e-06 1.1622760212048888206e-06 1.1387106724214390852e-06 1.1124911907245405018e-06 1.083968641069077421e-06 1.1537113095982931554e-06 1.1164829629706218839e-06 1.0779510830616345629e-06 1.038518803397892043e-06 9.9856094948336249217e-07 -1.1754940241844054161e+38 -1.1754940241844054161e+38 -1.1754940241844054161e+38 -1.1754940241844054161e+38 -1.1754940241844054161e+38 -1.1754940241844054161e+38 -1.1754940241844054161e+38 -1.1754940241844054161e+38 -1.1754940241844054161e+38 
-1.1754940241844054161e+38 -1.1754940241844054161e+38 2.7507988420438778121e-07 2.9992213512741727754e-07 3.1250817755790194497e-07 3.255567264659475768e-07 3.3906513863257714547e-07 3.530271328600065317e-07 3.8761308474022371229e-07 4.0384833255302510224e-07 4.2057033056153159123e-07 4.3775312974503322039e-07 4.5536330617323983461e-07 4.7335964836747734807e-07 5.2382989679244928993e-07 5.4453875009130570106e-07 5.6553614058429957367e-07 5.8673526837083045393e-07 6.0803699852840509266e-07 6.7679189896807656623e-07 7.0071075697342166677e-07 7.2439087261955137365e-07 7.4766273883142275736e-07 7.7034468404235667549e-07 7.9224457749660359696e-07 8.844228318594105076e-07 9.0714758016474661417e-07 9.2831908204971114174e-07 9.4769450242893071845e-07 9.6504004432063084096e-07 1.0751090258054318838e-06 1.0751090258054318838e-06 1.0898766049649566412e-06 1.1016016969733755104e-06 1.110110929403163027e-06 1.2298462479520821944e-06 1.2318969311309047043e-06 1.2298868341531488113e-06 1.223848926201753784e-06 1.2138815463913488202e-06 1.2001449931631213985e-06 1.3051667338004335761e-06 1.2809440477212774567e-06 1.2532651680885464884e-06 1.2225427781231701374e-06 1.189210820484731812e-06 1.2666058637478272431e-06 1.2231855635036481544e-06 1.1784038633777527139e-06 1.1327446145514841191e-06 1.0866519914998207241e-06 -1.1754940241844054161e+38 -1.1754940241844054161e+38 -1.1754940241844054161e+38 -1.1754940241844054161e+38 -1.1754940241844054161e+38 -1.1754940241844054161e+38 -1.1754940241844054161e+38 -1.1754940241844054161e+38 -1.1754940241844054161e+38 
-1.1754940241844054161e+38 -1.1754940241844054161e+38 2.8779805916201439686e-07 3.1422749202647537459e-07 3.2784484460535168182e-07 3.4199393894596141763e-07 3.5667494557856116444e-07 3.7188411283750610892e-07 4.0906306253418733831e-07 4.2684570189521764405e-07 4.4520845676743192598e-07 4.6412625920311256777e-07 4.8356577053709770553e-07 5.0348450031378888525e-07 5.5853786307125119492e-07 5.8161668903267127462e-07 6.0508432397909928113e-07 6.2884544149710563943e-07 6.5278982219751924276e-07 7.2883591428762883879e-07 7.2883591428762883879e-07 7.5593845849653007463e-07 7.8284938354045152664e-07 8.0937235225064796396e-07 8.352948270839988254e-07 9.3631871322941151448e-07 9.6402573035447858274e-07 9.9029375633108429611e-07 1.0148258979825186543e-06 1.0373269105912186205e-06 1.1620546729318448342e-06 1.1826651871160720475e-06 1.1999892421954427846e-06 1.2137625162722542882e-06 1.2237684359206468798e-06 1.2298462479520821944e-06 1.3630832427224959247e-06 1.3607040045826579444e-06 1.353560264760744758e-06 1.3417763966572238132e-06 1.3255545354695641436e-06 1.4447920193561003543e-06 1.4161296348902396858e-06 1.3834537639922928065e-06 1.3472808859660290182e-06 1.3081498764222487807e-06 1.3941798897576518357e-06 1.3433251524475053884e-06 1.2910787745568086393e-06 1.2380218095131567679e-06 1.184681650556740351e-06 -1.1754940241844054161e+38 -1.1754940241844054161e+38 -1.1754940241844054161e+38 -1.1754940241844054161e+38 -1.1754940241844054161e+38 -1.1754940241844054161e+38 -1.1754940241844054161e+38 -1.1754940241844054161e+38 -1.1754940241844054161e+38 
-1.1754940241844054161e+38 -1.1754940241844054161e+38 3.0113835691736312583e-07 3.2925584037002408877e-07 3.4399258197481685784e-07 3.5934004927185014822e-07 3.7530202234847820364e-07 3.9187813172247842886e-07 4.0906306253418733831e-07 4.5134777337807463482e-07 4.5134777337807463482e-07 4.7152798288152553141e-07 4.923748520013759844e-07 5.1385603683229419403e-07 5.7088271887550945394e-07 5.9604059288176358677e-07 6.2179861970435013063e-07 6.480701699729252141e-07 6.7475144760464900173e-07 7.5528123488766141236e-07 7.8598282016173470765e-07 8.1676790841811452992e-07 8.474318065054831095e-07 8.7774708390497835353e-07 9.0746510750250308774e-07 1.0211285825789673254e-06 1.0531902034927043132e-06 1.0836730552910012193e-06 1.1122167506982805207e-06 1.1384610161258024164e-06 1.280683704862894956e-06 1.3049428844169597141e-06 1.3253708175398060121e-06 1.3416357660389621742e-06 1.3534651088775717653e-06 1.3606560287371394224e-06 1.5135760804696474224e-06 1.5107434592209756374e-06 1.5022418438093154691e-06 1.4882300547469640151e-06 1.4689650242871721275e-06 1.6048768429755000398e-06 1.5707694274169625714e-06 1.5319864132834482007e-06 1.4891777482262114063e-06 1.4430170267587527633e-06 1.5387952316814335063e-06 1.4789725355512928218e-06 1.4177726370689924806e-06 1.3558948239733581431e-06 1.2939642601850209758e-06 -1.1754940241844054161e+38 -1.1754940241844054161e+38 -1.1754940241844054161e+38 -1.1754940241844054161e+38 -1.1754940241844054161e+38 -1.1754940241844054161e+38 -1.1754940241844054161e+38 -1.1754940241844054161e+38 -1.1754940241844054161e+38 
-1.1754940241844054161e+38 -1.1754940241844054161e+38 -1.1754940241844054161e+38 3.2977064279293699656e-07 3.4503335655244882219e-07 3.6098450095778389368e-07 3.7763626892228785437e-07 3.9499715853708039504e-07 4.1307126252831949387e-07 4.5607265519720385782e-07 4.7744805442562210374e-07 4.9964182835537940264e-07 5.2263442285038763657e-07 5.4639542668155627325e-07 6.0855131778225768358e-07 6.3658086446594097652e-07 6.6537069187688757665e-07 6.9482928211073158309e-07 7.2484425572838517837e-07 7.5528123488766141236e-07 8.4881793327440391295e-07 8.8387304231218877248e-07 9.1890871090072323568e-07 9.5366146979358745739e-07 9.8784016699937637895e-07 1.1161034763063071296e-06 1.1533468295965576544e-06 1.1888657809322467074e-06 1.2222217264934442937e-06 1.2529723107945756055e-06 1.4158218846205272712e-06 1.4445269016505335458e-06 1.468746972932422068e-06 1.4880628214086755179e-06 1.5021287254057824612e-06 1.5106863884284393862e-06 1.6870616263986448757e-06 1.683667846918979194e-06 1.6734869632273330353e-06 1.6567228158237412572e-06 1.6337057786586228758e-06 1.789270982044399716e-06 1.7484397858424927108e-06 1.7021442317854962312e-06 1.6512079810127033852e-06 1.5964777730914647691e-06 1.5387952316814335063e-06 1.6325673186656786129e-06 1.5605820635755662806e-06 1.4881463812344009057e-06 1.4160013961372897029e-06 -1.1754940241844054161e+38 -1.1754940241844054161e+38 -1.1754940241844054161e+38 -1.1754940241844054161e+38 -1.1754940241844054161e+38 -1.1754940241844054161e+38 -1.1754940241844054161e+38 -1.1754940241844054161e+38 -1.1754940241844054161e+38 
-1.1754940241844054161e+38 -1.1754940241844054161e+38 -1.1754940241844054161e+38 3.4510162549850065261e-07 3.615846537741163047e-07 3.7885234860368655063e-07 3.9692295672466570977e-07 4.1581094478715385776e-07 4.3552608985919505358e-07 4.8178696943068644032e-07 5.0524243988547823392e-07 5.296672611621033866e-07 5.550468813453335315e-07 5.813548682453983929e-07 6.4915212760752183385e-07 6.8041964595977333374e-07 7.1264400958170881495e-07 7.4572972152964212e-07 7.7955650112926377915e-07 8.1397757867307518609e-07 9.179988751384371426e-07 9.5801738098089117557e-07 9.9815986231988063082e-07 1.0381212405263795517e-06 1.0775605687740608118e-06 1.2227436627654242329e-06 1.266180106540559791e-06 1.3077454923404729925e-06 1.3469033319779555313e-06 1.3831084970661322586e-06 1.5704036968600121327e-06 1.6045610209403093904e-06 1.6334454358002403751e-06 1.6565229543630266562e-06 1.673351448516768869e-06 1.6835994074426707812e-06 1.8881034975493093953e-06 1.8840099755834671669e-06 1.8717357761488528922e-06 1.8515459032641956583e-06 1.8238679331261664629e-06 2.0027171103720320389e-06 1.9535225419531343505e-06 1.8979220612891367637e-06 1.8369669305684510618e-06 1.7717283071760903113e-06 1.7717283071760903113e-06 1.8909239543063449673e-06 1.8069895304506644607e-06 1.7219554138137027621e-06 1.6368352362405858003e-06 1.5525052958764717914e-06 -1.1754940241844054161e+38 -1.1754940241844054161e+38 -1.1754940241844054161e+38 -1.1754940241844054161e+38 -1.1754940241844054161e+38 -1.1754940241844054161e+38 -1.1754940241844054161e+38 -1.1754940241844054161e+38 
-1.1754940241844054161e+38 -1.1754940241844054161e+38 -1.1754940241844054161e+38 3.6113175383434281684e-07 3.7893212834205769468e-07 3.976260245508456137e-07 4.1723899357748450711e-07 4.3779300540336407721e-07 4.5930519831927085761e-07 5.0907806325994897634e-07 5.3482835937757045031e-07 5.6172484619310125709e-07 5.8976036143576493487e-07 6.1891461200502817519e-07 6.9291564841478248127e-07 7.2783672067089355551e-07 7.6395519954530755058e-07 8.0117365541809704155e-07 8.3936532746520242654e-07 8.7837156570458319038e-07 9.9426370070432312787e-07 1.0400657401987700723e-06 1.0861901955649955198e-06 1.1322850923534133472e-06 1.1779509350162697956e-06 1.3428085594568983652e-06 1.3936802361058653332e-06 1.4425407925955369137e-06 1.488731641074991785e-06 1.531577140667650383e-06 1.5704036968600121327e-06 1.788892291187949013e-06 1.8235550669487565756e-06 1.8513053419155767187e-06 1.87157240816304693e-06 1.883927325252443552e-06 2.1173227651161141694e-06 2.1223970634309807792e-06 2.1174230369069846347e-06 2.1025177829869790003e-06 2.0780287286470411345e-06 2.3019595118967117742e-06 2.251098521810490638e-06 2.1914204353379318491e-06 2.1242105958663159981e-06 2.050821876764530316e-06 1.9726173832168569788e-06 2.1057928734080633149e-06 2.0056454559380654246e-06 1.9047533896809909493e-06 1.8043361933450796641e-06 1.705425461295817513e-06 -1.1754940241844054161e+38 -1.1754940241844054161e+38 -1.1754940241844054161e+38 -1.1754940241844054161e+38 -1.1754940241844054161e+38 -1.1754940241844054161e+38 -1.1754940241844054161e+38 -1.1754940241844054161e+38 
-1.1754940241844054161e+38 -1.1754940241844054161e+38 -1.1754940241844054161e+38 3.6113175383434281684e-07 3.9709544807919883169e-07 4.1733269995347654913e-07 4.3862087295565288514e-07 4.6099111727926356252e-07 4.8446997880091657862e-07 5.380226753004535567e-07 5.6630352673892048188e-07 5.9593753576336894184e-07 6.2692782876183628105e-07 6.5926326442422578111e-07 7.4008454475915641524e-07 7.79129891270713415e-07 8.1966697962343459949e-07 8.6159940337893203832e-07 9.0479630898698815145e-07 9.4908824621597887017e-07 1.078439595403324347e-06 1.1309966794215142727e-06 1.1841483456009882502e-06 1.2374890729915932752e-06 1.2905512676297803409e-06 1.4171561133480281569e-06 1.4783661299588857219e-06 1.5382062201751978137e-06 1.5959141137500409968e-06 1.6506780866620829329e-06 1.7016565152516704984e-06 1.9529966266418341547e-06 2.0022600892843911424e-06 2.0441364085854729638e-06 2.077737235595122911e-06 2.1023195131419925019e-06 2.3908958155516302213e-06 2.3971101654751691967e-06 2.3910185973363695666e-06 2.3727761799818836153e-06 2.342843799851834774e-06 2.6041379896923899651e-06 2.5417687083972850814e-06 2.4688392841198947281e-06 2.3870329641795251518e-06 2.2981032543611945584e-06 2.203797293987008743e-06 2.3526713448518421501e-06 2.2325682493828935549e-06 2.1123187252669595182e-06 1.9933850126108154655e-06 1.8769738971968763508e-06 -1.1754940241844054161e+38 -1.1754940241844054161e+38 -1.1754940241844054161e+38 -1.1754940241844054161e+38 -1.1754940241844054161e+38 -1.1754940241844054161e+38 -1.1754940241844054161e+38 -1.1754940241844054161e+38 
-1.1754940241844054161e+38 -1.1754940241844054161e+38 -1.1754940241844054161e+38 3.7787441442560520954e-07 4.1609055756453017239e-07 4.3799607851724431384e-07 4.6110179141578555573e-07 4.8545030040259007365e-07 5.1107980425513233058e-07 5.6869475884013809264e-07 5.9976440525133511983e-07 6.3242902115234755911e-07 6.6670583009909023531e-07 7.0259665108096669428e-07 7.4911582714776159264e-07 7.9091176985457423143e-07 8.3461429767339723185e-07 8.8016804511426016688e-07 9.2748229008066118695e-07 9.7642578111845068634e-07 1.1123368039989145473e-06 1.1714519132510758936e-06 1.2319172810748568736e-06 1.2933465995956794359e-06 1.3552747759604244493e-06 1.5598586742271436378e-06 1.6318523421432473697e-06 1.7025625993483117782e-06 1.7710578958940459415e-06 1.8363339222560171038e-06 1.8973372561958967708e-06 2.1907833342993399128e-06 2.2505432752950582653e-06 2.3014983980829128996e-06 2.3424877326760906726e-06 2.3725337996438611299e-06 2.7136713924846844748e-06 2.7213475277676479891e-06 2.7138230507262051105e-06 2.6913066903944127262e-06 2.6544159936747746542e-06 2.6041379896923899651e-06 2.8839899641752708703e-06 2.7941616735915886238e-06 2.6938514565699733794e-06 2.5853505576378665864e-06 2.4709133867872878909e-06 2.6373336368124000728e-06 2.4925382149376673624e-06 2.348553152842214331e-06 2.2071246803534450009e-06 2.0696493265859317034e-06 -1.1754940241844054161e+38 -1.1754940241844054161e+38 -1.1754940241844054161e+38 -1.1754940241844054161e+38 -1.1754940241844054161e+38 -1.1754940241844054161e+38 -1.1754940241844054161e+38 -1.1754940241844054161e+38 
-1.1754940241844054161e+38 -1.1754940241844054161e+38 -1.1754940241844054161e+38 -1.1754940241844054161e+38 4.1353237634211836848e-07 4.3592893916866159998e-07 4.5963525963088613935e-07 4.8471048330611665733e-07 5.1121122623953851871e-07 5.6885176036303164437e-07 6.0116394706710707396e-07 6.3530421812174608931e-07 6.7132162939742556773e-07 7.0925221962170326151e-07 7.4911582714776159264e-07 8.4565829183702589944e-07 8.9462025698594516143e-07 9.4587204557683435269e-07 9.9933515684824669734e-07 1.054883568940567784e-06 1.2064797374478075653e-06 1.2743327033604145981e-06 1.3440770771921961568e-06 1.4152835774439154193e-06 1.4874224234517896548e-06 1.7211029899044660851e-06 1.8061427908833138645e-06 1.8900936993304640055e-06 1.9718156636372441426e-06 2.0500613118201727048e-06 2.1235050553514156491e-06 2.4680623482709052041e-06 2.5410890884813852608e-06 2.6035718292405363172e-06 2.6539776172285201028e-06 2.691007694011204876e-06 3.0972187232691794634e-06 3.1067888812685851008e-06 3.0974076707934727892e-06 3.0693593089381465688e-06 3.0234821224439656362e-06 2.96111124953313265e-06 3.2895284221012843773e-06 3.1779436540091410279e-06 3.0539695217157714069e-06 2.9206262297520879656e-06 2.7808407594420714304e-06 2.9667323815374402329e-06 2.7912187761103268713e-06 2.6180034637945936993e-06 2.4491521344316424802e-06 2.2862566311232512817e-06 -1.1754940241844054161e+38 -1.1754940241844054161e+38 -1.1754940241844054161e+38 -1.1754940241844054161e+38 -1.1754940241844054161e+38 -1.1754940241844054161e+38 -1.1754940241844054161e+38 -1.1754940241844054161e+38 
-1.1754940241844054161e+38 -1.1754940241844054161e+38 -1.1754940241844054161e+38 -1.1754940241844054161e+38 4.3245333358754578512e-07 4.5661653302886406891e-07 4.8226365834125317633e-07 5.0946988494615652598e-07 5.3830905244467430748e-07 6.0010768265783553943e-07 6.3549310880262055434e-07 6.7301061790203675628e-07 7.1273387902692775242e-07 7.5472382832231232896e-07 7.9902451943780761212e-07 9.0458968315942911431e-07 9.5949019396357471123e-07 1.0172150268772384152e-06 1.0777069974210462533e-06 1.1408541240598424338e-06 1.3101749800625839271e-06 1.3882287248634384014e-06 1.4688832834508502856e-06 1.5516686744376784191e-06 1.6359866776838316582e-06 1.9037449874304002151e-06 2.0046379631821764633e-06 2.104799477820051834e-06 2.2028330022294539958e-06 2.297183755217702128e-06 2.3861759927967796102e-06 2.7932067041547270492e-06 2.8831511826865607873e-06 2.9604098017443902791e-06 3.0229375624912790954e-06 3.0689868708577705547e-06 3.5565283269534120336e-06 3.5685818602360086516e-06 3.5567663871916010976e-06 3.521474127410328947e-06 3.463859457042417489e-06 3.3857529615488601848e-06 3.773463049583369866e-06 3.6335807180876145139e-06 3.4790614336088765413e-06 3.3139203878818079829e-06 3.1419822335010394454e-06 3.3492465263407211751e-06 3.1353149552160175517e-06 2.925947910625836812e-06 2.7235580546403070912e-06 2.7235580546403070912e-06 2.5299170829384820536e-06 -1.1754940241844054161e+38 -1.1754940241844054161e+38 -1.1754940241844054161e+38 -1.1754940241844054161e+38 -1.1754940241844054161e+38 -1.1754940241844054161e+38 -1.1754940241844054161e+38 
-1.1754940241844054161e+38 -1.1754940241844054161e+38 -1.1754940241844054161e+38 -1.1754940241844054161e+38 4.5209642962618090678e-07 4.7815268544582067989e-07 5.0588755584612954408e-07 5.353957135412201751e-07 5.6677151860640151426e-07 6.3299160046881297603e-07 6.7173579054724541493e-07 7.1296261694442364387e-07 7.5677718314182129689e-07 8.032725986595323775e-07 8.525254315827623941e-07 9.6797100468393182382e-07 1.0295740366927930154e-06 1.0946517932097776793e-06 1.1631808547463151626e-06 1.2350756151136010885e-06 1.4244286603570799343e-06 1.5144074723139056005e-06 1.6079147826530970633e-06 1.7044469586835475639e-06 1.8033380229098838754e-06 1.9037449874304002151e-06 2.2313638510240707546e-06 2.3514764961873879656e-06 2.4697462777112377807e-06 2.5842318791546858847e-06 2.6928030365525046363e-06 3.1767601740284590051e-06 3.288483640062622726e-06 3.3848759812826756388e-06 3.4631764265213860199e-06 3.5210059650125913322e-06 4.1112516555585898459e-06 4.1266030166298151016e-06 4.111554517294280231e-06 4.0666568565939087421e-06 4.0666568565939087421e-06 3.9935234781296458095e-06 4.5096826397639233619e-06 4.3553040995902847499e-06 4.1782104744925163686e-06 3.9838710108597297221e-06 3.7776701447000959888e-06 4.0614545468997675925e-06 3.7949744182697031647e-06 3.5327416298969183117e-06 3.2784832910692784935e-06 3.0349578992172610015e-06 2.8040622055414132774e-06 -1.1754940241844054161e+38 -1.1754940241844054161e+38 -1.1754940241844054161e+38 -1.1754940241844054161e+38 -1.1754940241844054161e+38 -1.1754940241844054161e+38 -1.1754940241844054161e+38 
-1.1754940241844054161e+38 -1.1754940241844054161e+38 -1.1754940241844054161e+38 -1.1754940241844054161e+38 4.724485052065574564e-07 5.005288130632834509e-07 5.3050501946927397512e-07 5.6249467661473318003e-07 5.9661704199243104085e-07 6.6752511429513106123e-07 7.0993331746649346314e-07 7.5522729048316250555e-07 8.0355181353297666647e-07 8.5504160551863606088e-07 9.0981575340265408158e-07 1.036061007653188426e-06 1.1052229638153221458e-06 1.1786494269472314045e-06 1.256368250324157998e-06 1.33833748350298265e-06 1.5503254644499975257e-06 1.6542605862923664972e-06 1.7629348576519987546e-06 1.8758260011964011937e-06 1.9922065348509931937e-06 2.1111204659973736852e-06 2.4910909814934711903e-06 2.6358882223576074466e-06 2.7794199013442266732e-06 2.7794199013442266732e-06 2.9192556212365161628e-06 3.4774559480865718797e-06 3.6321011975815054029e-06 3.7721499666076852009e-06 3.8935927477723453194e-06 3.9926576391735579818e-06 4.7292933231801725924e-06 4.7874805204628501087e-06 4.8072729441628325731e-06 4.7878711484372615814e-06 4.730059117719065398e-06 4.6361305976461153477e-06 5.2594114094972610474e-06 5.0605481192178558558e-06 4.8339420573029201478e-06 4.5871411202824674547e-06 4.3274303607176989317e-06 4.648003141483059153e-06 4.3160680434084497392e-06 3.992801794083788991e-06 3.6825952065555611625e-06 3.3884957701957318932e-06 3.1124022825679276139e-06 -1.1754940241844054161e+38 -1.1754940241844054161e+38 -1.1754940241844054161e+38 -1.1754940241844054161e+38 -1.1754940241844054161e+38 -1.1754940241844054161e+38 -1.1754940241844054161e+38 
-1.1754940241844054161e+38 -1.1754940241844054161e+38 -1.1754940241844054161e+38 -1.1754940241844054161e+38 4.9348818720318377018e-07 5.2372729442140553147e-07 5.5610382787563139573e-07 5.9076251091028098017e-07 6.2785238696960732341e-07 6.6752511429513106123e-07 7.5011087119492003694e-07 7.9985528600445832126e-07 8.5314229636423988268e-07 9.1015942871308652684e-07 9.7108102181664435193e-07 1.1091030955867609009e-06 1.1867801958942436613e-06 1.2696787052846048027e-06 1.3579011692854692228e-06 1.3579011692854692228e-06 1.5753531670270604081e-06 1.6890207916731014848e-06 1.8093020344167598523e-06 1.93589926311688032e-06 2.0682982722064480186e-06 2.2057283786125481129e-06 2.6162902031501289457e-06 2.7894714094145456329e-06 2.9649738735315622762e-06 3.1402405511471442878e-06 3.3122285003628348932e-06 3.9818587538320571184e-06 4.176343281869776547e-06 4.3536365410545840859e-06 4.508268830250017345e-06 4.6350201046152506024e-06 4.7292933231801725924e-06 5.6203493841167073697e-06 5.6462163229298312217e-06 5.6208596106444019824e-06 5.5454174798796884716e-06 5.4232109505392145365e-06 6.1822934185329359025e-06 5.9228746067674364895e-06 5.6295466492883861065e-06 5.3128524086787365377e-06 4.9827312977868132293e-06 5.3434291658049914986e-06 4.9271015996055211872e-06 4.5263504944159649312e-06 4.1461953514954075217e-06 3.7898089431109838188e-06 3.4588547350722365081e-06 -1.1754940241844054161e+38 -1.1754940241844054161e+38 -1.1754940241844054161e+38 -1.1754940241844054161e+38 -1.1754940241844054161e+38 -1.1754940241844054161e+38 -1.1754940241844054161e+38 
-1.1754940241844054161e+38 -1.1754940241844054161e+38 -1.1754940241844054161e+38 -1.1754940241844054161e+38 5.1518463806132785976e-07 5.4771982149759423919e-07 5.8266016367269912735e-07 6.2018210655878647231e-07 6.2018210655878647231e-07 6.6047005020664073527e-07 7.4154803542114677839e-07 7.9227379501389805228e-07 8.4687621892953757197e-07 9.0561138677003327757e-07 9.6873338861769298092e-07 1.1061739542128634639e-06 1.187315319839399308e-06 1.2745693993565510027e-06 1.3682014241567230783e-06 1.4684200095871347003e-06 1.7108591237047221512e-06 1.8417257479086401872e-06 1.9811593574559083208e-06 2.1289583855832461268e-06 2.2846620595373678952e-06 2.4474913971062051132e-06 2.9238860861369175836e-06 3.1331940135714830831e-06 3.3470942071289755404e-06 3.562486881492077373e-06 3.7755655739601934329e-06 4.5845963541069068015e-06 4.8315614549210295081e-06 5.0584071686898823828e-06 5.257584689388750121e-06 5.4217689466895535588e-06 5.5444193094444926828e-06 6.6579041231307201087e-06 6.6922248151968233287e-06 6.6585807871888391674e-06 6.5586609707679599524e-06 6.3973729993449524045e-06 7.3303963290527462959e-06 6.9872730819042772055e-06 6.6027964749082457274e-06 6.1918749452161137015e-06 5.7681754697114229202e-06 5.3434291658049914986e-06 5.645445526170078665e-06 5.1459132919262629002e-06 4.6780946831859182566e-06 4.2449282773304730654e-06 3.8474163375212810934e-06 -1.1754940241844054161e+38 -1.1754940241844054161e+38 -1.1754940241844054161e+38 -1.1754940241844054161e+38 -1.1754940241844054161e+38 -1.1754940241844054161e+38 -1.1754940241844054161e+38 
-1.1754940241844054161e+38 -1.1754940241844054161e+38 -1.1754940241844054161e+38 -1.1754940241844054161e+38 -1.1754940241844054161e+38 5.3749658945889677852e-07 5.7246631968155270442e-07 6.1013651020402903669e-07 6.5072100596808013506e-07 6.9444587325051543303e-07 7.8099071743054082617e-07 8.3640270531759597361e-07 8.9629298827276215889e-07 9.6099358870560536161e-07 1.0308418723070644774e-06 1.1802378594438778237e-06 1.2708769645541906357e-06 1.3688797935174079612e-06 1.4746540273335995153e-06 1.5885553921179962344e-06 1.7108591237047221512e-06 2.0096836124139372259e-06 2.1715534330724040046e-06 2.3444472390110604465e-06 2.528029426684952341e-06 2.7215760383114684373e-06 3.2759910482127452269e-06 3.5301541174703743309e-06 3.7923239233350614086e-06 4.0587838157080113888e-06 4.3247910070931538939e-06 5.3096018746146000922e-06 5.6264780141646042466e-06 5.9200915529800113291e-06 6.1799019022146239877e-06 6.3954739744076505303e-06 6.5573412939556874335e-06 7.9669871411169879138e-06 8.0133004303206689656e-06 7.9679002737975679338e-06 7.8333514466066844761e-06 7.6170708780409768224e-06 8.7753351181163452566e-06 8.3145559983677230775e-06 7.8037210187176242471e-06 7.2641687438590452075e-06 6.7148116613680031151e-06 6.1712453316431492567e-06 6.4915893744910135865e-06 5.8657042245613411069e-06 5.287862677505472675e-06 4.7600760808563791215e-06 4.2819538066396489739e-06 -1.1754940241844054161e+38 -1.1754940241844054161e+38 -1.1754940241844054161e+38 -1.1754940241844054161e+38 -1.1754940241844054161e+38 -1.1754940241844054161e+38 -1.1754940241844054161e+38 
-1.1754940241844054161e+38 -1.1754940241844054161e+38 -1.1754940241844054161e+38 -1.1754940241844054161e+38 -1.1754940241844054161e+38 5.6037089279925567098e-07 5.9791290141220088117e-07 6.3848000309008057229e-07 6.8232924377298331819e-07 7.2973551823451998644e-07 8.2198204154337872751e-07 8.8244854623553692363e-07 9.4807546702213585377e-07 1.0192873105552280322e-06 1.0965246701744035818e-06 1.2587249784701270983e-06 1.3599125168184400536e-06 1.4699470511914114468e-06 1.5894254374870797619e-06 1.7189044001497677527e-06 1.8588674493003054522e-06 2.1941314116702415049e-06 2.3822649382054805756e-06 2.5848610221146373078e-06 2.8018216653435956687e-06 3.0325841180456336588e-06 3.6795704545511398464e-06 3.9896290218166541308e-06 4.3127838580403476954e-06 4.6446584747172892094e-06 4.9793934522313065827e-06 6.18767990090418607e-06 6.5987937887257430702e-06 6.9836073635087814182e-06 7.3272199188068043441e-06 7.6145311140862759203e-06 7.8315779319382272661e-06 9.6423900686204433441e-06 9.7060865300591103733e-06 9.6436442618141882122e-06 9.4590632215840741992e-06 9.1638366939150728285e-06 1.0617151929182000458e-05 9.9879443951067514718e-06 9.9879443951067514718e-06 9.2991576821077615023e-06 8.5816936916671693325e-06 7.861831363698001951e-06 8.3450286183506250381e-06 7.4893146120302844793e-06 6.7014493652095552534e-06 5.9855105973838362843e-06 5.3413191380968783051e-06 5.3017215577710885555e-06 -1.1754940241844054161e+38 -1.1754940241844054161e+38 -1.1754940241844054161e+38 -1.1754940241844054161e+38 -1.1754940241844054161e+38 -1.1754940241844054161e+38 
-1.1754940241844054161e+38 -1.1754940241844054161e+38 -1.1754940241844054161e+38 -1.1754940241844054161e+38 -1.1754940241844054161e+38 5.8374183709020144306e-07 6.2399107036981149577e-07 6.6762032702172291465e-07 7.1493667519462178461e-07 7.6627173939414205961e-07 8.6443071722897002473e-07 9.303273600380634889e-07 1.0021536809290410019e-06 1.0804461680891108699e-06 1.1657724598990171216e-06 1.3416122328635537997e-06 1.4544723399012582377e-06 1.5779297655171831138e-06 1.712829316602437757e-06 1.8599981785882846452e-06 2.0202091945975553244e-06 2.3962472823768621311e-06 2.6150778467126656324e-06 2.8528045277198543772e-06 3.1097360988496802747e-06 3.385643367437296547e-06 4.1425100789638236165e-06 4.5224401219456922263e-06 4.9230070544581394643e-06 5.339210474630817771e-06 5.7639153965283185244e-06 6.18767990090418607e-06 7.7984332165215164423e-06 8.309658369398675859e-06 8.309658369398675859e-06 8.7710486695868894458e-06 9.1603806140483357012e-06 1.1561216524569317698e-05 1.1821455700555816293e-05 1.1910972716577816755e-05 1.1823217391793150455e-05 1.156461166829103604e-05 1.3753866369370371103e-05 1.2997949852433521301e-05 1.212276583828497678e-05 1.1179115062986966223e-05 1.0212207598669920117e-05 9.2585651145782321692e-06 9.7672818810679018497e-06 8.6655263658030889928e-06 7.6698788689100183547e-06 6.7808982748829293996e-06 5.9940211940556764603e-06 5.8904474826704245061e-06 -1.1754940241844054161e+38 -1.1754940241844054161e+38 -1.1754940241844054161e+38 -1.1754940241844054161e+38 -1.1754940241844054161e+38 -1.1754940241844054161e+38 
-1.1754940241844054161e+38 -1.1754940241844054161e+38 -1.1754940241844054161e+38 -1.1754940241844054161e+38 -1.1754940241844054161e+38 6.0752967101507238112e-07 6.5061578879976877943e-07 6.9746812414450687356e-07 7.4845075914709013887e-07 8.0396097246193676256e-07 9.0821083631453802809e-07 9.7991437542077619582e-07 1.0584102483335300349e-06 1.1443695484558702447e-06 1.2385140735204913653e-06 1.428790938007296063e-06 1.5545105043202056549e-06 1.6928813693084521219e-06 1.8450691641191951931e-06 2.0122602109040599316e-06 2.1956220734864473343e-06 2.617075324451434426e-06 2.871697915907134302e-06 2.871697915907134302e-06 3.1509086966252652928e-06 3.4556760510895401239e-06 4.240776434016879648e-06 4.6735885916859842837e-06 5.1410715968813747168e-06 5.6403087000944651663e-06 6.1658824961341451854e-06 6.709324679832207039e-06 8.5744677562615834177e-06 9.2920772658544592559e-06 9.9812968983314931393e-06 1.0611262950988020748e-05 1.1148690646223258227e-05 1.4334636034618597478e-05 1.4708079106640070677e-05 1.4837033631920348853e-05 1.4710613868373911828e-05 1.4339495464810170233e-05 1.7213713363162241876e-05 1.6123212844831869006e-05 1.4880867638566996902e-05 1.3565613699029199779e-05 1.2244089703017380089e-05 1.0966673471557442099e-05 1.1475187420728616416e-05 1.0049448064819443971e-05 8.7876796897035092115e-06 7.6827463999507017434e-06 6.7220253185951150954e-06 6.5307112890877760947e-06 -1.1754940241844054161e+38 -1.1754940241844054161e+38 -1.1754940241844054161e+38 -1.1754940241844054161e+38 -1.1754940241844054161e+38 -1.1754940241844054161e+38 
-1.1754940241844054161e+38 -1.1754940241844054161e+38 -1.1754940241844054161e+38 -1.1754940241844054161e+38 -1.1754940241844054161e+38 6.3164009134197840467e-07 6.7768451117444783449e-07 7.2791283400874817744e-07 7.8275388659676536918e-07 8.4268015143607044592e-07 9.5315743919854867272e-07 1.0310383231626474299e-06 1.0310383231626474299e-06 1.1166728199896169826e-06 1.2108920373066212051e-06 1.3938051779405213892e-06 1.520046794212248642e-06 1.6598593219896429218e-06 1.8147172795579535887e-06 1.9861968212353531271e-06 2.1759540231869323179e-06 2.5907454528351081535e-06 2.8574256702995626256e-06 3.1536339974991278723e-06 3.4817014693544479087e-06 3.8436210161307826638e-06 4.755051122629083693e-06 5.2823361329501494765e-06 5.859682460140902549e-06 6.4851069510041270405e-06 7.153310889407293871e-06 7.854695468267891556e-06 1.0202553312410600483e-05 1.1169491699547506869e-05 1.2113587217754684389e-05 1.2989701644983142614e-05 1.3747068805969320238e-05 1.806255386327393353e-05 1.8613432985148392618e-05 1.8804581486620008945e-05 1.8617187379277311265e-05 1.8069697034661658108e-05 1.7213713363162241876e-05 2.0295696231187321246e-05 1.8492122762836515903e-05 1.6624802810838446021e-05 1.4792133697483222932e-05 1.3062172001809813082e-05 1.3522525478038005531e-05 1.1670705134747549891e-05 1.0069639756693504751e-05 8.6971185737638734281e-06 7.5265170380589552224e-06 7.2178581831394694746e-06 -1.1754940241844054161e+38 -1.1754940241844054161e+38 -1.1754940241844054161e+38 -1.1754940241844054161e+38 -1.1754940241844054161e+38 -1.1754940241844054161e+38 
-1.1754940241844054161e+38 -1.1754940241844054161e+38 -1.1754940241844054161e+38 -1.1754940241844054161e+38 -1.1754940241844054161e+38 -1.1754940241844054161e+38 6.5596344711593701504e-07 7.050762178550940007e-07 7.5882167038798797876e-07 8.1770156157290330157e-07 9.22550725590554066e-07 9.9906264949822798371e-07 1.0834760360012296587e-06 1.1767065188905689865e-06 1.2797731869795825332e-06 1.3938051779405213892e-06 1.615040673641487956e-06 1.7702018340060021728e-06 1.9431774944678181782e-06 2.1360619939514435828e-06 2.3511181552748894319e-06 2.8108022434025770053e-06 3.1177457913145190105e-06 3.4620381939021172002e-06 3.8474163375212810934e-06 4.2774177018145564944e-06 5.3352314353105612099e-06 5.9787166719615925103e-06 6.6939314820047002286e-06 7.4810891419474501163e-06 8.3361619545030407608e-06 9.2491945906658656895e-06 1.2231027540110517293e-05 1.3552331438404507935e-05 1.4867952813801821321e-05 1.611140214663464576e-05 1.720383443171158433e-05 2.3188664272311143577e-05 2.4027744075283408165e-05 2.4320690499735064805e-05 2.403348844381980598e-05 2.3199494535219855607e-05 2.191076418966986239e-05 2.5970211936510168016e-05 2.3286431314772926271e-05 2.058298196061514318e-05 1.8003813238465227187e-05 1.5636509488103911281e-05 1.5964984413585625589e-05 1.355565018457127735e-05 1.1525662557687610388e-05 9.8252385214436799288e-06 8.4045377661823295057e-06 7.9428627941524609923e-06 -1.1754940241844054161e+38 -1.1754940241844054161e+38 -1.1754940241844054161e+38 -1.1754940241844054161e+38 -1.1754940241844054161e+38 -1.1754940241844054161e+38 
-1.1754940241844054161e+38 -1.1754940241844054161e+38 -1.1754940241844054161e+38 -1.1754940241844054161e+38 -1.1754940241844054161e+38 -1.1754940241844054161e+38 6.8037428491152240895e-07 7.3265056244053994305e-07 7.9003820019352133386e-07 8.5312024111772188917e-07 9.6328312793048098683e-07 1.04567243397468701e-06 1.1369473895683768205e-06 1.2382064369376166724e-06 1.350687057311006356e-06 1.4757797544007189572e-06 1.7132872471847804263e-06 1.8850422520699794404e-06 2.0777856661879923195e-06 2.2942576833884231746e-06 2.5374915821885224432e-06 3.0454036732407985255e-06 3.3979590625676792115e-06 3.7974950828356668353e-06 4.2497272261243779212e-06 4.760462616104632616e-06 5.9866442825295962393e-06 6.772535016352776438e-06 7.6604655987466685474e-06 8.6550389823969453573e-06 9.755758583196438849e-06 1.0954249773931223899e-05 1.477423666074173525e-05 1.6606165445409715176e-05 1.8473576346877962351e-05 2.0278368538129143417e-05 2.1895997633691877127e-05 3.0425220757024362683e-05 3.1752257200423628092e-05 3.2219286367762833834e-05 3.1761395803187042475e-05 3.0442248316830955446e-05 2.8434402338461950421e-05 3.3843170967884361744e-05 2.9740562240476720035e-05 2.574631798779591918e-05 2.2064321456127800047e-05 1.8795040887198410928e-05 1.8852400899049825966e-05 1.8852400899049825966e-05 1.5721105228294618428e-05 1.3156343811715487391e-05 1.1060604265367146581e-05 9.3471899162977933884e-06 8.6913123595877550542e-06 -1.1754940241844054161e+38 -1.1754940241844054161e+38 -1.1754940241844054161e+38 -1.1754940241844054161e+38 -1.1754940241844054161e+38 
-1.1754940241844054161e+38 -1.1754940241844054161e+38 -1.1754940241844054161e+38 -1.1754940241844054161e+38 -1.1754940241844054161e+38 -1.1754940241844054161e+38 7.0473140567628433928e-07 7.6024747386327362619e-07 8.2138154766653315164e-07 8.8880642579169943929e-07 1.0042039093605126254e-06 1.0926842151093296707e-06 1.1911113233509240672e-06 1.3007910411033662967e-06 1.4232123248802963644e-06 1.5600695633111172356e-06 1.8141357713830075227e-06 2.0036770820297533646e-06 2.2178071503731189296e-06 2.4600569759058998898e-06 2.7344265163264935836e-06 3.2935031413217075169e-06 3.6972735415474744514e-06 4.1597554627514909953e-06 4.6893919716239906847e-06 5.2952464102418161929e-06 5.9866442825295962393e-06 7.6724500104319304228e-06 8.7758717199903912842e-06 1.003602392302127555e-05 1.1460116184025537223e-05 1.30455482576508075e-05 1.7978987671085633337e-05 2.0556384697556495667e-05 2.3259204681380651891e-05 2.5944087610696442425e-05 2.841161040123552084e-05 4.0959588659461587667e-05 4.0959588659461587667e-05 4.3154290324309840798e-05 4.3934953282587230206e-05 4.3169526179553940892e-05 4.0987528336700052023e-05 5.1374641770962625742e-05 4.4999429519521072507e-05 3.8543781556654721498e-05 3.2521184039069339633e-05 2.7196352675673551857e-05 2.730257983785122633e-05 2.2214640921447426081e-05 1.8164771972806192935e-05 1.4947026102163363248e-05 1.2385513400658965111e-05 1.033771059155697003e-05 9.4426859504892490804e-06 -1.1754940241844054161e+38 -1.1754940241844054161e+38 -1.1754940241844054161e+38 -1.1754940241844054161e+38 -1.1754940241844054161e+38 
-1.1754940241844054161e+38 -1.1754940241844054161e+38 -1.1754940241844054161e+38 -1.1754940241844054161e+38 -1.1754940241844054161e+38 -1.1754940241844054161e+38 7.2887831947809900157e-07 7.8768761113678920083e-07 8.5264656490835477598e-07 9.2452563649203511886e-07 1.0450074796608532779e-06 1.1397457910788943991e-06 1.2455632258934201673e-06 1.3639983080793172121e-06 1.4968246659918804653e-06 1.6460861615996691398e-06 1.9167539448972092941e-06 2.1251689759083092213e-06 2.362206714678904973e-06 2.6323527890781406313e-06 2.9407960937533061951e-06 3.5533175832824781537e-06 4.0139648262993432581e-06 4.5474198486772365868e-06 5.1658007578225806355e-06 5.8827308748732320964e-06 6.7130963543604593724e-06 7.5157381616008933634e-06 8.68445931700989604e-06 1.0054825906991027296e-05 1.1653483852569479495e-05 1.3502714864443987608e-05 1.8764569176710210741e-05 2.2029491447028703988e-05 2.570770811871625483e-05 2.969964589283335954e-05 3.3802571124397218227e-05 3.7695350329158827662e-05 5.6858960306271910667e-05 6.0689490055665373802e-05 6.2072052969597280025e-05 6.0716367443092167377e-05 5.6907203543232753873e-05 7.2057242505252361298e-05 6.1149134126026183367e-05 5.0680137064773589373e-05 4.1424675146117806435e-05 3.3646007068455219269e-05 3.2808511605253443122e-05 2.6038997020805254579e-05 2.0852139641647227108e-05 1.6860734831425361335e-05 1.3767479686066508293e-05 1.134977355832234025e-05 1.0170251698582433164e-05 -1.1754940241844054161e+38 -1.1754940241844054161e+38 -1.1754940241844054161e+38 -1.1754940241844054161e+38 -1.1754940241844054161e+38 
-1.1754940241844054161e+38 -1.1754940241844054161e+38 -1.1754940241844054161e+38 -1.1754940241844054161e+38 -1.1754940241844054161e+38 -1.1754940241844054161e+38 7.526439276261953637e-07 8.1477321600686991587e-07 8.8360422978439601138e-07 9.6001326710393186659e-07 1.0450074796608532779e-06 1.1864555062857107259e-06 1.2998343663639388978e-06 1.4272824273575679399e-06 1.5708912997070001438e-06 1.7331002482023905031e-06 2.0201164261379744858e-06 2.0201164261379744858e-06 2.2483247903437586501e-06 2.5096132958424277604e-06 2.8095967081753769889e-06 3.3743826861609704792e-06 3.8221855902520474046e-06 4.3451486817502882332e-06 4.9575796765566337854e-06 5.6764306464174296707e-06 6.5215476752200629562e-06 8.3915838331449776888e-06 9.8097279987996444106e-06 1.1507112503750249743e-05 1.3533552191802300513e-05 1.593886372575070709e-05 2.2608370272791944444e-05 2.7147016226081177592e-05 3.2464220566907897592e-05 3.8480779039673507214e-05 4.4934189645573496819e-05 5.1313621952431276441e-05 8.190623339032754302e-05 8.9047105575446039438e-05 9.1678361059166491032e-05 8.9097986347042024136e-05 8.1994818174280226231e-05 0.00010454451694386079907 8.4986575529910624027e-05 6.7501925514079630375e-05 5.3058240155223757029e-05 4.1638995753601193428e-05 3.9118607674026861787e-05 3.0238974431995302439e-05 2.3701280952082015574e-05 1.8831335182767361403e-05 1.5156461813603527844e-05 1.2346587936917785555e-05 1.0841958101082127541e-05 -1.1754940241844054161e+38 -1.1754940241844054161e+38 -1.1754940241844054161e+38 -1.1754940241844054161e+38 -1.1754940241844054161e+38 
-1.1754940241844054161e+38 -1.1754940241844054161e+38 -1.1754940241844054161e+38 -1.1754940241844054161e+38 -1.1754940241844054161e+38 -1.1754940241844054161e+38 -1.1754940241844054161e+38 7.7584417113030212931e-07 8.412891929765464738e-07 9.1400329438329208642e-07 9.9497538030846044421e-07 1.1248530427110381424e-06 1.2323647524681291543e-06 1.3533937135434825905e-06 1.4900149380991933867e-06 1.6446698509753332473e-06 1.9064781326960655861e-06 2.12300142266030889e-06 2.3716854684607824311e-06 2.6582943064568098634e-06 2.9897521471866639331e-06 3.5961647881777025759e-06 4.09644690080313012e-06 4.6865634431014768779e-06 5.3854491852689534426e-06 6.2162398535292595625e-06 7.2070329224516171962e-06 9.3317275968729518354e-06 1.1041711331927217543e-05 1.313321990892291069e-05 1.5692821762058883905e-05 1.8817951058736070991e-05 2.7245840101386420429e-05 3.3575699490029364824e-05 4.1339462768519297242e-05 5.05807802255731076e-05 6.1040460423100739717e-05 7.1950111305341124535e-05 0.00012342723493929952383 0.00013787418720312416553 0.0001433627912774682045 0.00013797947030980139971 0.00012360251275822520256 0.00015744246775284409523 0.00012063604663126170635 9.0699599240906536579e-05 6.7985900386702269316e-05 5.1283157517900690436e-05 3.9118607674026861787e-05 3.4619723010109737515e-05 2.6569807232590392232e-05 2.0759520339197479188e-05 1.6484336811117827892e-05 1.3281538485898636281e-05 1.142258315667277202e-05 -1.1754940241844054161e+38 -1.1754940241844054161e+38 -1.1754940241844054161e+38 -1.1754940241844054161e+38 -1.1754940241844054161e+38 
-1.1754940241844054161e+38 -1.1754940241844054161e+38 -1.1754940241844054161e+38 -1.1754940241844054161e+38 -1.1754940241844054161e+38 -1.1754940241844054161e+38 -1.1754940241844054161e+38 7.982839633768890053e-07 8.6700583779020234942e-07 9.435728429707523901e-07 1.0290917771271779202e-06 1.1631069583017961122e-06 1.2769834256687317975e-06 1.4056531654205173254e-06 1.5514893902945914306e-06 1.7173115338664501905e-06 1.9906674424419179559e-06 2.2239967165660345927e-06 2.493525471436441876e-06 2.8061456305294996127e-06 3.1702643354947213084e-06 3.5961647881777025759e-06 4.3713666855182964355e-06 5.032404260418843478e-06 5.8240361795469652861e-06 6.7770629357255529612e-06 7.9301662481157109141e-06 1.0319424291083123535e-05 1.2362703273538500071e-05 1.491842704126611352e-05 1.8128797819372266531e-05 2.2169366275193169713e-05 3.2731481041992083192e-05 4.1538751247571781278e-05 5.292960486258380115e-05 6.7341868998482823372e-05 8.4798695752397179604e-05 0.00010434559226268902421 0.00019651500042527914047 0.00022891105618327856064 0.0002418165386188775301 0.00022915544104762375355 0.00019689470354933291674 0.00024615900474600493908 0.00017382367514073848724 0.00012191110727144405246 8.6418040154967457056e-05 6.2394232372753322124e-05 4.599724343279376626e-05 3.88549851777497679e-05 2.9251701562316156924e-05 2.2515294404001906514e-05 1.7668264263193123043e-05 1.7668264263193123043e-05 1.4750006812391802669e-05 1.1877161341544706374e-05 -1.1754940241844054161e+38 -1.1754940241844054161e+38 -1.1754940241844054161e+38 -1.1754940241844054161e+38 
-1.1754940241844054161e+38 -1.1754940241844054161e+38 -1.1754940241844054161e+38 -1.1754940241844054161e+38 -1.1754940241844054161e+38 -1.1754940241844054161e+38 -1.1754940241844054161e+38 8.1975974808301543817e-07 8.916816796045168303e-07 9.720255320644355379e-07 1.062020032804866787e-06 1.1996779676337609999e-06 1.3197862926972447895e-06 1.4559752798959380016e-06 1.6109305533973383717e-06 1.7878705875773448497e-06 2.0715333448606543243e-06 2.3215206965687684715e-06 2.6118732421309687197e-06 2.9507064027711749077e-06 3.3480625916126882657e-06 3.8164230318216141313e-06 4.6411328185058664531e-06 5.375247837946517393e-06 6.2639228417538106441e-06 7.3471110226819291711e-06 8.6765621745144017041e-06 1.1328409527777694166e-05 1.3740275790041778237e-05 1.6825782950036227703e-05 2.080687409033998847e-05 2.5980019927374087274e-05 3.901537638739682734e-05 5.1141389121767133474e-05 6.7791617766488343477e-05 9.0438050392549484968e-05 0.00012029976642224937677 0.000157049755216576159 0.00033417699160054326057 0.00041686434997245669365 0.00045247047091834247112 0.00041752404649741947651 0.0003350932092871516943 0.00061323336558416485786 0.00039572155219502747059 0.00025034882128238677979 0.00016146096459124237299 0.0001076057524187490344 7.4257040978409349918e-05 5.9150883316760882735e-05 4.2500174458837136626e-05 3.1493640562985092402e-05 2.395042611169628799e-05 1.8619064576341770589e-05 1.5179142792476341128e-05 1.2175308256701100618e-05 -1.1754940241844054161e+38 -1.1754940241844054161e+38 -1.1754940241844054161e+38 -1.1754940241844054161e+38 
-1.1754940241844054161e+38 -1.1754940241844054161e+38 -1.1754940241844054161e+38 -1.1754940241844054161e+38 -1.1754940241844054161e+38 -1.1754940241844054161e+38 -1.1754940241844054161e+38 8.4006308043171884492e-07 9.1506757371462299488e-07 9.9906264949822798371e-07 1.0934005558738135733e-06 1.2341165529505815357e-06 1.3602242461274727248e-06 1.5036863487694063224e-06 1.6675082861183909699e-06 1.855321329458092805e-06 2.147716031686286442e-06 2.4138560092978877947e-06 2.7245500859862659127e-06 3.0892024369677528739e-06 3.5196019325667293742e-06 4.0306199480255600065e-06 4.8989636525220703334e-06 5.7061297411564737558e-06 6.6932484514836687595e-06 7.9107348938123323023e-06 9.4257511591422371566e-06 1.2322009752097073942e-05 1.5124535821087192744e-05 1.8789321984513662755e-05 2.3645259716431610286e-05 3.0163328119670040905e-05 3.0163328119670040905e-05 4.5862085244152694941e-05 6.2197796069085597992e-05 8.612855162937194109e-05 0.00012148360838182270527 0.0001732070377329364419 0.00039391484460793435574 0.00061075174016878008842 0.00085732334991917014122 0.0009787604212760925293 0.00085948489140719175339 0.001183718792162835598 0.00063238647999241948128 0.00034935129224322736263 0.00020577122631948441267 0.00012905945186503231525 8.5435582150239497423e-05 6.3653016695752739906e-05 4.5064825826557353139e-05 3.3036554668797180057e-05 2.4921700969571247697e-05 1.9254266589996404946e-05 1.5353116395999677479e-05 1.2295630767766851932e-05 -1.1754940241844054161e+38 -1.1754940241844054161e+38 -1.1754940241844054161e+38 -1.1754940241844054161e+38 
-1.1754940241844054161e+38 -1.1754940241844054161e+38 -1.1754940241844054161e+38 -1.1754940241844054161e+38 -1.1754940241844054161e+38 -1.1754940241844054161e+38 -1.1754940241844054161e+38 8.5898409452056512237e-07 9.369110784973599948e-07 1.0243792303299414925e-06 1.1228639777982607484e-06 1.2659672847803449258e-06 1.3977359003547462635e-06 1.5480912907150923274e-06 1.7203577726832008921e-06 1.9185820292477728799e-06 2.2178071503731189296e-06 2.4991993541334522888e-06 2.8292333809076808393e-06 3.2186226235353387892e-06 3.6809562971029663458e-06 3.6809562971029663458e-06 4.4198091018188279122e-06 5.1373349378991406411e-06 6.0148149714223109186e-06 7.0979936026560608298e-06 8.4486291598295792937e-06 1.0820641364261973649e-05 1.325378343608463183e-05 1.6447620510007254779e-05 2.0710105673060752451e-05 2.6502051696297712624e-05 3.4524975490057840943e-05 5.2769537433050572872e-05 7.3994677222799509764e-05 0.00010718902922235429287 0.00016077945474535226822 0.00024922005832195281982 0.00062847783556208014488 0.0011764582013711333275 0.0020250491797924041748 0.0025482701603323221207 0.0020337130408734083176 0.0021710291039198637009 0.00092872261302545666695 0.00044909695861861109734 0.00024465180467814207077 0.00014627378550358116627 9.3883470981381833553e-05 6.5576285123825073242e-05 4.6141580241965129972e-05 3.3676216844469308853e-05 2.5320585336885415018e-05 1.9513247025315649807e-05 1.5256954611686524004e-05 1.222916307597188279e-05 -1.1754940241844054161e+38 -1.1754940241844054161e+38 -1.1754940241844054161e+38 -1.1754940241844054161e+38 
-1.1754940241844054161e+38 -1.1754940241844054161e+38 -1.1754940241844054161e+38 -1.1754940241844054161e+38 -1.1754940241844054161e+38 -1.1754940241844054161e+38 -1.1754940241844054161e+38 8.7631599399173865095e-07 9.5696202606632141396e-07 1.0476715033291839063e-06 1.0476715033291839063e-06 1.1745623851311393082e-06 1.2947812138008885086e-06 1.431763621440040879e-06 1.5884932054177625105e-06 1.7686032833807985298e-06 2.0281172510294709355e-06 2.2803997126175090671e-06 2.5757285584404598922e-06 2.92354252451332286e-06 3.3358323889842722565e-06 3.8279631553450599313e-06 4.583506324706831947e-06 5.3483581723412498832e-06 6.2903013713366817683e-06 7.4626364039431791753e-06 8.9386476247454993427e-06 1.139933192462194711e-05 1.4070389624976087362e-05 1.7627055058255791664e-05 2.2458727471530437469e-05 2.9172186259529553354e-05 3.8740177842555567622e-05 5.8945526689058169723e-05 8.5104358731769025326e-05 0.00012849588529206812382 0.00020475243218243122101 0.00034739274997264146805 0.00092139519983902573586 0.0021518885623663663864 0.0048834355548024177551 0.0069214208051562309265 0.0049158753827214241028 0.0021710291039198637009 0.0011125860037282109261 0.00050177419325336813927 0.00026334694121032953262 0.00015409232582896947861 9.7582509624771773815e-05 6.4505962654948234558e-05 4.5543714804807677865e-05 3.3321626688120886683e-05 2.5099740014411509037e-05 1.9369994333828799427e-05 1.4898980225552804768e-05 1.1980881026829592884e-05 -1.1754940241844054161e+38 -1.1754940241844054161e+38 -1.1754940241844054161e+38 -1.1754940241844054161e+38 
-1.1754940241844054161e+38 -1.1754940241844054161e+38 -1.1754940241844054161e+38 -1.1754940241844054161e+38 -1.1754940241844054161e+38 -1.1754940241844054161e+38 -1.1754940241844054161e+38 -1.1754940241844054161e+38 8.91859713192388881e-07 9.7497832030057907104e-07 1.0686434279705281369e-06 1.1960879646721878089e-06 1.3201284900787868537e-06 1.4617698980146087706e-06 1.6242157698798109777e-06 1.8113876194547628984e-06 2.0281172510294709355e-06 2.3341458472714293748e-06 2.6416776108817430213e-06 3.0051446628931444138e-06 3.4377180782030336559e-06 3.9564238250022754073e-06 4.7191697376547381282e-06 5.5242780945263803005e-06 6.5215476752200629562e-06 7.7712102211080491543e-06 9.3573235062649473548e-06 1.1852349416585639119e-05 1.4716955774929374456e-05 1.8574097339296713471e-05 2.38877328229136765e-05 3.1403727916767820716e-05 4.2366900743218138814e-05 6.3421015511266887188e-05 9.3496069894172251225e-05 0.00014558006660081446171 0.00024329483858309686184 0.00044613296631723642349 0.0011027591535821557045 0.0029351743869483470917 0.0076324059627950191498 0.0099909594282507896423 0.0076850899495184421539 0.0029662114102393388748 0.0010047518881037831306 0.0004715942777693271637 0.0002527758479118347168 0.0001497055782238021493 9.5517229055985808372e-05 6.0676058637909591198e-05 4.3376065150368958712e-05 3.202369771315716207e-05 2.4285574909299612045e-05 1.8838991309166885912e-05 1.4898980225552804768e-05 1.1568859008548315614e-05 -1.1754940241844054161e+38 -1.1754940241844054161e+38 -1.1754940241844054161e+38 -1.1754940241844054161e+38 
-1.1754940241844054161e+38 -1.1754940241844054161e+38 -1.1754940241844054161e+38 -1.1754940241844054161e+38 -1.1754940241844054161e+38 -1.1754940241844054161e+38 -1.1754940241844054161e+38 -1.1754940241844054161e+38 9.0542880570865236223e-07 9.907320190905011259e-07 1.0870149935726658441e-06 1.2142983223384362645e-06 1.3416122328635537997e-06 1.4872554174871766008e-06 1.6546262031624792144e-06 1.8479031496099196374e-06 2.0722586668853182346e-06 2.3778168269927846268e-06 2.6954251097777159885e-06 3.0718747439095750451e-06 3.5213570299674756825e-06 4.0623458517075050622e-06 4.821861239179270342e-06 5.6580634009151253849e-06 6.6983720898861065507e-06 8.008694749150890857e-06 9.6820394901442341506e-06 1.1852349416585639119e-05 1.5144476492423564196e-05 1.9206716387998312712e-05 2.4854718503775075078e-05 3.2939195079961791635e-05 4.4917906052432954311e-05 6.5332518715877085924e-05 9.7169424407184123993e-05 0.00015333600458689033985 0.00026181410066783428192 0.00049821636639535427094 0.00099642365239560604095 0.0024579744786024093628 0.005949972197413444519 0.0084373764693737030029 0.0059916651807725429535 0.0024815606884658336639 0.0007165865972638130188 0.00037993889418430626392 0.00021823224960826337337 0.00021823224960826337337 0.00013472617138177156448 7.7651580795645713806e-05 5.4858443036209791899e-05 3.9994625694816932082e-05 2.9958993764012120664e-05 2.2971173166297376156e-05 1.7971904526348225772e-05 1.3533552191802300513e-05 1.1021304089808836579e-05 -1.1754940241844054161e+38 -1.1754940241844054161e+38 -1.1754940241844054161e+38 
-1.1754940241844054161e+38 -1.1754940241844054161e+38 -1.1754940241844054161e+38 -1.1754940241844054161e+38 -1.1754940241844054161e+38 -1.1754940241844054161e+38 -1.1754940241844054161e+38 -1.1754940241844054161e+38 9.1685427605625591241e-07 1.0040159850177587941e-06 1.1025305184375611134e-06 1.2289142432564403862e-06 1.3588822866950067692e-06 1.5077773696248186752e-06 1.6791606185506680049e-06 1.8774251202557934448e-06 2.1080306851217756048e-06 2.4103667328745359555e-06 2.7355786187399644405e-06 3.1218592084769625217e-06 3.5841967473970726132e-06 4.1422031245019752532e-06 4.8876213440962601453e-06 5.7440165619482286274e-06 6.8124149947834666818e-06 8.1625630627968348563e-06 9.8935834103031083941e-06 1.2149450412834994495e-05 1.5317786164814606309e-05 1.946462725754827261e-05 2.5251809347537346184e-05 3.3575699490029364824e-05 4.5988777856109663844e-05 6.4268773712683469057e-05 9.5118572062347084284e-05 0.00014898464723955839872 0.00014898464723955839872 0.00025134350289590656757 0.00037768925540149211884 0.00071178906364366412163 0.0014207654166966676712 0.0026438224595040082932 0.0034586400724947452545 0.0026569811161607503891 0.00073969311779364943504 0.00045474278158508241177 0.00027716756449081003666 0.00017413336900062859058 0.00011396467743907123804 6.5806198108475655317e-05 4.8034136852947995067e-05 3.5880733776139095426e-05 2.737734939728397876e-05 2.1292824385454878211e-05 1.6846421203808858991e-05 1.2626369425561279058e-05 1.0372321412432938814e-05 -1.1754940241844054161e+38 -1.1754940241844054161e+38 -1.1754940241844054161e+38 
-1.1754940241844054161e+38 -1.1754940241844054161e+38 -1.1754940241844054161e+38 -1.1754940241844054161e+38 -1.1754940241844054161e+38 -1.1754940241844054161e+38 -1.1754940241844054161e+38 -1.1754940241844054161e+38 9.2598935452770092525e-07 1.014649228636699263e-06 1.1149660394949023612e-06 1.2397048294587875716e-06 1.371647613268578425e-06 1.5229664995786151849e-06 1.6973461924862931482e-06 1.8993436015080078505e-06 2.1346381799958180636e-06 2.4309870241268072277e-06 2.7610569759417558089e-06 3.1536339974991278723e-06 3.6242274745745817199e-06 4.1931980376830324531e-06 4.9138147915073204786e-06 5.7783140618994366378e-06 6.8580170591303613037e-06 8.2242431744816713035e-06 8.2242431744816713035e-06 9.9786402643076144159e-06 1.2203114238218404353e-05 1.5221991816360969096e-05 1.9321967556606978178e-05 2.5031959012267179787e-05 3.3222866477444767952e-05 4.3238189391558989882e-05 6.0461818065959960222e-05 8.7914952018763870001e-05 0.00013412094267550855875 0.00021710923465434461832 0.00037768925540149211884 0.00045247047091834247112 0.00073631788836792111397 0.0010851058177649974823 0.0012665931135416030884 0.0010882811620831489563 0.00039632685366086661816 0.00028192857280373573303 0.00019342821906320750713 0.00013257817772682756186 9.2349684564396739006e-05 5.4373773309634998441e-05 4.1071536543313413858e-05 3.1502655474469065666e-05 2.4539122023270465434e-05 1.9400113160372711718e-05 1.5551277101621963084e-05 1.1642312529147602618e-05 9.6574622148182243109e-06 -1.1754940241844054161e+38 -1.1754940241844054161e+38 -1.1754940241844054161e+38 
-1.1754940241844054161e+38 -1.1754940241844054161e+38 -1.1754940241844054161e+38 -1.1754940241844054161e+38 -1.1754940241844054161e+38 -1.1754940241844054161e+38 -1.1754940241844054161e+38 -1.1754940241844054161e+38 9.3271364676184020936e-07 1.0224835023109335452e-06 1.1241370430070674047e-06 1.2397048294587875716e-06 1.3796878874927642755e-06 1.5325421145462314598e-06 1.7088225376937771216e-06 1.7088225376937771216e-06 1.9131914541503647342e-06 2.1581297460215864703e-06 2.4391524675593245775e-06 2.7711550956155406311e-06 3.1662400488130515441e-06 3.6401272609509760514e-06 4.2022966226795688272e-06 4.8993692871590610594e-06 5.7593947531131561846e-06 6.8328554334584623575e-06 8.1901989688049070537e-06 9.9316757768974639475e-06 1.1955707122979220003e-05 1.4865372577332891524e-05 1.8793134586303494871e-05 2.422141369606833905e-05 3.1931253033690154552e-05 3.9874164940556511283e-05 5.467726441565901041e-05 7.7368982601910829544e-05 0.00011350626300554722548 0.00017336086602881550789 0.00027583169867284595966 0.00028089701663702726364 0.00039511782233603298664 0.00050673499936237931252 0.00055633950978517532349 0.0005076456582173705101 0.00022805908520240336657 0.00017856703198049217463 0.0001339703449048101902 9.8869713838212192059e-05 7.2978727985173463821e-05 4.4266536860959604383e-05 3.4561770007712766528e-05 2.7224612495047040284e-05 2.1666810425813309848e-05 1.7430107618565671146e-05 1.4172246665111742914e-05 1.0630420547386165708e-05 8.9099785327562130988e-06 -1.1754940241844054161e+38 -1.1754940241844054161e+38 -1.1754940241844054161e+38 
-1.1754940241844054161e+38 -1.1754940241844054161e+38 -1.1754940241844054161e+38 -1.1754940241844054161e+38 -1.1754940241844054161e+38 -1.1754940241844054161e+38 -1.1754940241844054161e+38 -1.1754940241844054161e+38 -1.1754940241844054161e+38 9.3693688540952280164e-07 1.0274067108184681274e-06 1.1299043762846849859e-06 1.2491753977883490734e-06 1.3828619103151140735e-06 1.5363241345767164603e-06 1.7133577330241678283e-06 1.9186670670023886487e-06 2.1544599348999327049e-06 2.4346525151486275718e-06 2.7655894427880411968e-06 3.1592915092915063724e-06 3.6313617783889640123e-06 4.1600646909500937909e-06 4.8448778215970378369e-06 5.6881231103034224361e-06 6.7382165980234276503e-06 8.0623904068488627672e-06 9.755758583196438849e-06 1.1545110282895620912e-05 1.4277750779001507908e-05 1.7929509340319782495e-05 2.2912687200005166233e-05 2.9876255212002433836e-05 3.5780176403932273388e-05 4.788887599715963006e-05 6.559157191077247262e-05 9.2026435595471411943e-05 0.00013208678865339607 0.00019269202311988919973 0.00017808307893574237823 0.00022757460828870534897 0.00026946951402351260185 0.00028647211729548871517 0.00026978985988534986973 0.0001406011579092592001 0.00011726167576853185892 9.3883470981381833553e-05 7.3493014497216790915e-05 5.7028115406865254045e-05 4.4266536860959604383e-05 2.8811011361540295184e-05 2.3278258595382794738e-05 1.8921617083833552897e-05 1.5491659723920747638e-05 1.278227591683389619e-05 9.6304847829742357135e-06 8.1582884376985020936e-06 -1.1754940241844054161e+38 -1.1754940241844054161e+38 -1.1754940241844054161e+38 
-1.1754940241844054161e+38 -1.1754940241844054161e+38 -1.1754940241844054161e+38 -1.1754940241844054161e+38 -1.1754940241844054161e+38 -1.1754940241844054161e+38 -1.1754940241844054161e+38 -1.1754940241844054161e+38 -1.1754940241844054161e+38 9.3860148808744270355e-07 1.0293479135725647211e-06 1.132179136220656801e-06 1.2476994015742093325e-06 1.3811135204377933405e-06 1.5342405959017924033e-06 1.7108591237047221512e-06 1.9156500457029324025e-06 2.1405476218205876648e-06 2.4176038095902185887e-06 2.744516905295313336e-06 3.1330014280683826655e-06 3.598226385292946361e-06 4.1600646909500937909e-06 4.752541826746892184e-06 5.5676960073469672352e-06 6.5788422034529503435e-06 7.8480152296833693981e-06 9.4621018433826975524e-06 1.0999397090927232057e-05 1.3504914022632874548e-05 1.680835157458204776e-05 2.124127786373719573e-05 2.7306132324156351388e-05 3.1421677704202011228e-05 4.0959588659461587667e-05 5.4217511205933988094e-05 7.2760150942485779524e-05 9.8567848908714950085e-05 0.00013357010902836918831 0.00011702094343490898609 0.00014038404333405196667 0.00015843138680793344975 0.00016536771727260202169 0.0001585640275152400136 9.1892303316853940487e-05 7.9975645348895341158e-05 6.7118853621650487185e-05 5.5006388720357790589e-05 4.4489912397693842649e-05 3.5796903830487281084e-05 2.3913346012705005705e-05 1.9778082787524908781e-05 1.9778082787524908781e-05 1.640191658225376159e-05 1.3660320291819516569e-05 1.0172993825108278543e-05 8.6718300735810771585e-06 7.4247400334570556879e-06 -1.1754940241844054161e+38 -1.1754940241844054161e+38 
-1.1754940241844054161e+38 -1.1754940241844054161e+38 -1.1754940241844054161e+38 -1.1754940241844054161e+38 -1.1754940241844054161e+38 -1.1754940241844054161e+38 -1.1754940241844054161e+38 -1.1754940241844054161e+38 -1.1754940241844054161e+38 9.3768466058463673107e-07 1.028278802550630644e-06 1.1309261935821268708e-06 1.2420921393641037866e-06 1.3744735269938246347e-06 1.5263312889146618545e-06 1.7013778688124148175e-06 1.9042070107389008626e-06 2.1167213617445668206e-06 2.3884419988462468609e-06 2.7085234250989742577e-06 3.0881676593708107248e-06 3.5418224797467701137e-06 4.0883273868530523032e-06 4.6259679038485046476e-06 5.4033193919167388231e-06 6.3623924688727129251e-06 7.5585912782116793096e-06 9.0684470706037245691e-06 1.0352519893785938621e-05 1.2600856280187144876e-05 1.5517955034738406539e-05 1.9355966287548653781e-05 2.4479766580043360591e-05 2.7161097023054026067e-05 3.4477765439078211784e-05 4.4155545765534043312e-05 5.6883072829805314541e-05 7.3308656283188611269e-05 9.3661772552877664566e-05 7.9848214227240532637e-05 9.1785230324603617191e-05 9.1785230324603617191e-05 0.00010046446550404652953 0.00010368703806307166815 6.7534012487158179283e-05 6.3004088588058948517e-05 5.648736259900033474e-05 4.9071855755755677819e-05 4.1667710320325568318e-05 3.485849083517678082e-05 2.3431619410985149443e-05 1.9836359570035710931e-05 1.6754665921325795352e-05 1.4154392374621238559e-05 1.1980881026829592884e-05 9.0126768554910086095e-06 7.773837751301471144e-06 6.7254645728098694235e-06 -1.1754940241844054161e+38 -1.1754940241844054161e+38 
-1.1754940241844054161e+38 -1.1754940241844054161e+38 -1.1754940241844054161e+38 -1.1754940241844054161e+38 -1.1754940241844054161e+38 -1.1754940241844054161e+38 -1.1754940241844054161e+38 -1.1754940241844054161e+38 -1.1754940241844054161e+38 9.3419907898351084441e-07 1.0242148391625960357e-06 1.1261648751315078698e-06 1.2324461522439378314e-06 1.3630591411128989421e-06 1.5127453707464155741e-06 1.68510621278983308e-06 1.8845879594664438628e-06 2.0835325358348200098e-06 2.3478978619095869362e-06 2.6585873911244561896e-06 3.0261169285950018093e-06 3.4639733712538145483e-06 3.9896290218166541308e-06 4.4698499550577253103e-06 5.2016980589542072266e-06 6.0986189964751247317e-06 7.2085776992025785148e-06 8.5966939877835102379e-06 9.639881682232953608e-06 1.1620023542491253465e-05 1.1620023542491253465e-05 1.4143698535917792469e-05 1.7393169400747865438e-05 2.1618563550873659551e-05 2.3229316866490989923e-05 2.8748958357027731836e-05 3.5718956496566534042e-05 4.4393949792720377445e-05 5.4892523621674627066e-05 4.8996498662745580077e-05 5.6415905419271439314e-05 6.294694321695715189e-05 6.7501925514079630375e-05 6.9154615630395710468e-05 4.7475296014454215765e-05 4.4926047849003225565e-05 4.1148796299239620566e-05 3.6679186450783163309e-05 3.2014431781135499477e-05 2.7524314646143466234e-05 1.9084778614342212677e-05 1.6487403627252206206e-05 1.4187750821292866021e-05 1.2189198059786576778e-05 1.0473719157744199038e-05 7.9651626947452314198e-06 6.9474913289013784379e-06 6.0709526223945431411e-06 -1.1754940241844054161e+38 -1.1754940241844054161e+38 
-1.1754940241844054161e+38 -1.1754940241844054161e+38 -1.1754940241844054161e+38 -1.1754940241844054161e+38 -1.1754940241844054161e+38 -1.1754940241844054161e+38 -1.1754940241844054161e+38 -1.1754940241844054161e+38 -1.1754940241844054161e+38 9.2819220753881381825e-07 1.0172150268772384152e-06 1.1179687362528056838e-06 1.2189181006760918535e-06 1.3470685189531650394e-06 1.4937356809241464362e-06 1.6623689589323475957e-06 1.857213874245644547e-06 2.0417271571204764768e-06 2.2969541078055044636e-06 2.2969541078055044636e-06 2.596018248368636705e-06 2.9486154744517989457e-06 3.3670912671368569136e-06 3.7252523270581150427e-06 4.2895862861769273877e-06 4.9704408411344047636e-06 5.7984116210718639195e-06 6.8138215283397585154e-06 7.5120128713024314493e-06 8.8946053438121452928e-06 1.0611262950988020748e-05 1.2758236152876634151e-05 1.5461304428754374385e-05 1.8883110897149890661e-05 1.9740771676879376173e-05 2.386784217378590256e-05 2.8865490094176493585e-05 3.4794553357642143965e-05 4.1595983930164948106e-05 3.6632765841204673052e-05 4.110662484890781343e-05 4.4893498852616176009e-05 4.7457448090426623821e-05 4.8372883611591532826e-05 4.7475296014454215765e-05 3.3090305805671960115e-05 3.0790473829256370664e-05 2.79879968729801476e-05 2.4961422241176478565e-05 2.1940344595350325108e-05 1.564774356666021049e-05 1.3755000509263481945e-05 1.203149440698325634e-05 1.0493908121134154499e-05 9.1419842647155746818e-06 7.0311393756128381938e-06 6.1972755247552413493e-06 5.4670149438607040793e-06 -1.1754940241844054161e+38 -1.1754940241844054161e+38 
-1.1754940241844054161e+38 -1.1754940241844054161e+38 -1.1754940241844054161e+38 -1.1754940241844054161e+38 -1.1754940241844054161e+38 -1.1754940241844054161e+38 -1.1754940241844054161e+38 -1.1754940241844054161e+38 -1.1754940241844054161e+38 -1.1754940241844054161e+38 9.1974510496584116481e-07 1.0073797511722659692e-06 1.0918190582742681727e-06 1.2017235349048860371e-06 1.3267730309962644242e-06 1.4696469179398263805e-06 1.6336081216650200076e-06 1.8226563724965672009e-06 1.9922065348509931937e-06 2.2367923975252779201e-06 2.5223803277185652405e-06 2.857756271623657085e-06 3.254010152886621654e-06 3.5676246170623926446e-06 4.0908807932282797992e-06 4.7174544306471943855e-06 5.4728675422666128725e-06 6.390098405972821638e-06 6.942046638869214803e-06 8.145013453031424433e-06 9.6142339316429570317e-06 1.1416763300076127052e-05 1.3635702089231926948e-05 1.6371564925066195428e-05 1.672636062721721828e-05 1.9803022951236926019e-05 2.3393122319248504937e-05 2.7481164579512551427e-05 3.1968178518582135439e-05 2.7958405553363263607e-05 3.0764451366849243641e-05 3.3070744393626227975e-05 3.4598630008986219764e-05 3.5137836675858125091e-05 3.4609172871569171548e-05 2.5041183107532560825e-05 2.3581105779157951474e-05 2.1761412426712922752e-05 1.9742841686820611358e-05 1.7668264263193123043e-05 1.2924026123073417693e-05 1.1530731171660590917e-05 1.0230871339445002377e-05 9.04415264812996611e-06 7.9779520092415623367e-06 6.2056924434727989137e-06 5.5230389079952146858e-06 4.9158547881233971566e-06 -1.1754940241844054161e+38 -1.1754940241844054161e+38 
-1.1754940241844054161e+38 -1.1754940241844054161e+38 -1.1754940241844054161e+38 -1.1754940241844054161e+38 -1.1754940241844054161e+38 -1.1754940241844054161e+38 -1.1754940241844054161e+38 -1.1754940241844054161e+38 -1.1754940241844054161e+38 -1.1754940241844054161e+38 9.0896980964316753671e-07 9.9484714155551046133e-07 1.0742506901806336828e-06 1.1811281410700757988e-06 1.3025071439187740907e-06 1.4409024515771307051e-06 1.5993635997801902704e-06 1.7816099671108531766e-06 1.9359856651135487482e-06 2.1687324078811798245e-06 2.4394062165811192244e-06 2.7558362489799037576e-06 3.1278063943318556994e-06 3.39862094733689446e-06 3.8793818930571433157e-06 4.4504126890387851745e-06 5.1325064305274281651e-06 5.9519493333937134594e-06 6.377164936566259712e-06 7.4133931775577366352e-06 8.6581831055809743702e-06 1.0156557436857838184e-05 1.1961094060097821057e-05 1.4130645467957947403e-05 1.416629129380453378e-05 1.6462903658975847065e-05 1.9057422832702286541e-05 2.191076418966986239e-05 2.4930857762228697538e-05 2.1741951059084385633e-05 2.3564418370369821787e-05 2.502888492017518729e-05 2.5983290470321662724e-05 2.6317202355130575597e-05 2.598983337520621717e-05 1.9388056898606009781e-05 1.8427346731186844409e-05 1.7208771168952807784e-05 1.5827927200007252395e-05 1.4374803868122398853e-05 1.0755605217127595097e-05 9.7187821666011586785e-06 8.7310290837194770575e-06 7.8107796070980839431e-06 6.967882200115127489e-06 6.2056924434727989137e-06 5.4806873777124565095e-06 4.9215750550501979887e-06 4.4170756154926493764e-06 -1.1754940241844054161e+38 
-1.1754940241844054161e+38 -1.1754940241844054161e+38 -1.1754940241844054161e+38 -1.1754940241844054161e+38 -1.1754940241844054161e+38 -1.1754940241844054161e+38 -1.1754940241844054161e+38 -1.1754940241844054161e+38 -1.1754940241844054161e+38 -1.1754940241844054161e+38 8.960058721640962176e-07 9.7978943358612013981e-07 1.0540049970586551353e-06 1.1574396694413735531e-06 1.274655460292706266e-06 1.4079870425121043809e-06 1.5602504390699323267e-06 1.7348614846923737787e-06 1.8741471876637660898e-06 2.0941702132404316217e-06 2.3489108116336865351e-06 2.6452341899130260572e-06 2.9916243420302635059e-06 3.2222537811321672052e-06 3.660384436443564482e-06 4.176343281869776547e-06 4.7866997192613780499e-06 5.5119057833508122712e-06 6.377164936566259712e-06 6.7158416641177609563e-06 7.7624627010663971305e-06 8.9992427092511206865e-06 1.045790122589096427e-05 1.217068438563728705e-05 1.2015187166980467737e-05 1.3736881555814761668e-05 1.5628091205144301057e-05 1.7647640561335720122e-05 1.972215977730229497e-05 1.7195607142639346421e-05 1.8416279999655671418e-05 1.9380026060389354825e-05 2.0000215954496525228e-05 2.0215762560837902129e-05 2.000444692384917289e-05 1.5721105228294618428e-05 1.5306941349990665913e-05 1.4655002814834006131e-05 1.3816445061820559204e-05 1.2849788618041202426e-05 9.8000537036568857729e-06 9.0188450485584326088e-06 8.2386986832716502249e-06 7.4819108704105019569e-06 6.7641885834746062756e-06 6.0954048421990592033e-06 4.8464721658092457801e-06 4.3878658289031591266e-06 3.9685360206931363791e-06 -1.1754940241844054161e+38 
-1.1754940241844054161e+38 -1.1754940241844054161e+38 -1.1754940241844054161e+38 -1.1754940241844054161e+38 -1.1754940241844054161e+38 -1.1754940241844054161e+38 -1.1754940241844054161e+38 -1.1754940241844054161e+38 -1.1754940241844054161e+38 -1.1754940241844054161e+38 8.8101626261050114408e-07 9.6240660241164732724e-07 1.0313557368135661818e-06 1.1309966794215142727e-06 1.2436397582860081457e-06 1.3714287661059643142e-06 1.5169351854638080113e-06 1.6832573237479664385e-06 1.8077984123010537587e-06 2.0145193957432638854e-06 2.2527099190483568236e-06 2.528298864490352571e-06 2.8485244456533109769e-06 3.0421902010857593268e-06 3.4386180232104379684e-06 3.9013552850519772619e-06 4.4433322727854829282e-06 5.0801036195480264723e-06 5.8302684919908642769e-06 6.0628381106653250754e-06 6.9380580498545896262e-06 7.9542269304511137307e-06 9.1293732111807912588e-06 1.0479480806679930538e-05 1.0218423085461836308e-05 1.0218423085461836308e-05 1.151722426584456116e-05 1.2909733413835056126e-05 1.4360175555339083076e-05 1.2839675036957487464e-05 1.3807312825520057231e-05 1.4647446732851676643e-05 1.5301524399546906352e-05 1.5718273061793297529e-05 1.5862367945373989642e-05 1.2576405424624681473e-05 1.2289990991121158004e-05 1.183556196338031441e-05 1.1244430424994789064e-05 1.0553407264524139464e-05 8.2035967352567240596e-06 7.6183414421393536031e-06 7.0248447627818677574e-06 6.4400305745948571712e-06 5.8766800066223368049e-06 5.3436638154380489141e-06 4.2930037125188391656e-06 3.915979959856485948e-06 3.5670266242959769443e-06 -1.1754940241844054161e+38 
-1.1754940241844054161e+38 -1.1754940241844054161e+38 -1.1754940241844054161e+38 -1.1754940241844054161e+38 -1.1754940241844054161e+38 -1.1754940241844054161e+38 -1.1754940241844054161e+38 -1.1754940241844054161e+38 -1.1754940241844054161e+38 -1.1754940241844054161e+38 8.641829367661557626e-07 9.4292130370376980864e-07 1.0065950846183113754e-06 1.102158762478211429e-06 1.2099047808078466915e-06 1.3317815046320902184e-06 1.4701108739245682955e-06 1.6276707128781708889e-06 1.7380320969095919281e-06 1.9311585219838889316e-06 2.1525515876419376582e-06 2.4072585347312269732e-06 2.7013588805857580155e-06 2.8616452709684381261e-06 2.8616452709684381261e-06 3.2181189908442320302e-06 3.6304995774116832763e-06 4.1086768760578706861e-06 4.6642235247418284416e-06 4.8238380259135738015e-06 5.460200100060319528e-06 6.1894775171822402626e-06 7.0222554313659202307e-06 7.9679002737975679338e-06 7.8019575084908865392e-06 8.7214693849091418087e-06 9.7086231107823550701e-06 1.0745079634943976998e-05 1.1802105291280895472e-05 1.2839675036957487464e-05 1.1237951184739358723e-05 1.1830268704215995967e-05 1.2286232959013432264e-05 1.2574452739499974996e-05 1.2673697710852138698e-05 1.0216350347036495805e-05 1.0013272003561723977e-05 9.6889898486551828682e-06 9.263256288249976933e-06 8.7598118625464849174e-06 6.925031357241095975e-06 6.480899173766374588e-06 6.0245406530157197267e-06 5.5687009989924263209e-06 5.123528353578876704e-06 4.6965706133050844073e-06 3.8105413295852486044e-06 3.4996971862710779533e-06 3.2087727959151379764e-06 -1.1754940241844054161e+38 
-1.1754940241844054161e+38 -1.1754940241844054161e+38 -1.1754940241844054161e+38 -1.1754940241844054161e+38 -1.1754940241844054161e+38 -1.1754940241844054161e+38 -1.1754940241844054161e+38 -1.1754940241844054161e+38 -1.1754940241844054161e+38 -1.1754940241844054161e+38 8.4570172020903555676e-07 9.2157216613486525603e-07 1.0065950846183113754e-06 9.8002544746123021469e-07 1.0712959692682488821e-06 1.1739055025827838108e-06 1.2896070984425023198e-06 1.4204753142621484585e-06 1.5080051980476127937e-06 1.665893137214879971e-06 1.8453881693858420476e-06 2.0500613118201727048e-06 2.2841497866465942934e-06 2.404714678050368093e-06 2.6833247375179780647e-06 3.0021813017810927704e-06 3.3677433748380281031e-06 3.7874287954764440656e-06 4.2696597120084334165e-06 4.3733812162827234715e-06 4.910145889880368486e-06 5.5166019592434167862e-06 6.1984769672562833875e-06 6.9598600020981393754e-06 6.7572464104159735143e-06 7.4745194069691933692e-06 8.2309843492112122476e-06 9.0109951997874304652e-06 9.7923266366706229746e-06 1.0546121302468236536e-05 9.2585651145782321692e-06 9.6851972557487897575e-06 1.0010600817622616887e-05 1.02149697340792045e-05 1.0285107236995827407e-05 8.4110270108794793487e-06 8.2638562162173911929e-06 8.0276049629901535809e-06 7.7150743891252204776e-06 7.3419305408606305718e-06 6.925031357241095975e-06 5.550411060539772734e-06 5.1958727453893516213e-06 4.8375163714808877558e-06 4.4832954699813853949e-06 4.1394432628294453025e-06 3.3900332709890790284e-06 3.1329050216299947351e-06 2.8897900392621522769e-06 -1.1754940241844054161e+38 
-1.1754940241844054161e+38 -1.1754940241844054161e+38 -1.1754940241844054161e+38 -1.1754940241844054161e+38 -1.1754940241844054161e+38 -1.1754940241844054161e+38 -1.1754940241844054161e+38 -1.1754940241844054161e+38 -1.1754940241844054161e+38 -1.1754940241844054161e+38 -1.1754940241844054161e+38 8.257777608378091827e-07 8.9860759544535540044e-07 9.5195213134502409957e-07 1.0387789188825991005e-06 1.1360940561644383706e-06 1.2454596571842557751e-06 1.3687101727555273101e-06 1.4455614518738002516e-06 1.5923524188110604882e-06 1.7583997760084457695e-06 1.9467029233055654913e-06 2.1607722828775877133e-06 2.2592862478632014245e-06 2.5094136617553886026e-06 2.7933658657275373116e-06 3.1160266189544927329e-06 3.4828503885364625603e-06 3.8998282434477005154e-06 3.9602646211278624833e-06 4.4122984945715870708e-06 4.9162631512444932014e-06 5.4748206821386702359e-06 6.0889847190992441028e-06 5.8711875681183300912e-06 6.434273018385283649e-06 7.0189289544941857457e-06 7.6124156294099520892e-06 8.197850547730922699e-06 8.7544704001629725099e-06 7.7116155807743780315e-06 8.0248328231391496956e-06 8.261916264018509537e-06 8.4100283856969326735e-06 8.4607208918896503747e-06 7.0067535489215515554e-06 6.8980234573245979846e-06 6.7227128965896554291e-06 6.4893192757153883576e-06 6.2084018281893804669e-06 5.8915511544910259545e-06 4.7837725105637218803e-06 4.5056199269311036915e-06 4.2215424400637857616e-06 3.9377364373649470508e-06 3.6592609831131994724e-06 3.0233004508772864938e-06 2.8098377242713468149e-06 2.6061213702632812783e-06 -1.1754940241844054161e+38 
-1.1754940241844054161e+38 -1.1754940241844054161e+38 -1.1754940241844054161e+38 -1.1754940241844054161e+38 -1.1754940241844054161e+38 -1.1754940241844054161e+38 -1.1754940241844054161e+38 -1.1754940241844054161e+38 -1.1754940241844054161e+38 -1.1754940241844054161e+38 -1.1754940241844054161e+38 8.0462035612072213553e-07 8.7427991957156336866e-07 9.2267629270281759091e-07 1.0049709544546203688e-06 1.0969099548674421385e-06 1.1998724858131026849e-06 1.3154649423086084425e-06 1.382369077873590868e-06 1.5182879451458575204e-06 1.6712534716134541668e-06 1.8437544895277824253e-06 2.0386635242175543681e-06 2.2592862478632014245e-06 2.3415977921104058623e-06 2.5935553367162356153e-06 2.8773731628461973742e-06 3.1969793781172484159e-06 3.5565283269534120336e-06 3.5840762393490877002e-06 3.964539246226195246e-06 4.3834784264618065208e-06 4.8416923164040781558e-06 5.3385078899736981839e-06 5.1191577767895068973e-06 5.5641817198193166405e-06 6.0199604376975912601e-06 6.4763726186356507242e-06 6.9206985244818497449e-06 7.3379496825509704649e-06 6.4867263063206337392e-06 6.7206501626060344279e-06 6.8965882746852003038e-06 7.0060168582131154835e-06 7.043385267024859786e-06 5.8981809161195997149e-06 5.8164641814073547721e-06 5.6842209232854656875e-06 5.5072164286684710532e-06 5.2927066462871152908e-06 5.2927066462871152908e-06 4.3558043216762598604e-06 4.1477328522887546569e-06 3.9274650589504744858e-06 3.70044972441974096e-06 3.4715037600108189508e-06 2.8860051770607242361e-06 2.7030905584979336709e-06 2.5252022624044911936e-06 2.3539869289379566908e-06 
-1.1754940241844054161e+38 -1.1754940241844054161e+38 -1.1754940241844054161e+38 -1.1754940241844054161e+38 -1.1754940241844054161e+38 -1.1754940241844054161e+38 -1.1754940241844054161e+38 -1.1754940241844054161e+38 -1.1754940241844054161e+38 -1.1754940241844054161e+38 -1.1754940241844054161e+38 7.8243886036943877116e-07 8.4883976114724646322e-07 8.9248908352601574734e-07 9.7022007139457855374e-07 1.0567704293862334453e-06 1.1533468295965576544e-06 1.2613428452823427506e-06 1.3190796153139672242e-06 1.4444739235841552727e-06 1.5848661405470920727e-06 1.7422986502424464561e-06 1.9190927105228183791e-06 2.1178743736527394503e-06 2.1811067654198268428e-06 2.4040330117713892832e-06 2.6530281047598691657e-06 2.9308546345419017598e-06 3.240307478336035274e-06 3.2433670185127994046e-06 3.5636805932881543413e-06 3.9123501665017101914e-06 4.2890983422694262117e-06 4.6924124035285785794e-06 5.1191577767895068973e-06 4.8339420573029201478e-06 5.1922934289905242622e-06 5.5469145081588067114e-06 5.8882410485239233822e-06 5.8882410485239233822e-06 5.2903988034813664854e-06 5.5052441894076764584e-06 5.682661594619276002e-06 5.8153837017016485333e-06 5.8976279433409217745e-06 5.032404260418843478e-06 5.011466782889328897e-06 4.94910500492551364e-06 4.8478677854291163385e-06 4.7117437134147621691e-06 4.545807314570993185e-06 3.7814893403265159577e-06 3.6165045003144768998e-06 3.4405313726892927662e-06 3.257707930970354937e-06 3.07178152070264332e-06 -1.1754940241844054161e+38 -1.1754940241844054161e+38 -1.1754940241844054161e+38 -1.1754940241844054161e+38 
-1.1754940241844054161e+38 -1.1754940241844054161e+38 -1.1754940241844054161e+38 -1.1754940241844054161e+38 -1.1754940241844054161e+38 -1.1754940241844054161e+38 -1.1754940241844054161e+38 -1.1754940241844054161e+38 -1.1754940241844054161e+38 -1.1754940241844054161e+38 -1.1754940241844054161e+38 7.5943864885630318895e-07 8.2253137634324957617e-07 8.616665923000255134e-07 9.3485340357801760547e-07 1.0160634928979561664e-06 1.1063438023484195583e-06 1.2068923069818993099e-06 1.2562632036861032248e-06 1.3715746263187611476e-06 1.5000089206296252087e-06 1.6432228449048125185e-06 1.8030694945991854183e-06 1.9816081930912332609e-06 2.0287707229726947844e-06 2.2255758267419878393e-06 2.4436023977614240721e-06 2.6847392291529104114e-06 2.6847392291529104114e-06 2.6869749945035437122e-06 2.9360344342421740294e-06 3.2059679142548702657e-06 3.4966872135555604473e-06 3.8073394534876570106e-06 4.1360735849593766034e-06 3.9349179132841527462e-06 4.2186939026578329504e-06 4.5027968553768005222e-06 4.7810431169637013227e-06 5.046230398875195533e-06 4.5440165195032022893e-06 4.7102225835260469466e-06 4.8466713451489340514e-06 4.9482796384836547077e-06 5.0110452320950571448e-06 4.3099958020320627838e-06 4.2938181650242768228e-06 4.2455676521058194339e-06 4.1670282371342182159e-06 4.0610093492432497442e-06 3.931118044420145452e-06 -1.1754940241844054161e+38 -1.1754940241844054161e+38 -1.1754940241844054161e+38 -1.1754940241844054161e+38 -1.1754940241844054161e+38 -1.1754940241844054161e+38 -1.1754940241844054161e+38 -1.1754940241844054161e+38 -1.1754940241844054161e+38 
-1.1754940241844054161e+38 -1.1754940241844054161e+38 -1.1754940241844054161e+38 -1.1754940241844054161e+38 -1.1754940241844054161e+38 -1.1754940241844054161e+38 -1.1754940241844054161e+38 -1.1754940241844054161e+38 -1.1754940241844054161e+38 -1.1754940241844054161e+38 -1.1754940241844054161e+38 7.3581753667895100079e-07 7.955881642374151852e-07 8.3046614918202976696e-07 8.9917273271566955373e-07 9.7514350727578857914e-07 1.0592791568342363462e-06 1.1526003618200775236e-06 1.0988901522068772465e-06 1.1944059679080964997e-06 1.3001457546124584042e-06 1.4173102726999786682e-06 1.5472287486772984266e-06 1.6913629679038422182e-06 1.7275128811888862401e-06 1.8850836340789101087e-06 2.0585480342560913414e-06 2.2492117750516626984e-06 2.4583196136518381536e-06 2.447427505103405565e-06 2.6596135285217314959e-06 2.8874342206108849496e-06 3.1304020922107156366e-06 3.387398237464367412e-06 3.6565172649716259912e-06 3.4692188819462899119e-06 3.6981623452447820455e-06 3.9252195165317971259e-06 4.1455809878243599087e-06 4.3538029785850085318e-06 3.9297124203585553914e-06 4.0598220039100851864e-06 4.1660987335490062833e-06 4.2449282773304730654e-06 4.293492111173691228e-06 4.3099958020320627838e-06 -1.1754940241844054161e+38 -1.1754940241844054161e+38 -1.1754940241844054161e+38 -1.1754940241844054161e+38 -1.1754940241844054161e+38 -1.1754940241844054161e+38 -1.1754940241844054161e+38 -1.1754940241844054161e+38 -1.1754940241844054161e+38 -1.1754940241844054161e+38 -1.1754940241844054161e+38 -1.1754940241844054161e+38 -1.1754940241844054161e+38 -1.1754940241844054161e+38 
-1.1754940241844054161e+38 -1.1754940241844054161e+38 -1.1754940241844054161e+38 -1.1754940241844054161e+38 -1.1754940241844054161e+38 -1.1754940241844054161e+38 -1.1754940241844054161e+38 -1.1754940241844054161e+38 -1.1754940241844054161e+38 -1.1754940241844054161e+38 -1.1754940241844054161e+38 -1.1754940241844054161e+38 7.1176299343278515153e-07 7.4065889066332601942e-07 7.9912331329978769645e-07 8.6345147565225488506e-07 9.3432731773646082729e-07 1.0125193057319847867e-06 1.0988901522068772465e-06 1.133912405748560559e-06 1.230637508342624642e-06 1.3372645071285660379e-06 1.4548478475262527354e-06 1.5845258758417912759e-06 1.6105491340567823499e-06 1.7502636637800605968e-06 1.9029891973332269117e-06 2.069600895993062295e-06 2.2508763777295826003e-06 2.2304886897472897545e-06 2.4114874577207956463e-06 2.6041379896923899651e-06 2.8077499791834270582e-06 3.0211231205612421036e-06 3.2424486562376841903e-06 3.06991796605871059e-06 3.2558582461206242442e-06 3.438730345806106925e-06 3.6147919217910384759e-06 3.779908183787483722e-06 -1.1754940241844054161e+38 -1.1754940241844054161e+38 -1.1754940241844054161e+38 -1.1754940241844054161e+38 -1.1754940241844054161e+38 -1.1754940241844054161e+38 -1.1754940241844054161e+38 -1.1754940241844054161e+38 -1.1754940241844054161e+38 -1.1754940241844054161e+38 -1.1754940241844054161e+38 -1.1754940241844054161e+38 -1.1754940241844054161e+38 -1.1754940241844054161e+38 -1.1754940241844054161e+38 -1.1754940241844054161e+38 -1.1754940241844054161e+38 -1.1754940241844054161e+38 -1.1754940241844054161e+38 -1.1754940241844054161e+38 
-1.1754940241844054161e+38 -1.1754940241844054161e+38 -1.1754940241844054161e+38 -1.1754940241844054161e+38 -1.1754940241844054161e+38 -1.1754940241844054161e+38 -1.1754940241844054161e+38 -1.1754940241844054161e+38 -1.1754940241844054161e+38 -1.1754940241844054161e+38 -1.1754940241844054161e+38 -1.1754940241844054161e+38 6.8745004000447806902e-07 7.1306072868537739851e-07 7.6785033797932555899e-07 8.2793292222049785778e-07 8.938930591284588445e-07 9.6638154900574591011e-07 1.0461212696100119501e-06 1.0751090258054318838e-06 1.1634025440798723139e-06 1.26024394830892561e-06 1.3664596281159901991e-06 1.482924290030496195e-06 1.5005455225036712363e-06 1.6243124036918743514e-06 1.7586942249181447551e-06 1.9042490748688578606e-06 2.0614218101400183514e-06 2.0343870801298180595e-06 2.1890332391194533557e-06 2.3523127765656681731e-06 2.523454668335034512e-06 2.7012836198991863057e-06 2.8841579933214234188e-06 -1.1754940241844054161e+38 -1.1754940241844054161e+38 -1.1754940241844054161e+38 -1.1754940241844054161e+38 -1.1754940241844054161e+38 -1.1754940241844054161e+38 -1.1754940241844054161e+38 -1.1754940241844054161e+38 -1.1754940241844054161e+38 -1.1754940241844054161e+38 -1.1754940241844054161e+38 -1.1754940241844054161e+38 -1.1754940241844054161e+38 -1.1754940241844054161e+38 -1.1754940241844054161e+38 -1.1754940241844054161e+38 -1.1754940241844054161e+38 -1.1754940241844054161e+38 -1.1754940241844054161e+38 -1.1754940241844054161e+38 -1.1754940241844054161e+38 -1.1754940241844054161e+38 -1.1754940241844054161e+38 -1.1754940241844054161e+38 -1.1754940241844054161e+38 
-1.1754940241844054161e+38 -1.1754940241844054161e+38 -1.1754940241844054161e+38 -1.1754940241844054161e+38 -1.1754940241844054161e+38 -1.1754940241844054161e+38 -1.1754940241844054161e+38 -1.1754940241844054161e+38 -1.1754940241844054161e+38 -1.1754940241844054161e+38 -1.1754940241844054161e+38 -1.1754940241844054161e+38 6.6303954326940583996e-07 6.8560069621526054107e-07 7.3683509071997832507e-07 7.9282949627668131143e-07 8.540800422451866325e-07 9.2113361915835412219e-07 9.945908914232859388e-07 1.0182502592215314507e-06 1.0987054110955796205e-06 1.1865126907650846988e-06 1.2823122688132571056e-06 1.3867661436961498111e-06 1.3974849935038946569e-06 1.5070658037075190805e-06 1.6252799923677230254e-06 1.7524564555060351267e-06 1.8888080148826702498e-06 2.0343870801298180595e-06 -1.1754940241844054161e+38 -1.1754940241844054161e+38 -1.1754940241844054161e+38 -1.1754940241844054161e+38 -1.1754940241844054161e+38 -1.1754940241844054161e+38 -1.1754940241844054161e+38 -1.1754940241844054161e+38 -1.1754940241844054161e+38 -1.1754940241844054161e+38 -1.1754940241844054161e+38 -1.1754940241844054161e+38 -1.1754940241844054161e+38 -1.1754940241844054161e+38 -1.1754940241844054161e+38 -1.1754940241844054161e+38 -1.1754940241844054161e+38 -1.1754940241844054161e+38 -1.1754940241844054161e+38 -1.1754940241844054161e+38 -1.1754940241844054161e+38 -1.1754940241844054161e+38 -1.1754940241844054161e+38 -1.1754940241844054161e+38 -1.1754940241844054161e+38 -1.1754940241844054161e+38 -1.1754940241844054161e+38 -1.1754940241844054161e+38 -1.1754940241844054161e+38 -1.1754940241844054161e+38 
-1.1754940241844054161e+38 -1.1754940241844054161e+38 -1.1754940241844054161e+38 -1.1754940241844054161e+38 -1.1754940241844054161e+38 -1.1754940241844054161e+38 -1.1754940241844054161e+38 -1.1754940241844054161e+38 -1.1754940241844054161e+38 -1.1754940241844054161e+38 -1.1754940241844054161e+38 -1.1754940241844054161e+38 6.386771929101087153e-07 6.5842499452628544532e-07 7.0624105319438967854e-07 7.5832326729141641408e-07 8.1508977700650575571e-07 8.7699640971550252289e-07 9.4453838528352207504e-07 9.6352607670269208029e-07 1.0367317599957459606e-06 1.1162413784404634498e-06 1.2025433306916966103e-06 1.2961299944436177611e-06 -1.1754940241844054161e+38 -1.1754940241844054161e+38 -1.1754940241844054161e+38 -1.1754940241844054161e+38 -1.1754940241844054161e+38 -1.1754940241844054161e+38 -1.1754940241844054161e+38 -1.1754940241844054161e+38 -1.1754940241844054161e+38 -1.1754940241844054161e+38 -1.1754940241844054161e+38 -1.1754940241844054161e+38 -1.1754940241844054161e+38 -1.1754940241844054161e+38 -1.1754940241844054161e+38 -1.1754940241844054161e+38 -1.1754940241844054161e+38 -1.1754940241844054161e+38 -1.1754940241844054161e+38 -1.1754940241844054161e+38 -1.1754940241844054161e+38 -1.1754940241844054161e+38 -1.1754940241844054161e+38 -1.1754940241844054161e+38 -1.1754940241844054161e+38 -1.1754940241844054161e+38 -1.1754940241844054161e+38 -1.1754940241844054161e+38 -1.1754940241844054161e+38 -1.1754940241844054161e+38 -1.1754940241844054161e+38 -1.1754940241844054161e+38 -1.1754940241844054161e+38 -1.1754940241844054161e+38 -1.1754940241844054161e+38 -1.1754940241844054161e+38 
-1.1754940241844054161e+38 -1.1754940241844054161e+38 -1.1754940241844054161e+38 -1.1754940241844054161e+38 -1.1754940241844054161e+38 -1.1754940241844054161e+38 -1.1754940241844054161e+38 -1.1754940241844054161e+38 -1.1754940241844054161e+38 -1.1754940241844054161e+38 -1.1754940241844054161e+38 -1.1754940241844054161e+38 6.1449304666894022375e-07 6.316601570688362699e-07 6.7620783283928176388e-07 7.245671440614387393e-07 7.7708779144813888706e-07 8.3414698792694252916e-07 8.9614940179671975784e-07 -1.1754940241844054161e+38 -1.1754940241844054161e+38 -1.1754940241844054161e+38 -1.1754940241844054161e+38 -1.1754940241844054161e+38 -1.1754940241844054161e+38 -1.1754940241844054161e+38 -1.1754940241844054161e+38 -1.1754940241844054161e+38 -1.1754940241844054161e+38 -1.1754940241844054161e+38 -1.1754940241844054161e+38 -1.1754940241844054161e+38 -1.1754940241844054161e+38 -1.1754940241844054161e+38 -1.1754940241844054161e+38 -1.1754940241844054161e+38 -1.1754940241844054161e+38 -1.1754940241844054161e+38 -1.1754940241844054161e+38 -1.1754940241844054161e+38 -1.1754940241844054161e+38 -1.1754940241844054161e+38 -1.1754940241844054161e+38 -1.1754940241844054161e+38 -1.1754940241844054161e+38 -1.1754940241844054161e+38 -1.1754940241844054161e+38 -1.1754940241844054161e+38 -1.1754940241844054161e+38 -1.1754940241844054161e+38 -1.1754940241844054161e+38 -1.1754940241844054161e+38 -1.1754940241844054161e+38 -1.1754940241844054161e+38 -1.1754940241844054161e+38 -1.1754940241844054161e+38 -1.1754940241844054161e+38 -1.1754940241844054161e+38 -1.1754940241844054161e+38 -1.1754940241844054161e+38 
-1.1754940241844054161e+38 -1.1754940241844054161e+38 -1.1754940241844054161e+38 -1.1754940241844054161e+38 -1.1754940241844054161e+38 -1.1754940241844054161e+38 -1.1754940241844054161e+38 -1.1754940241844054161e+38 -1.1754940241844054161e+38 -1.1754940241844054161e+38 -1.1754940241844054161e+38 -1.1754940241844054161e+38 -1.1754940241844054161e+38 5.9060130297439172864e-07 -1.1754940241844054161e+38 -1.1754940241844054161e+38 -1.1754940241844054161e+38 -1.1754940241844054161e+38 -1.1754940241844054161e+38 -1.1754940241844054161e+38 -1.1754940241844054161e+38 -1.1754940241844054161e+38 -1.1754940241844054161e+38 -1.1754940241844054161e+38 -1.1754940241844054161e+38 -1.1754940241844054161e+38 -1.1754940241844054161e+38 -1.1754940241844054161e+38 -1.1754940241844054161e+38 -1.1754940241844054161e+38 -1.1754940241844054161e+38 -1.1754940241844054161e+38 -1.1754940241844054161e+38 -1.1754940241844054161e+38 -1.1754940241844054161e+38 -1.1754940241844054161e+38 -1.1754940241844054161e+38 -1.1754940241844054161e+38 -1.1754940241844054161e+38 -1.1754940241844054161e+38 -1.1754940241844054161e+38 -1.1754940241844054161e+38 -1.1754940241844054161e+38 -1.1754940241844054161e+38 -1.1754940241844054161e+38 -1.1754940241844054161e+38 -1.1754940241844054161e+38 -1.1754940241844054161e+38 -1.1754940241844054161e+38 -1.1754940241844054161e+38 -1.1754940241844054161e+38 -1.1754940241844054161e+38 -1.1754940241844054161e+38 -1.1754940241844054161e+38 -1.1754940241844054161e+38 -1.1754940241844054161e+38 -1.1754940241844054161e+38 -1.1754940241844054161e+38 -1.1754940241844054161e+38 -1.1754940241844054161e+38 
