ncols        290
nrows        309
xllcorner    1281684.192088576034
yllcorner    431797.908749941853
cellsize     1736.065738499356
0.0 0 0 0 0 0 0 0 0 0 0 0 0 0 0 0 0 0 0 0 0 0 0 0 0 0 0 0 0 0 0 0 0 0 0 0 0 0 0 0 0 0 0 0 0 0 0 0 0 0 0 0 0 0 0 0 0 0 0 0 0 0 0 0 0 0 0 0 0 0 0 0 0 0 0 0 0 0 0 0 0 0 0 0 0 0 0 0 0 0 0 0 0 0 0 0 0 0 0 0 0 0 0 0 0 0 0 0 0 0 0 0 0 0 0 0 0 0 0 0 0 0 0 0 0 0 0 0 0 0 0 0 0 0 0 0 0 0 0 0 0 0 0 0 0 0 0 0 0 0 0 0 0 0 0 0 0 0 0 0 0 0 0 0 0 0 0 0 0 0 0 0 0 0 0 0 0 0 0 0 0 0 0 0 0 0 0 0 0 0 0 0 0 0 0 0 0 0 0 0 0 0 0 0 0 0 0 0 0 0 0 0 0 0 0 0 0 0 0 0 0 0 0 0 0 0 0 0 0 0 0 0 0 0 0 0 0 0 0 0 0 0 0 0 0 0 0 0 0 0 0 0 0 0 0 0 0 0 0 0 0 0 0 0 0 0 0 0 0 0 0 0 0 0 0 0 0 0 0 0 0 0 0 0 0 0 0 0 0 0 
0 0 0 0 0 0 0 0 0 0 0 0 0 0 0 0 0 0 0 0 0 0 0 0 0 0 0 0 0 0 0 0 0 0 0 0 0 0 0 0 0 0 0 0 0 0 0 0 0 0 0 0 0 0 0 0 0 0 0 0 0 0 0 0 0 0 0 0 0 0 0 0 0 0 0 0 0 0 0 0 0 0 0 0 0 0 0 0 0 0 0 0 0 0 0 0 0 0 0 0 0 0 0 0 0 0 0 0 0 0 0 0 0 0 0 0 0 0 0 0 0 0 0 0 0 0 0 0 0 0 0 0 0 0 0 0 0 0 0 0 0 0 0 0 0 0 0 0 0 0 0 0 0 0 0 0 0 0 0 0 0 0 0 0 0 0 0 0 0 0 0 0 0 0 0 0 0 0 0 0 0 0 0 0 0 0 0 0 0 0 0 0 0 0 0 0 0 0 0 0 0 0 0 0 0 0 0 0 0 0 0 0 0 0 0 0 0 0 0 0 0 0 0 0 0 0 0 0 0 0 0 0 0 0 0 0 0 0 0 0 0 0 0 0 0 0 0 0 0 0 0 0 0 0 0 0 0 0 0 0 0 0 0 0 0 0 0 0 0 0 0 0 0 0 0 0 0 0 0 0 0 0 0 0 0 0 0 0 0 0 
0 0 0 0 0 0 0 0 0 0 0 0 0 0 0 0 0 0 0 0 0 0 0 0 0 0 0 0 0 0 0 0 0 0 0 0 0 0 0 0 0 0 0 0 0 0 0 0 0 0 0 0 0 0 0 0 0 0 0 0 0 0 0 0 0 0 0 0 0 0 0 0 0 0 0 0 0 0 0 0 0 0 0 0 0 0 0 0 0 0 0 0 0 0 0 0 0 0 0 0 0 0 0 0 0 0 0 0 0 0 0 0 0 0 0 0 0 0 0 0 0 0 0 0 0 0 0 0 0 0 0 0 0 0 0 0 0 0 0 0 0 0 0 0 0 0 0 0 0 0 0 0 0 0 0 0 0 0 0 0 0 0 0 0 0 0 0 0 0 0 0 0 0 0 0 0 0 0 0 0 0 0 0 0 0 0 0 0 0 0 0 0 0 0 0 0 0 0 0 0 0 0 0 0 0 0 0 0 0 0 0 0 0 0 0 0 0 0 0 0 0 0 0 0 0 0 0 0 0 0 0 0 0 0 0 0 0 0 0 0 0 0 0 0 0 0 0 0 0 0 0 0 0 0 0 0 0 0 0 0 0 0 0 0 0 0 0 0 0 0 0 0 0 0 0 0 0 0 0 0 0 0 0 0 0 0 0 0 0 0 
0 0 0 0 0 0 0 0 0 0 0 0 0 0 0 0 0 0 0 0 0 0 0 0 0 0 0 0 0 0 0 0 0 0 0 0 0 0 0 0 0 0 0 0 0 0 0 0 0 0 0 0 0 0 0 0 0 0 0 0 0 0 0 0 0 0 0 0 0 0 0 0 0 0 0 0 0 0 0 0 0 0 0 0 0 0 0 0 0 0 0 0 0 0 0 0 0 0 0 0 0 0 0 0 0 0 0 0 0 0 0 0 0 0 0 0 0 0 0 0 0 0 0 0 0 0 0 0 0 0 0 0 0 0 0 0 0 0 0 0 0 0 0 0 0 0 0 0 0 0 0 0 0 0 0 0 0 0 0 0 0 0 0 0 0 0 0 0 0 0 0 0 0 0 0 0 0 0 0 0 0 0 0 0 0 0 0 0 0 0 0 0 0 0 0 0 0 0 0 0 0 0 0 0 0 0 0 0 0 0 0 0 0 0 0 0 0 0 0 0 0 0 0 0 0 0 0 0 0 0 0 0 0 0 0 0 0 0 0 0 0 0 0 0 0 0 0 0 0 0 0 0 0 0 0 0 0 0 0 0 0 0 0 0 0 0 0 0 0 0 0 0 0 0 0 0 0 0 0 0 0 0 0 0 0 0 0 0 0 0 
0 0 0 0 0 0 0 0 0 0 0 0 0 0 0 0 0 0 0 0 0 0 0 0 0 0 0 0 0 0 0 0 0 0 0 0 0 0 0 0 0 0 0 0 0 0 0 0 0 0 0 0 0 0 0 0 0 0 0 0 0 0 0 0 0 0 0 0 0 0 0 0 0 0 0 0 0 0 0 0 0 0 0 0 0 0 0 0 0 0 0 0 0 0 0 0 0 0 0 0 0 0 0 0 0 0 0 0 0 0 0 0 0 0 0 0 0 0 0 0 0 0 0 0 0 0 0 0 0 0 0 0 0 0 0 0 0 0 0 0 0 0 0 0 0 0 0 0 0 0 0 0 0 0 0 0 0 0 0 0 0 0 0 0 0 0 0 0 0 0 0 0 0 0 0 0 0 0 0 0 0 0 0 0 0 0 0 0 0 0 0 0 0 0 0 0 0 0 0 0 0 0 0 0 0 0 0 0 0 0 0 0 0 0 0 0 0 0 0 0 0 0 0 0 0 0 0 0 0 0 0 0 0 0 0 0 0 0 0 0 0 0 0 0 0 0 0 0 0 0 0 0 0 0 0 0 0 0 0 0 0 0 0 0 0 0 0 0 0 0 0 0 0 0 0 0 0 0 0 0 0 0 0 0 0 0 0 0 0 0 
0 0 0 0 0 0 0 0 0 0 0 0 0 0 0 0 0 0 0 0 0 0 0 0 0 0 0 0 0 0 0 0 0 0 0 0 0 0 0 0 0 0 0 0 0 0 0 0 0 0 0 0 0 0 0 0 0 0 0 0 0 0 0 0 0 0 0 0 0 0 0 0 0 0 0 0 0 0 0 0 0 0 0 0 0 0 0 0 0 0 0 0 0 0 0 0 0 0 0 0 0 0 0 0 0 0 0 0 0 0 0 0 0 0 0 0 0 0 0 0 0 0 0 0 0 0 0 0 0 0 0 0 0 0 0 0 0 0 0 0 0 0 0 0 0 0 0 0 0 0 0 0 0 0 0 0 0 0 0 0 0 0 0 0 0 0 0 0 0 0 0 0 0 0 0 0 0 0 0 0 0 0 0 0 0 0 0 0 0 0 0 0 0 0 0 0 0 0 0 0 0 0 0 0 0 0 0 0 0 0 0 0 0 0 0 0 0 0 0 0 0 0 0 0 0 0 0 0 0 0 0 0 0 0 0 0 0 0 0 0 0 0 0 0 0 0 0 0 0 0 0 0 0 0 0 0 0 0 0 0 0 0 0 0 0 0 0 0 0 0 0 0 0 0 0 0 0 0 0 0 0 0 0 0 0 0 0 0 0 0 
0 0 0 0 0 0 0 0 0 0 0 0 0 0 0 0 0 0 0 0 0 0 0 0 0 0 0 0 0 0 0 0 0 0 0 0 0 0 0 0 0 0 0 0 0 0 0 0 0 0 0 0 0 0 0 0 0 0 0 0 0 0 0 0 0 0 0 0 0 0 0 0 0 0 0 0 0 0 0 0 0 0 0 0 0 0 0 0 0 0 0 0 0 0 0 0 0 0 0 0 0 0 0 0 0 0 0 0 0 0 0 0 0 0 0 0 0 0 0 0 0 0 0 0 0 0 0 0 0 0 0 0 0 0 0 0 0 0 0 0 0 0 0 0 0 0 0 0 0 0 0 0 0 0 0 0 0 0 0 0 0 0 0 0 0 0 0 0 0 0 0 0 0 0 0 0 0 0 0 0 0 0 0 0 0 0 0 0 0 0 0 0 0 0 0 0 0 0 0 0 0 0 0 0 0 0 0 0 0 0 0 0 0 0 0 0 0 0 0 0 0 0 0 0 0 0 0 0 0 0 0 0 0 0 0 0 0 0 0 0 0 0 0 0 0 0 0 0 0 0 0 0 0 0 0 0 0 0 0 0 0 0 0 0 0 0 0 0 0 0 0 0 0 0 0 0 0 0 0 0 0 0 0 0 0 0 0 0 0 0 
0 0 0 0 0 0 0 0 0 0 0 0 0 0 0 0 0 0 0 0 0 0 0 0 0 0 0 0 0 0 0 0 0 0 0 0 0 0 0 0 0 0 0 0 0 0 0 0 0 0 0 0 0 0 0 0 0 0 0 0 0 0 0 0 0 0 0 0 0 0 0 0 0 0 0 0 0 0 0 0 0 0 0 0 0 0 0 0 0 0 0 0 0 0 0 0 0 0 0 0 0 0 0 0 0 0 0 0 0 0 0 0 0 0 0 0 0 0 0 0 0 0 0 0 0 0 0 0 0 0 0 0 0 0 0 0 0 0 0 0 0 0 0 0 0 0 0 0 0 0 0 0 0 0 0 0 0 0 0 0 0 0 0 0 0 0 0 0 0 0 0 0 0 0 0 0 0 0 0 0 0 0 0 0 0 0 0 0 0 0 0 0 0 0 0 0 0 0 0 0 0 0 0 0 0 0 0 0 0 0 0 0 0 0 0 0 0 0 0 0 0 0 0 0 0 0 0 0 0 0 0 0 0 0 0 0 0 0 0 0 0 0 0 0 0 0 0 0 0 0 0 0 0 0 0 0 0 0 0 0 0 0 0 0 0 0 0 0 0 0 0 0 0 0 0 0 0 0 0 0 0 0 0 0 0 0 0 0 0 0 
0 0 0 0 0 0 0 0 0 0 0 0 0 0 0 0 0 0 0 0 0 0 0 0 0 0 0 0 0 0 0 0 0 0 0 0 0 0 0 0 0 0 0 0 0 0 0 0 0 0 0 0 0 0 0 0 0 0 0 0 0 0 0 0 0 0 0 0 0 0 0 0 0 0 0 0 0 0 0 0 0 0 0 0 0 0 0 0 0 0 0 0 0 0 0 0 0 0 0 0 0 0 0 0 0 0 0 0 0 0 0 0 0 0 0 0 0 0 0 0 0 0 0 0 0 0 0 0 0 0 0 0 0 0 0 0 0 0 0 0 0 0 0 0 0 0 0 0 0 0 0 0 0 0 0 0 0 0 0 0 0 0 0 0 0 0 0 0 0 0 0 0 0 0 0 0 0 0 0 0 0 0 0 0 0 0 0 0 0 0 0 0 0 0 0 0 0 0 0 0 0 0 0 0 0 0 0 0 0 0 0 0 0 0 0 0 0 0 0 0 0 0 0 0 0 0 0 0 0 0 0 0 0 0 0 0 0 0 0 0 0 0 0 0 0 0 0 0 0 0 0 0 0 0 0 0 0 0 0 0 0 0 0 0 0 0 0 0 0 0 0 0 0 0 0 0 0 0 0 0 0 0 0 0 0 0 0 0 0 0 
0 0 0 0 0 0 0 0 0 0 0 0 0 0 0 0 0 0 0 0 0 0 0 0 0 0 0 0 0 0 0 0 0 0 0 0 0 0 0 0 0 0 0 0 0 0 0 0 0 0 0 0 0 0 0 0 0 0 0 0 0 0 0 0 0 0 0 0 0 0 0 0 0 0 0 0 0 0 0 0 0 0 0 0 0 0 0 0 0 0 0 0 0 0 0 0 0 0 0 0 0 0 0 0 0 0 0 0 0 0 0 0 0 0 0 0 0 0 0 0 0 0 0 0 0 0 0 0 0 0 0 0 0 0 0 0 0 0 0 0 0 0 0 0 0 0 0 0 0 0 0 0 0 0 0 0 0 0 0 0 0 0 0 0 0 0 0 0 0 0 0 0 0 0 0 0 0 0 0 0 0 0 0 0 0 0 0 0 0 0 0 0 0 0 0 0 0 0 0 0 0 0 0 0 0 0 0 0 0 0 0 0 0 0 0 0 0 0 0 0 0 0 0 0 0 0 0 0 0 0 0 0 0 0 0 0 0 0 0 0 0 0 0 0 0 0 0 0 0 0 0 0 0 0 0 0 0 0 0 0 0 0 0 0 0 0 0 0 0 0 0 0 0 0 0 0 0 0 0 0 0 0 0 0 0 0 0 0 0 0 
0 0 0 0 0 0 0 0 0 0 0 0 0 0 0 0 0 0 0 0 0 0 0 0 0 0 0 0 0 0 0 0 0 0 0 0 0 0 0 0 0 0 0 0 0 0 0 0 0 0 0 0 0 0 0 0 0 0 0 0 0 0 0 0 0 0 0 0 0 0 0 0 0 0 0 0 0 0 0 0 0 0 0 0 0 0 0 0 0 0 0 0 0 0 0 0 0 0 0 0 0 0 0 0 0 0 0 0 0 0 0 0 0 0 0 0 0 0 0 0 0 0 0 0 0 0 0 0 0 0 0 0 0 0 0 0 0 0 0 0 0 0 0 0 0 0 0 0 0 0 0 0 0 0 0 0 0 0 0 0 0 0 0 0 0 0 0 0 0 0 0 0 0 0 0 0 0 0 0 0 0 0 0 0 0 0 0 0 0 0 0 0 0 0 0 0 0 0 0 0 0 0 0 0 0 0 0 0 0 0 0 0 0 0 0 0 0 0 0 0 0 0 0 0 0 0 0 0 0 0 0 0 0 0 0 0 0 0 0 0 0 0 0 0 0 0 0 0 0 0 0 0 0 0 0 0 0 0 0 0 0 0 0 0 0 0 0 0 0 0 0 0 0 0 0 0 0 0 0 0 0 0 0 0 0 0 0 0 0 0 
0 0 0 0 0 0 0 0 0 0 0 0 0 0 0 0 0 0 0 0 0 0 0 0 0 0 0 0 0 0 0 0 0 0 0 0 0 0 0 0 0 0 0 0 0 0 0 0 0 0 0 0 0 0 0 0 0 0 0 0 0 0 0 0 0 0 0 0 0 0 0 0 0 0 0 0 0 0 0 0 0 0 0 0 0 0 0 0 0 0 0 0 0 0 0 0 0 0 0 0 0 0 0 0 0 0 0 0 0 0 0 0 0 0 0 0 0 0 0 0 0 0 0 0 0 0 0 0 0 0 0 0 0 0 0 0 0 0 0 0 0 0 0 0 0 0 0 0 0 0 0 0 0 0 0 0 0 0 0 0 0 0 0 0 0 0 0 0 0 0 0 0 0 0 0 0 0 0 0 0 0 0 0 0 0 0 0 0 0 0 0 0 0 0 0 0 0 0 0 0 0 0 0 0 0 0 0 0 0 0 0 0 0 0 0 0 0 0 0 0 0 0 0 0 0 0 0 0 0 0 0 0 0 0 0 0 0 0 0 0 0 0 0 0 0 0 0 0 0 0 0 0 0 0 0 0 0 0 0 0 0 0 0 0 0 0 0 0 0 0 0 0 0 0 0 0 0 0 0 0 0 0 0 0 0 0 0 0 0 0 
0 0 0 0 0 0 0 0 0 0 0 0 0 0 0 0 0 0 0 0 0 0 0 0 0 0 0 0 0 0 0 0 0 0 0 0 0 0 0 0 0 0 0 0 0 0 0 0 0 0 0 0 0 0 0 0 0 0 0 0 0 0 0 0 0 0 0 0 0 0 0 0 0 0 0 0 0 0 0 0 0 0 0 0 0 0 0 0 0 0 0 0 0 0 0 0 0 0 0 0 0 0 0 0 0 0 0 0 0 0 0 0 0 0 0 0 0 0 0 0 0 0 0 0 0 0 0 0 0 0 0 0 0 0 0 0 0 0 0 0 0 0 0 0 0 0 0 0 0 0 0 0 0 0 0 0 0 0 0 0 0 0 0 0 0 0 0 0 0 0 0 0 0 0 0 0 0 0 0 0 0 0 0 0 0 0 0 0 0 0 0 0 0 0 0 0 0 0 0 0 0 0 0 0 0 0 0 0 0 0 0 0 0 0 0 0 0 0 0 0 0 0 0 0 0 0 0 0 0 0 0 0 0 0 0 0 0 0 0 0 0 0 0 0 0 0 0 0 0 0 0 0 0 0 0 0 0 0 0 0 0 0 0 0 0 0 0 0 0 0 0 0 0 0 0 0 0 0 0 0 0 0 0 0 0 0 0 0 0 0 
0 0 0 0 0 0 0 0 0 0 0 0 0 0 0 0 0 0 0 0 0 0 0 0 0 0 0 0 0 0 0 0 0 0 0 0 0 0 0 0 0 0 0 0 0 0 0 0 0 0 0 0 0 0 0 0 0 0 0 0 0 0 0 0 0 0 0 0 0 0 0 0 0 0 0 0 0 0 0 0 0 0 0 0 0 0 0 0 0 0 0 0 0 0 0 0 0 0 0 0 0 0 0 0 0 0 0 0 0 0 0 0 0 0 0 0 0 0 0 0 0 0 0 0 0 0 0 0 0 0 0 0 0 0 0 0 0 0 0 0 0 0 0 0 0 0 0 0 0 0 0 0 0 0 0 0 0 0 0 0 0 0 0 0 0 0 0 0 0 0 0 0 0 0 0 0 0 0 0 0 0 0 0 0 0 0 0 0 0 0 0 0 0 0 0 0 0 0 0 0 0 0 0 0 0 0 0 0 0 0 0 0 0 0 0 0 0 0 0 0 0 0 0 0 0 0 0 0 0 0 0 0 0 0 0 0 0 0 0 0 0 0 0 0 0 0 0 0 0 0 0 0 0 0 0 0 0 0 0 0 0 0 0 0 0 0 0 0 0 0 0 0 0 0 0 0 0 0 0 0 0 0 0 0 0 0 0 0 0 0 
0 0 0 0 0 0 0 0 0 0 0 0 0 0 0 0 0 0 0 0 0 0 0 0 0 0 0 0 0 0 0 0 0 0 0 0 0 0 0 0 0 0 0 0 0 0 0 0 0 0 0 0 0 0 0 0 0 0 0 0 0 0 0 0 0 0 0 0 0 0 0 0 0 0 0 0 0 0 0 0 0 0 0 0 0 0 0 0 0 0 0 0 0 0 0 0 0 0 0 0 0 0 0 0 0 0 0 0 0 0 0 0 0 0 0 0 0 0 0 0 0 0 0 0 0 0 0 0 0 0 0 0 0 0 0 0 0 0 0 0 0 0 0 0 0 0 0 0 0 0 0 0 0 0 0 0 0 0 0 0 0 0 0 0 0 0 0 0 0 0 0 0 0 0 0 0 0 0 0 0 0 0 0 0 0 0 0 0 0 0 0 0 0 0 0 0 0 0 0 0 0 0 0 0 0 0 0 0 0 0 0 0 0 0 0 0 0 0 0 0 0 0 0 0 0 0 0 0 0 0 0 0 0 0 0 0 0 0 0 0 0 0 0 0 0 0 0 0 0 0 0 0 0 0 0 0 0 0 0 0 0 0 0 0 0 0 0 0 0 0 0 0 0 0 0 0 0 0 0 0 0 0 0 0 0 0 0 0 0 0 
0 0 0 0 0 0 0 0 0 0 0 0 0 0 0 0 0 0 0 0 0 0 0 0 0 0 0 0 0 0 0 0 0 0 0 0 0 0 0 0 0 0 0 0 0 0 0 0 0 0 0 0 0 0 0 0 0 0 0 0 0 0 0 0 0 0 0 0 0 0 0 0 0 0 0 0 0 0 0 0 0 0 0 0 0 0 0 0 0 0 0 0 0 0 0 0 0 0 0 0 0 0 0 0 0 0 0 0 0 0 0 0 0 0 0 0 0 0 0 0 0 0 0 0 0 0 0 0 0 0 0 0 0 0 0 0 0 0 0 0 0 0 0 0 0 0 0 0 0 0 0 0 0 0 0 0 0 0 0 0 0 0 0 0 0 0 0 0 0 0 0 0 0 0 0 0 0 0 0 0 0 0 0 0 0 0 0 0 0 0 0 0 0 0 0 0 0 0 0 0 0 0 0 0 0 0 0 0 0 0 0 0 0 0 0 0 0 0 0 0 0 0 0 0 0 0 0 0 0 0 0 0 0 0 0 0 0 0 0 0 0 0 0 0 0 0 0 0 0 0 0 0 0 0 0 0 0 0 0 0 0 0 0 0 0 0 0 0 0 0 0 0 0 0 0 0 0 0 0 0 0 0 0 0 0 0 0 0 0 0 
0 0 0 0 0 0 0 0 0 0 0 0 0 0 0 0 0 0 0 0 0 0 0 0 0 0 0 0 0 0 0 0 0 0 0 0 0 0 0 0 0 0 0 0 0 0 0 0 0 0 0 0 0 0 0 0 0 0 0 0 0 0 0 0 0 0 0 0 0 0 0 0 0 0 0 0 0 0 0 0 0 0 0 0 0 0 0 0 0 0 0 0 0 0 0 0 0 0 0 0 0 0 0 0 0 0 0 0 0 0 0 0 0 0 0 0 0 0 0 0 0 0 0 0 0 0 0 0 0 0 0 0 0 0 0 0 0 0 0 0 0 0 0 0 0 0 0 0 0 0 0 0 0 0 0 0 0 0 0 0 0 0 0 0 0 0 0 0 0 0 0 0 0 0 0 0 0 0 0 0 0 0 0 0 0 0 0 0 0 0 0 0 0 0 0 0 0 0 0 0 0 0 0 0 0 0 0 0 0 0 0 0 0 0 0 0 0 0 0 0 0 0 0 0 0 0 0 0 0 0 0 0 0 0 0 0 0 0 0 0 0 0 0 0 0 0 0 0 0 0 0 0 0 0 0 0 0 0 0 0 0 0 0 0 0 0 0 0 0 0 0 0 0 0 0 0 0 0 0 0 0 0 0 0 0 0 0 0 0 0 
0 0 0 0 0 0 0 0 0 0 0 0 0 0 0 0 0 0 0 0 0 0 0 0 0 0 0 0 0 0 0 0 0 0 0 0 0 0 0 0 0 0 0 0 0 0 0 0 0 0 0 0 0 0 0 0 0 0 0 0 0 0 0 0 0 0 0 0 0 0 0 0 0 0 0 0 0 0 0 0 0 0 0 0 0 0 0 0 0 0 0 0 0 0 0 0 0 0 0 0 0 0 0 0 0 0 0 0 0 0 0 0 0 0 0 0 0 0 0 0 0 0 0 0 0 0 0 0 0 0 0 0 0 0 0 0 0 0 0 0 0 0 0 0 0 0 0 0 0 0 0 0 0 0 0 0 0 0 0 0 0 0 0 0 0 0 0 0 0 0 0 0 0 0 0 0 0 0 0 0 0 0 0 0 0 0 0 0 0 0 0 0 0 0 0 0 0 0 0 0 0 0 0 0 0 0 0 0 0 0 0 0 0 0 0 0 0 0 0 0 0 0 0 0 0 0 0 0 0 0 0 0 0 0 0 0 0 0 0 0 0 0 0 0 0 0 0 0 0 0 0 0 0 0 0 0 0 0 0 0 0 0 0 0 0 0 0 0 0 0 0 0 0 0 0 0 0 0 0 0 0 0 0 0 0 0 0 0 0 0 
0 0 0 0 0 0 0 0 0 0 0 0 0 0 0 0 0 0 0 0 0 0 0 0 0 0 0 0 0 0 0 0 0 0 0 0 0 0 0 0 0 0 0 0 0 0 0 0 0 0 0 0 0 0 0 0 0 0 0 0 0 0 0 0 0 0 0 0 0 0 0 0 0 0 0 0 0 0 0 0 0 0 0 0 0 0 0 0 0 0 0 0 0 0 0 0 0 0 0 0 0 0 0 0 0 0 0 0 0 0 0 0 0 0 0 0 0 0 0 0 0 0 0 0 0 0 0 0 0 0 0 0 0 0 0 0 0 0 0 0 0 0 0 0 0 0 0 0 0 0 0 0 0 0 0 0 0 0 0 0 0 0 0 0 0 0 0 0 0 0 0 0 0 0 0 0 0 0 0 0 0 0 0 0 0 0 0 0 0 0 0 0 0 0 0 0 0 0 0 0 0 0 0 0 0 0 0 0 0 0 0 0 0 0 0 0 0 0 0 0 0 0 0 0 0 0 0 0 0 0 0 0 0 0 0 0 0 0 0 0 0 0 0 0 0 0 0 0 0 0 0 0 0 0 0 0 0 0 0 0 0 0 0 0 0 0 0 0 0 0 0 0 0 0 0 0 0 0 0 0 0 0 0 0 0 0 0 0 0 0 
0 0 0 0 0 0 0 0 0 0 0 0 0 0 0 0 0 0 0 0 0 0 0 0 0 0 0 0 0 0 0 0 0 0 0 0 0 0 0 0 0 0 0 0 0 0 0 0 0 0 0 0 0 0 0 0 0 0 0 0 0 0 0 0 0 0 0 0 0 0 0 0 0 0 0 0 0 0 0 0 0 0 0 0 0 0 0 0 0 0 0 0 0 0 0 0 0 0 0 0 0 0 0 0 0 0 0 0 0 0 0 0 0 0 0 0 0 0 0 0 0 0 0 0 0 0 0 0 0 0 0 0 0 0 0 0 0 0 0 0 0 0 0 0 0 0 0 0 0 0 0 0 0 0 0 0 0 0 0 0 0 0 0 0 0 0 0 0 0 0 0 0 0 0 0 0 0 0 0 0 0 0 0 0 0 0 0 0 0 0 0 0 0 0 0 0 0 0 0 0 0 0 0 0 0 0 0 0 0 0 0 0 0 0 0 0 0 0 0 0 0 0 0 0 0 0 0 0 0 0 0 0 0 0 0 0 0 0 0 0 0 0 0 0 0 0 0 0 0 0 0 0 0 0 0 0 0 0 0 0 0 0 0 0 0 0 0 0 0 0 0 0 0 0 0 0 0 0 0 0 0 0 0 0 0 0 0 0 0 0 
0 0 0 0 0 0 0 0 0 0 0 0 0 0 0 0 0 0 0 0 0 0 0 0 0 0 0 0 0 0 0 0 0 0 0 0 0 0 0 0 0 0 0 0 0 0 0 0 0 0 0 0 0 0 0 0 0 0 0 0 0 0 0 0 0 0 0 0 0 0 0 0 0 0 0 0 0 0 0 0 0 0 0 0 0 0 0 0 0 0 0 0 0 0 0 0 0 0 0 0 0 0 0 0 0 0 0 0 0 0 0 0 0 0 0 0 0 0 0 0 0 0 0 0 0 0 0 0 0 0 0 0 0 0 0 0 0 0 0 0 0 0 0 0 0 0 0 0 0 0 0 0 0 0 0 0 0 0 0 0 0 0 0 0 0 0 0 0 0 0 0 0 0 0 0 0 0 0 0 0 0 0 0 0 0 0 0 0 0 0 0 0 0 0 0 0 0 0 0 0 0 0 0 0 0 0 0 0 0 0 0 0 0 0 0 0 0 0 0 0 0 0 0 0 0 0 0 0 0 0 0 0 0 0 0 0 0 0 0 0 0 0 0 0 0 0 0 0 0 0 0 0 0 0 0 0 0 0 0 0 0 0 0 0 0 0 0 0 0 0 0 0 0 0 0 0 0 0 0 0 0 0 0 0 0 0 0 0 0 0 
0 0 0 0 0 0 0 0 0 0 0 0 0 0 0 0 0 0 0 0 0 0 0 0 0 0 0 0 0 0 0 0 0 0 0 0 0 0 0 0 0 0 0 0 0 0 0 0 0 0 0 0 0 0 0 0 0 0 0 0 0 0 0 0 0 0 0 0 0 0 0 0 0 0 0 0 0 0 0 0 0 0 0 0 0 0 0 0 0 0 0 0 0 0 0 0 0 0 0 0 0 0 0 0 0 0 0 0 0 0 0 0 0 0 0 0 0 0 0 0 0 0 0 0 0 0 0 0 0 0 0 0 0 0 0 0 0 0 0 0 0 0 0 0 0 0 0 0 0 0 0 0 0 0 0 0 0 0 0 0 0 0 0 0 0 0 0 0 0 0 0 0 0 0 0 0 0 0 0 0 0 0 0 0 0 0 0 0 0 0 0 0 0 0 0 0 0 0 0 0 0 0 0 0 0 0 0 0 0 0 0 0 0 0 0 0 0 0 0 0 0 0 0 0 0 0 0 0 0 0 0 0 0 0 0 0 0 0 0 0 0 0 0 0 0 0 0 0 0 0 0 0 0 0 0 0 0 0 0 0 0 0 0 0 0 0 0 0 0 0 0 0 0 0 0 0 0 0 0 0 0 0 0 0 0 0 0 0 0 0 
0 0 0 0 0 0 0 0 0 0 0 0 0 0 0 0 0 0 0 0 0 0 0 0 0 0 0 0 0 0 0 0 0 0 0 0 0 0 0 0 0 0 0 0 0 0 0 0 0 0 0 0 0 0 0 0 0 0 0 0 0 0 0 0 0 0 0 0 0 0 0 0 0 0 0 0 0 0 0 0 0 0 0 0 0 0 0 0 0 0 0 0 0 0 0 0 0 0 0 0 0 0 0 0 0 0 0 0 0 0 0 0 0 0 0 0 0 0 0 0 0 0 0 0 0 0 0 0 0 0 0 0 0 0 0 0 0 0 0 0 0 0 0 0 0 0 0 0 0 0 0 0 0 0 0 0 0 0 0 0 0 0 0 0 0 0 0 0 0 0 0 0 0 0 0 0 0 0 0 0 0 0 0 0 0 0 0 0 0 0 0 0 0 0 0 0 0 0 0 0 0 0 0 0 0 0 0 0 0 0 0 0 0 0 0 0 0 0 0 0 0 0 0 0 0 0 0 0 0 0 0 0 0 0 0 0 0 0 0 0 0 0 0 0 0 0 0 0 0 0 0 0 0 0 0 0 0 0 0 0 0 0 0 0 0 0 0 0 0 0 0 0 0 0 0 0 0 0 0 0 0 0 0 0 0 0 0 0 0 0 
0 0 0 0 0 0 0 0 0 0 0 0 0 0 0 0 0 0 0 0 0 0 0 0 0 0 0 0 0 0 0 0 0 0 0 0 0 0 0 0 0 0 0 0 0 0 0 0 0 0 0 0 0 0 0 0 0 0 0 0 0 0 0 0 0 0 0 0 0 0 0 0 0 0 0 0 0 0 0 0 0 0 0 0 0 0 0 0 0 0 0 0 0 0 0 0 0 0 0 0 0 0 0 0 0 0 0 0 0 0 0 0 0 0 0 0 0 0 0 0 0 0 0 0 0 0 0 0 0 0 0 0 0 0 0 0 0 0 0 0 0 0 0 0 0 0 0 0 0 0 0 0 0 0 0 0 0 0 0 0 0 0 0 0 0 0 0 0 0 0 0 0 0 0 0 0 0 0 0 0 0 0 0 0 0 0 0 0 0 0 0 0 0 0 0 0 0 0 0 0 0 0 0 0 0 0 0 0 0 0 0 0 0 0 0 0 0 0 0 0 0 0 0 0 0 0 0 0 0 0 0 0 0 0 0 0 0 0 0 0 0 0 0 0 0 0 0 0 0 0 0 0 0 0 0 0 0 0 0 0 0 0 0 0 0 0 0 0 0 0 0 0 0 0 0 0 0 0 0 0 0 0 0 0 0 0 0 0 0 0 
0 0 0 0 0 0 0 0 0 0 0 0 0 0 0 0 0 0 0 0 0 0 0 0 0 0 0 0 0 0 0 0 0 0 0 0 0 0 0 0 0 0 0 0 0 0 0 0 0 0 0 0 0 0 0 0 0 0 0 0 0 0 0 0 0 0 0 0 0 0 0 0 0 0 0 0 0 0 0 0 0 0 0 0 0 0 0 0 0 0 0 0 0 0 0 0 0 0 0 0 0 0 0 0 0 0 0 0 0 0 0 0 0 0 0 0 0 0 0 0 0 0 0 0 0 0 0 0 0 0 0 0 0 0 0 0 0 0 0 0 0 0 0 0 0 0 0 0 0 0 0 0 0 0 0 0 0 0 0 0 0 0 0 0 0 0 0 0 0 0 0 0 0 0 0 0 0 0 0 0 0 0 0 0 0 0 0 0 0 0 0 0 0 0 0 0 0 0 0 0 0 0 0 0 0 0 0 0 0 0 0 0 0 0 0 0 0 0 0 0 0 0 0 0 0 0 0 0 0 0 0 0 0 0 0 0 0 0 0 0 0 0 0 0 0 0 0 0 0 0 0 0 0 0 0 0 0 0 0 0 0 0 0 0 0 0 0 0 0 0 0 0 0 0 0 0 0 0 0 0 0 0 0 0 0 0 0 0 0 0 
0 0 0 0 0 0 0 0 0 0 0 0 0 0 0 0 0 0 0 0 0 0 0 0 0 0 0 0 0 0 0 0 0 0 0 0 0 0 0 0 0 0 0 0 0 0 0 0 0 0 0 0 0 0 0 0 0 0 0 0 0 0 0 0 0 0 0 0 0 0 0 0 0 0 0 0 0 0 0 0 0 0 0 0 0 0 0 0 0 0 0 0 0 0 0 0 0 0 0 0 0 0 0 0 0 0 0 0 0 0 0 0 0 0 0 0 0 0 0 0 0 0 0 0 0 0 0 0 0 0 0 0 0 0 0 0 0 0 0 0 0 0 0 0 0 0 0 0 0 0 0 0 0 0 0 0 0 0 0 0 0 0 0 0 0 0 0 0 0 0 0 0 0 0 0 0 0 0 0 0 0 0 0 0 0 0 0 0 0 0 0 0 0 0 0 0 0 0 0 0 0 0 0 0 0 0 0 0 0 0 0 0 0 0 0 0 0 0 0 0 0 0 0 0 0 0 0 0 0 0 0 0 0 0 0 0 0 0 0 0 0 0 0 0 0 0 0 0 0 0 0 0 0 0 0 0 0 0 0 0 0 0 0 0 0 0 0 0 0 0 0 0 0 0 0 0 0 0 0 0 0 0 0 0 0 0 0 0 0 0 
0 0 0 0 0 0 0 0 0 0 0 0 0 0 0 0 0 0 0 0 0 0 0 0 0 0 0 0 0 0 0 0 0 0 0 0 0 0 0 0 0 0 0 0 0 0 0 0 0 0 0 0 0 0 0 0 0 0 0 0 0 0 0 0 0 0 0 0 0 0 0 0 0 0 0 0 0 0 0 0 0 0 0 0 0 0 0 0 0 0 0 0 0 0 0 0 0 0 0 0 0 0 0 0 0 0 0 0 0 0 0 0 0 0 0 0 0 0 0 0 0 0 0 0 0 0 0 0 0 0 0 0 0 0 0 0 0 0 0 0 0 0 0 0 0 0 0 0 0 0 0 0 0 0 0 0 0 0 0 0 0 0 0 0 0 0 0 0 0 0 0 0 0 0 0 0 0 0 0 0 0 0 0 0 0 0 0 0 0 0 0 0 0 0 0 0 0 0 0 0 0 0 0 0 0 0 0 0 0 0 0 0 0 0 0 0 0 0 0 0 0 0 0 0 0 0 0 0 0 0 0 0 0 0 0 0 0 0 0 0 0 0 0 0 0 0 0 0 0 0 0 0 0 0 0 0 0 0 0 0 0 0 0 0 0 0 0 0 0 0 0 0 0 0 0 0 0 0 0 0 0 0 0 0 0 0 0 0 0 0 
0 0 0 0 0 0 0 0 0 0 0 0 0 0 0 0 0 0 0 0 0 0 0 0 0 0 0 0 0 0 0 0 0 0 0 0 0 0 0 0 0 0 0 0 0 0 0 0 0 0 0 0 0 0 0 0 0 0 0 0 0 0 0 0 0 0 0 0 0 0 0 0 0 0 0 0 0 0 0 0 0 0 0 0 0 0 0 0 0 0 0 0 0 0 0 0 0 0 0 0 0 0 0 0 0 0 0 0 0 0 0 0 0 0 0 0 0 0 0 0 0 0 0 0 0 0 0 0 0 0 0 0 0 0 0 0 0 0 0 0 0 0 0 0 0 0 0 0 0 0 0 0 0 0 0 0 0 0 0 0 0 0 0 0 0 0 0 0 0 0 0 0 0 0 0 0 0 0 0 0 0 0 0 0 0 0 0 0 0 0 0 0 0 0 0 0 0 0 0 0 0 0 0 0 0 0 0 0 0 0 0 0 0 0 0 0 0 0 0 0 0 0 0 0 0 0 0 0 0 0 0 0 0 0 0 0 0 0 0 0 0 0 0 0 0 0 0 0 0 0 0 0 0 0 0 0 0 0 0 0 0 0 0 0 0 0 0 0 0 0 0 0 0 0 0 0 0 0 0 0 0 0 0 0 0 0 0 0 0 0 
0 0 0 0 0 0 0 0 0 0 0 0 0 0 0 0 0 0 0 0 0 0 0 0 0 0 0 0 0 0 0 0 0 0 0 0 0 0 0 0 0 0 0 0 0 0 0 0 0 0 0 0 0 0 0 0 0 0 0 0 0 0 0 0 0 0 0 0 0 0 0 0 0 0 0 0 0 0 0 0 0 0 0 0 0 0 0 0 0 0 0 0 0 0 0 0 0 0 0 0 0 0 0 0 0 0 0 0 0 0 0 0 0 0 0 0 0 0 0 0 0 0 0 0 0 0 0 0 0 0 0 0 0 0 0 0 0 0 0 0 0 0 0 0 0 0 0 0 0 0 0 0 0 0 0 0 0 0 0 0 0 0 0 0 0 0 0 0 0 0 0 0 0 0 0 0 0 0 0 0 0 0 0 0 0 0 0 0 0 0 0 0 0 0 0 0 0 0 0 0 0 0 0 0 0 0 0 0 0 0 0 0 0 0 0 0 0 0 0 0 0 0 0 0 0 0 0 0 0 0 0 0 0 0 0 0 0 0 0 0 0 0 0 0 0 0 0 0 0 0 0 0 0 0 0 0 0 0 0 0 0 0 0 0 0 0 0 0 0 0 0 0 0 0 0 0 0 0 0 0 0 0 0 0 0 0 0 0 0 0 
0 0 0 0 0 0 0 0 0 0 0 0 0 0 0 0 0 0 0 0 0 0 0 0 0 0 0 0 0 0 0 0 0 0 0 0 0 0 0 0 0 0 0 0 0 0 0 0 0 0 0 0 0 0 0 0 0 0 0 0 0 0 0 0 0 0 0 0 0 0 0 0 0 0 0 0 0 0 0 0 0 0 0 0 0 0 0 0 0 0 0 0 0 0 0 0 0 0 0 0 0 0 0 0 0 0 0 0 0 0 0 0 0 0 0 0 0 0 0 0 0 0 0 0 0 0 0 0 0 0 0 0 0 0 0 0 0 0 0 0 0 0 0 0 0 0 0 0 0 0 0 0 0 0 0 0 0 0 0 0 0 0 0 0 0 0 0 0 0 0 0 0 0 0 0 0 0 0 0 0 0 0 0 0 0 0 0 0 0 0 0 0 0 0 0 0 0 0 0 0 0 0 0 0 0 0 0 0 0 0 0 0 0 0 0 0 0 0 0 0 0 0 0 0 0 0 0 0 0 0 0 0 0 0 0 0 0 0 0 0 0 0 0 0 0 0 0 0 0 0 0 0 0 0 0 0 0 0 0 0 0 0 0 0 0 0 0 0 0 0 0 0 0 0 0 0 0 0 0 0 0 0 0 0 0 0 0 0 0 0 
0 0 0 0 0 0 0 0 0 0 0 0 0 0 0 0 0 0 0 0 0 0 0 0 0 0 0 0 0 0 0 0 0 0 0 0 0 0 0 0 0 0 0 0 0 0 0 0 0 0 0 0 0 0 0 0 0 0 0 0 0 0 0 0 0 0 0 0 0 0 0 0 0 0 0 0 0 0 0 0 0 0 0 0 0 0 0 0 0 0 0 0 0 0 0 0 0 0 0 0 0 0 0 0 0 0 0 0 0 0 0 0 0 0 0 0 0 0 0 0 0 0 0 0 0 0 0 0 0 0 0 0 0 0 0 0 0 0 0 0 0 0 0 0 0 0 0 0 0 0 0 0 0 0 0 0 0 0 0 0 0 0 0 0 0 0 0 0 0 0 0 0 0 0 0 0 0 0 0 0 0 0 0 0 0 0 0 0 0 0 0 0 0 0 0 0 0 0 0 0 0 0 0 0 0 0 0 0 0 0 0 0 0 0 0 0 0 0 0 0 0 0 0 0 0 0 0 0 0 0 0 0 0 0 0 0 0 0 0 0 0 0 0 0 0 0 0 0 0 0 0 0 0 0 0 0 0 0 0 0 0 0 0 0 0 0 0 0 0 0 0 0 0 0 0 0 0 0 0 0 0 0 0 0 0 0 0 0 0 0 
0 0 0 0 0 0 0 0 0 0 0 0 0 0 0 0 0 0 0 0 0 0 0 0 0 0 0 0 0 0 0 0 0 0 0 0 0 0 0 0 0 0 0 0 0 0 0 0 0 0 0 0 0 0 0 0 0 0 0 0 0 0 0 0 0 0 0 0 0 0 0 0 0 0 0 0 0 0 0 0 0 0 0 0 0 0 0 0 0 0 0 0 0 0 0 0 0 0 0 0 0 0 0 0 0 0 0 0 0 0 0 0 0 0 0 0 0 0 0 0 0 0 0 0 0 0 0 0 0 0 0 0 0 0 0 0 0 0 0 0 0 0 0 0 0 0 0 0 0 0 0 0 0 0 0 0 0 0 0 0 0 0 0 0 0 0 0 0 0 0 0 0 0 0 0 0 0 0 0 0 0 0 0 0 0 0 0 0 0 0 0 0 0 0 0 0 0 0 0 0 0 0 0 0 0 0 0 0 0 0 0 0 0 0 0 0 0 0 0 0 0 0 0 0 0 0 0 0 0 0 0 0 0 0 0 0 0 0 0 0 0 0 0 0 0 0 0 0 0 0 0 0 0 0 0 0 0 0 0 0 0 0 0 0 0 0 0 0 0 0 0 0 0 0 0 0 0 0 0 0 0 0 0 0 0 0 0 0 0 0 
0 0 0 0 0 0 0 0 0 0 0 0 0 0 0 0 0 0 0 0 0 0 0 0 0 0 0 0 0 0 0 0 0 0 0 0 0 0 0 0 0 0 0 0 0 0 0 0 0 0 0 0 0 0 0 0 0 0 0 0 0 0 0 0 0 0 0 0 0 0 0 0 0 0 0 0 0 0 0 0 0 0 0 0 0 0 0 0 0 0 0 0 0 0 0 0 0 0 0 0 0 0 0 0 0 0 0 0 0 0 0 0 0 0 0 0 0 0 0 0 0 0 0 0 0 0 0 0 0 0 0 0 0 0 0 0 0 0 0 0 0 0 0 0 0 0 0 0 0 0 0 0 0 0 0 0 0 0 0 0 0 0 0 0 0 0 0 0 0 0 0 0 0 0 0 0 0 0 0 0 0 0 0 0 0 0 0 0 0 0 0 0 0 0 0 0 0 0 0 0 0 0 0 0 0 0 0 0 0 0 0 0 0 0 0 0 0 0 0 0 0 0 0 0 0 0 0 0 0 0 0 0 0 0 0 0 0 0 0 0 0 0 0 0 0 0 0 0 0 0 0 0 0 0 0 0 0 0 0 0 0 0 0 0 0 0 0 0 0 0 0 0 0 0 0 0 0 0 0 0 0 0 0 0 0 0 0 0 0 0 
0 0 0 0 0 0 0 0 0 0 0 0 0 0 0 0 0 0 0 0 0 0 0 0 0 0 0 0 0 0 0 0 0 0 0 0 0 0 0 0 0 0 0 0 0 0 0 0 0 0 0 0 0 0 0 0 0 0 0 0 0 0 0 0 0 0 0 0 0 0 0 0 0 0 0 0 0 0 0 0 0 0 0 0 0 0 0 0 0 0 0 0 0 0 0 0 0 0 0 0 0 0 0 0 0 0 0 0 0 0 0 0 0 0 0 0 0 0 0 0 0 0 0 0 0 0 0 0 0 0 0 0 0 0 0 0 0 0 0 0 0 0 0 0 0 0 0 0 0 0 0 0 0 0 0 0 0 0 0 0 0 0 0 0 0 0 0 0 0 0 0 0 0 0 0 0 0 0 0 0 0 0 0 0 0 0 0 0 0 0 0 0 0 0 0 0 0 0 0 0 0 0 0 0 0 0 0 0 0 0 0 0 0 0 0 0 0 0 0 0 0 0 0 0 0 0 0 0 0 0 0 0 0 0 0 0 0 0 0 0 0 0 0 0 0 0 0 0 0 0 0 0 0 0 0 0 0 0 0 0 0 0 0 0 0 0 0 0 0 0 0 0 0 0 0 0 0 0 0 0 0 0 0 0 0 0 0 0 0 0 
0 0 0 0 0 0 0 0 0 0 0 0 0 0 0 0 0 0 0 0 0 0 0 0 0 0 0 0 0 0 0 0 0 0 0 0 0 0 0 0 0 0 0 0 0 0 0 0 0 0 0 0 0 0 0 0 0 0 0 0 0 0 0 0 0 0 0 0 0 0 0 0 0 0 0 0 0 0 0 0 0 0 0 0 0 0 0 0 0 0 0 0 0 0 0 0 0 0 0 0 0 0 0 0 0 0 0 0 0 0 0 0 0 0 0 0 0 0 0 0 0 0 0 0 0 0 0 0 0 0 0 0 0 0 0 0 0 0 0 0 0 0 0 0 0 0 0 0 0 0 0 0 0 0 0 0 0 0 0 0 0 0 0 0 0 0 0 0 0 0 0 0 0 0 0 0 0 0 0 0 0 0 0 0 0 0 0 0 0 0 0 0 0 0 0 0 0 0 0 0 0 0 0 0 0 0 0 0 0 0 0 0 0 0 0 0 0 0 0 0 0 0 0 0 0 0 0 0 0 0 0 0 0 0 0 0 0 0 0 0 0 0 0 0 0 0 0 0 0 0 0 0 0 0 0 0 0 0 0 0 0 0 0 0 0 0 0 0 0 0 0 0 0 0 0 0 0 0 0 0 0 0 0 0 0 0 0 0 0 0 
0 0 0 0 0 0 0 0 0 0 0 0 0 0 0 0 0 0 0 0 0 0 0 0 0 0 0 0 0 0 0 0 0 0 0 0 0 0 0 0 0 0 0 0 0 0 0 0 0 0 0 0 0 0 0 0 0 0 0 0 0 0 0 0 0 0 0 0 0 0 0 0 0 0 0 0 0 0 0 0 0 0 0 0 0 0 0 0 0 0 0 0 0 0 0 0 0 0 0 0 0 0 0 0 0 0 0 0 0 0 0 0 0 0 0 0 0 0 0 0 0 0 0 0 0 0 0 0 0 0 0 0 0 0 0 0 0 0 0 0 0 0 0 0 0 0 0 0 0 0 0 0 0 0 0 0 0 0 0 0 0 0 0 0 0 0 0 0 0 0 0 0 0 0 0 0 0 0 0 0 0 0 0 0 0 0 0 0 0 0 0 0 0 0 0 0 0 0 0 0 0 0 0 0 0 0 0 0 0 0 0 0 0 0 0 0 0 0 0 0 0 0 0 0 0 0 0 0 0 0 0 0 0 0 0 0 0 0 0 0 0 0 0 0 0 0 0 0 0 0 0 0 0 0 0 0 0 0 0 0 0 0 0 0 0 0 0 0 0 0 0 0 0 0 0 0 0 0 0 0 0 0 0 0 0 0 0 0 0 0 
0 0 0 0 0 0 0 0 0 0 0 0 0 0 0 0 0 0 0 0 0 0 0 0 0 0 0 0 0 0 0 0 0 0 0 0 0 0 0 0 0 0 0 0 0 0 0 0 0 0 0 0 0 0 0 0 0 0 0 0 0 0 0 0 0 0 0 0 0 0 0 0 0 0 0 0 0 0 0 0 0 0 0 0 0 0 0 0 0 0 0 0 0 0 0 0 0 0 0 0 0 0 0 0 0 0 0 0 0 0 0 0 0 0 0 0 0 0 0 0 0 0 0 0 0 0 0 0 0 0 0 0 0 0 0 0 0 0 0 0 0 0 0 0 0 0 0 0 0 0 0 0 0 0 0 0 0 0 0 0 0 0 0 0 0 0 0 0 0 0 0 0 0 0 0 0 0 0 0 0 0 0 0 0 0 0 0 0 0 0 0 0 0 0 0 0 0 0 0 0 0 0 0 0 0 0 0 0 0 0 0 0 0 0 0 0 0 0 0 0 0 0 0 0 0 0 0 0 0 0 0 0 0 0 0 0 0 0 0 0 0 0 0 0 0 0 0 0 0 0 0 0 0 0 0 0 0 0 0 0 0 0 0 0 0 0 0 0 0 0 0 0 0 0 0 0 0 0 0 0 0 0 0 0 0 0 0 0 0 0 
0 0 0 0 0 0 0 0 0 0 0 0 0 0 0 0 0 0 0 0 0 0 0 0 0 0 0 0 0 0 0 0 0 0 0 0 0 0 0 0 0 0 0 0 0 0 0 0 0 0 0 0 0 0 0 0 0 0 0 0 0 0 0 0 0 0 0 0 0 0 0 0 0 0 0 0 0 0 0 0 0 0 0 0 0 0 0 0 0 0 0 0 0 0 0 0 0 0 0 0 0 0 0 0 0 0 0 0 0 0 0 0 0 0 0 0 0 0 0 0 0 0 0 0 0 0 0 0 0 0 0 0 0 0 0 0 0 0 0 0 0 0 0 0 0 0 0 0 0 0 0 0 0 0 0 0 0 0 0 0 0 0 0 0 0 0 0 0 0 0 0 0 0 0 0 0 0 0 0 0 0 0 0 0 0 0 0 0 0 0 0 0 0 0 0 0 0 0 0 0 0 0 0 0 0 0 0 0 0 0 0 0 0 0 0 0 0 0 0 0 0 0 0 0 0 0 0 0 0 0 0 0 0 0 0 0 0 0 0 0 0 0 0 0 0 0 0 0 0 0 0 0 0 0 0 0 0 0 0 0 0 0 0 0 0 0 0 0 0 0 0 0 0 0 0 0 0 0 0 0 0 0 0 0 0 0 0 0 0 0 
0 0 0 0 0 0 0 0 0 0 0 0 0 0 0 0 0 0 0 0 0 0 0 0 0 0 0 0 0 0 0 0 0 0 0 0 0 0 0 0 0 0 0 0 0 0 0 0 0 0 0 0 0 0 0 0 0 0 0 0 0 0 0 0 0 0 0 0 0 0 0 0 0 0 0 0 0 0 0 0 0 0 0 0 0 0 0 0 0 0 0 0 0 0 0 0 0 0 0 0 0 0 0 0 0 0 0 0 0 0 0 0 0 0 0 0 0 0 0 0 0 0 0 0 0 0 0 0 0 0 0 0 0 0 0 0 0 0 0 0 0 0 0 0 0 0 0 0 0 0 0 0 0 0 0 0 0 0 0 0 0 0 0 0 0 0 0 0 0 0 0 0 0 0 0 0 0 0 0 0 0 0 0 0 0 0 0 0 0 0 0 0 0 0 0 0 0 0 0 0 0 0 0 0 0 0 0 0 0 0 0 0 0 0 0 0 0 0 0 0 0 0 0 0 0 0 0 0 0 0 0 0 0 0 0 0 0 0 0 0 0 0 0 0 0 0 0 0 0 0 0 0 0 0 0 0 0 0 0 0 0 0 0 0 0 0 0 0 0 0 0 0 0 0 0 0 0 0 0 0 0 0 0 0 0 0 0 0 0 0 
0 0 0 0 0 0 0 0 0 0 0 0 0 0 0 0 0 0 0 0 0 0 0 0 0 0 0 0 0 0 0 0 0 0 0 0 0 0 0 0 0 0 0 0 0 0 0 0 0 0 0 0 0 0 0 0 0 0 0 0 0 0 0 0 0 0 0 0 0 0 0 0 0 0 0 0 0 0 0 0 0 0 0 0 0 0 0 0 0 0 0 0 0 0 0 0 0 0 0 0 0 0 0 0 0 0 0 0 0 0 0 0 0 0 0 0 0 0 0 0 0 0 0 0 0 0 0 0 0 0 0 0 0 0 0 0 0 0 0 0 0 0 0 0 0 0 0 0 0 0 0 0 0 0 0 0 0 0 0 0 0 0 0 0 0 0 0 0 0 0 0 0 0 0 0 0 0 0 0 0 0 0 0 0 0 0 0 0 0 0 0 0 0 0 0 0 0 0 0 0 0 0 0 0 0 0 0 0 0 0 0 0 0 0 0 0 0 0 0 0 0 0 0 0 0 0 0 0 0 0 0 0 0 0 0 0 0 0 0 0 0 0 0 0 0 0 0 0 0 0 0 0 0 0 0 0 0 0 0 0 0 0 0 0 0 0 0 0 0 0 0 0 0 0 0 0 0 0 0 0 0 0 0 0 0 0 0 0 0 0 
0 0 0 0 0 0 0 0 0 0 0 0 0 0 0 0 0 0 0 0 0 0 0 0 0 0 0 0 0 0 0 0 0 0 0 0 0 0 0 0 0 0 0 0 0 0 0 0 0 0 0 0 0 0 0 0 0 0 0 0 0 0 0 0 0 0 0 0 0 0 0 0 0 0 0 0 0 0 0 0 0 0 0 0 0 0 0 0 0 0 0 0 0 0 0 0 0 0 0 0 0 0 0 0 0 0 0 0 0 0 0 0 0 0 0 0 0 0 0 0 0 0 0 0 0 0 0 0 0 0 0 0 0 0 0 0 0 0 0 0 0 0 0 0 0 0 0 0 0 0 0 0 0 0 0 0 0 0 0 0 0 0 0 0 0 0 0 0 0 0 0 0 0 0 0 0 0 0 0 0 0 0 0 0 0 0 0 0 0 0 0 0 0 0 0 0 0 0 0 0 0 0 0 0 0 0 0 0 0 0 0 0 0 0 0 0 0 0 0 0 0 0 0 0 0 0 0 0 0 0 0 0 0 0 0 0 0 0 0 0 0 0 0 0 0 0 0 0 0 0 0 0 0 0 0 0 0 0 0 0 0 0 0 0 0 0 0 0 0 0 0 0 0 0 0 0 0 0 0 0 0 0 0 0 0 0 0 0 0 0 
0 0 0 0 0 0 0 0 0 0 0 0 0 0 0 0 0 0 0 0 0 0 0 0 0 0 0 0 0 0 0 0 0 0 0 0 0 0 0 0 0 0 0 0 0 0 0 0 0 0 0 0 0 0 0 0 0 0 0 0 0 0 0 0 0 0 0 0 0 0 0 0 0 0 0 0 0 0 0 0 0 0 0 0 0 0 0 0 0 0 0 0 0 0 0 0 0 0 0 0 0 0 0 0 0 0 0 0 0 0 0 0 0 0 0 0 0 0 0 0 0 0 0 0 0 0 0 0 0 0 0 0 0 0 0 0 0 0 0 0 0 0 0 0 0 0 0 0 0 0 0 0 0 0 0 0 0 0 0 0 0 0 0 0 0 0 0 0 0 0 0 0 0 0 0 0 0 0 0 0 0 0 0 0 0 0 0 0 0 0 0 0 0 0 0 0 0 0 0 0 0 0 0 0 0 0 0 0 0 0 0 0 0 0 0 0 0 0 0 0 0 0 0 0 0 0 0 0 0 0 0 0 0 0 0 0 0 0 0 0 0 0 0 0 0 0 0 0 0 0 0 0 0 0 0 0 0 0 0 0 0 0 0 0 0 0 0 0 0 0 0 0 0 0 0 0 0 0 0 0 0 0 0 0 0 0 0 0 0 0 
0 0 0 0 0 0 0 0 0 0 0 0 0 0 0 0 0 0 0 0 0 0 0 0 0 0 0 0 0 0 0 0 0 0 0 0 0 0 0 0 0 0 0 0 0 0 0 0 0 0 0 0 0 0 0 0 0 0 0 0 0 0 0 0 0 0 0 0 0 0 0 0 0 0 0 0 0 0 0 0 0 0 0 0 0 0 0 0 0 0 0 0 0 0 0 0 0 0 0 0 0 0 0 0 0 0 0 0 0 0 0 0 0 0 0 0 0 0 0 0 0 0 0 0 0 0 0 0 0 0 0 0 0 0 0 0 0 0 0 0 0 0 0 0 0 0 0 0 0 0 0 0 0 0 0 0 0 0 0 0 0 0 0 0 0 0 0 0 0 0 0 0 0 0 0 0 0 0 0 0 0 0 0 0 0 0 0 0 0 0 0 0 0 0 0 0 0 0 0 0 0 0 0 0 0 0 0 0 0 0 0 0 0 0 0 0 0 0 0 0 0 0 0 0 0 0 0 0 0 0 0 0 0 0 0 0 0 0 0 0 0 0 0 0 0 0 0 0 0 0 0 0 0 0 0 0 0 0 0 0 0 0 0 0 0 0 0 0 0 0 0 0 0 0 0 0 0 0 0 0 0 0 0 0 0 0 0 0 0 0 
0 0 0 0 0 0 0 0 0 0 0 0 0 0 0 0 0 0 0 0 0 0 0 0 0 0 0 0 0 0 0 0 0 0 0 0 0 0 0 0 0 0 0 0 0 0 0 0 0 0 0 0 0 0 0 0 0 0 0 0 0 0 0 0 0 0 0 0 0 0 0 0 0 0 0 0 0 0 0 0 0 0 0 0 0 0 0 0 0 0 0 0 0 0 0 0 0 0 0 0 0 0 0 0 0 0 0 0 0 0 0 0 0 0 0 0 0 0 0 0 0 0 0 0 0 0 0 0 0 0 0 0 0 0 0 0 0 0 0 0 0 0 0 0 0 0 0 0 0 0 0 0 0 0 0 0 0 0 0 0 0 0 0 0 0 0 0 0 0 0 0 0 0 0 0 0 0 0 0 0 0 0 0 0 0 0 0 0 0 0 0 0 0 0 0 0 0 0 0 0 0 0 0 0 0 0 0 0 0 0 0 0 0 0 0 0 0 0 0 0 0 0 0 0 0 0 0 0 0 0 0 0 0 0 0 0 0 0 0 0 0 0 0 0 0 0 0 0 0 0 0 0 0 0 0 0 0 0 0 0 0 0 0 0 0 0 0 0 0 0 0 0 0 0 0 0 0 0 0 0 0 0 0 0 0 0 0 0 0 0 
0 0 0 0 0 0 0 0 0 0 0 0 0 0 0 0 0 0 0 0 0 0 0 0 0 0 0 0 0 0 0 0 0 0 0 0 0 0 0 0 0 0 0 0 0 0 0 0 0 0 0 0 0 0 0 0 0 0 0 0 0 0 0 0 0 0 0 0 0 0 0 0 0 0 0 0 0 0 0 0 0 0 0 0 0 0 0 0 0 0 0 0 0 0 0 0 0 0 0 0 0 0 0 0 0 0 0 0 0 0 0 0 0 0 0 0 0 0 0 0 0 0 0 0 0 0 0 0 0 0 0 0 0 0 0 0 0 0 0 0 0 0 0 0 0 0 0 0 0 0 0 0 0 0 0 0 0 0 0 0 0 0 0 0 0 0 0 0 0 0 0 0 0 0 0 0 0 0 0 0 0 0 0 0 0 0 0 0 0 0 0 0 0 0 0 0 0 0 0 0 0 0 0 0 0 0 0 0 0 0 0 0 0 0 0 0 0 0 0 0 0 0 0 0 0 0 0 0 0 0 0 0 0 0 0 0 0 0 0 0 0 0 0 0 0 0 0 0 0 0 0 0 0 0 0 0 0 0 0 0 0 0 0 0 0 0 0 0 0 0 0 0 0 0 0 0 0 0 0 0 0 0 0 0 0 0 0 0 0 0 
0 0 0 0 0 0 0 0 0 0 0 0 0 0 0 0 0 0 0 0 0 0 0 0 0 0 0 0 0 0 0 0 0 0 0 0 0 0 0 0 0 0 0 0 0 0 0 0 0 0 0 0 0 0 0 0 0 0 0 0 0 0 0 0 0 0 0 0 0 0 0 0 0 0 0 0 0 0 0 0 0 0 0 0 0 0 0 0 0 0 0 0 0 0 0 0 0 0 0 0 0 0 0 0 0 0 0 0 0 0 0 0 0 0 0 0 0 0 0 0 0 0 0 0 0 0 0 0 0 0 0 0 0 0 0 0 0 0 0 0 0 0 0 0 0 0 0 0 0 0 0 0 0 0 0 0 0 0 0 0 0 0 0 0 0 0 0 0 0 0 0 0 0 0 0 0 0 0 0 0 0 0 0 0 0 0 0 0 0 0 0 0 0 0 0 0 0 0 0 0 0 0 0 0 0 0 0 0 0 0 0 0 0 0 0 0 0 0 0 0 0 0 0 0 0 0 0 0 0 0 0 0 0 0 0 0 0 0 0 0 0 0 0 0 0 0 0 0 0 0 0 0 0 0 0 0 0 0 0 0 0 0 0 0 0 0 0 0 0 0 0 0 0 0 0 0 0 0 0 0 0 0 0 0 0 0 0 0 0 0 
0 0 0 0 0 0 0 0 0 0 0 0 0 0 0 0 0 0 0 0 0 0 0 0 0 0 0 0 0 0 0 0 0 0 0 0 0 0 0 0 0 0 0 0 0 0 0 0 0 0 0 0 0 0 0 0 0 0 0 0 0 0 0 0 0 0 0 0 0 0 0 0 0 0 0 0 0 0 0 0 0 0 0 0 0 0 0 0 0 0 0 0 0 0 0 0 0 0 0 0 0 0 0 0 0 0 0 0 0 0 0 0 0 0 0 0 0 0 0 0 0 0 0 0 0 0 0 0 0 0 0 0 0 0 0 0 0 0 0 0 0 0 0 0 0 0 0 0 0 0 0 0 0 0 0 0 0 0 0 0 0 0 0 0 0 0 0 0 0 0 0 0 0 0 0 0 0 0 0 0 0 0 0 0 0 0 0 0 0 0 0 0 0 0 0 0 0 0 0 0 0 0 0 0 0 0 0 0 0 0 0 0 0 0 0 0 0 0 0 0 0 0 0 0 0 0 0 0 0 0 0 0 0 0 0 0 0 0 0 0 0 0 0 0 0 0 0 0 0 0 0 0 0 0 0 0 0 0 0 0 0 0 0 0 0 0 0 0 0 0 0 0 0 0 0 0 0 0 0 0 0 0 0 0 0 0 0 0 0 0 
0 0 0 0 0 0 0 0 0 0 0 0 0 0 0 0 0 0 0 0 0 0 0 0 0 0 0 0 0 0 0 0 0 0 0 0 0 0 0 0 0 0 0 0 0 0 0 0 0 0 0 0 0 0 0 0 0 0 0 0 0 0 0 0 0 0 0 0 0 0 0 0 0 0 0 0 0 0 0 0 0 0 0 0 0 0 0 0 0 0 0 0 0 0 0 0 0 0 0 0 0 0 0 0 0 0 0 0 0 0 0 0 0 0 0 0 0 0 0 0 0 0 0 0 0 0 0 0 0 0 0 0 0 0 0 0 0 0 0 0 0 0 0 0 0 0 0 0 0 0 0 0 0 0 0 0 0 0 0 0 0 0 0 0 0 0 0 0 0 0 0 0 0 0 0 0 0 0 0 0 0 0 0 0 0 0 0 0 0 0 0 0 0 0 0 0 0 0 0 0 0 0 0 0 0 0 0 0 0 0 0 0 0 0 0 0 0 0 0 0 0 0 0 0 0 0 0 0 0 0 0 0 0 0 0 0 0 0 0 0 0 0 0 0 0 0 0 0 0 0 0 0 0 0 0 0 0 0 0 0 0 0 0 0 0 0 0 0 0 0 0 0 0 0 0 0 0 0 0 0 0 0 0 0 0 0 0 0 0 0 
0 0 0 0 0 0 0 0 0 0 0 0 0 0 0 0 0 0 0 0 0 0 0 0 0 0 0 0 0 0 0 0 0 0 0 0 0 0 0 0 0 0 0 0 0 0 0 0 0 0 0 0 0 0 0 0 0 0 0 0 0 0 0 0 0 0 0 0 0 0 0 0 0 0 0 0 0 0 0 0 0 0 0 0 0 0 0 0 0 0 0 0 0 0 0 0 0 0 0 0 0 0 0 0 0 0 0 0 0 0 0 0 0 0 0 0 0 0 0 0 0 0 0 0 0 0 0 0 0 0 0 0 0 0 0 0 0 0 0 0 0 0 0 0 0 0 0 0 0 0 0 0 0 0 0 0 0 0 0 0 0 0 0 0 0 0 0 0 0 0 0 0 0 0 0 0 0 0 0 0 0 0 0 0 0 0 0 0 0 0 0 0 0 0 0 0 0 0 0 0 0 0 0 0 0 0 0 0 0 0 0 0 0 0 0 0 0 0 0 0 0 0 0 0 0 0 0 0 0 0 0 0 0 0 0 0 0 0 0 0 0 0 0 0 0 0 0 0 0 0 0 0 0 0 0 0 0 0 0 0 0 0 0 0 0 0 0 0 0 0 0 0 0 0 0 0 0 0 0 0 0 0 0 0 0 0 0 0 0 0 
0 0 0 0 0 0 0 0 0 0 0 0 0 0 0 0 0 0 0 0 0 0 0 0 0 0 0 0 0 0 0 0 0 0 0 0 0 0 0 0 0 0 0 0 0 0 0 0 0 0 0 0 0 0 0 0 0 0 0 0 0 0 0 0 0 0 0 0 0 0 0 0 0 0 0 0 0 0 0 0 0 0 0 0 0 0 0 0 0 0 0 0 0 0 0 0 0 0 0 0 0 0 0 0 0 0 0 0 0 0 0 0 0 0 0 0 0 0 0 0 0 0 0 0 0 0 0 0 0 0 0 0 0 0 0 0 0 0 0 0 0 0 0 0 0 0 0 0 0 0 0 0 0 0 0 0 0 0 0 0 0 0 0 0 0 0 0 0 0 0 0 0 0 0 0 0 0 0 0 0 0 0 0 0 0 0 0 0 0 0 0 0 0 0 0 0 0 0 0 0 0 0 0 0 0 0 0 0 0 0 0 0 0 0 0 0 0 0 0 0 0 0 0 0 0 0 0 0 0 0 0 0 0 0 0 0 0 0 0 0 0 0 0 0 0 0 0 0 0 0 0 0 0 0 0 0 0 0 0 0 0 0 0 0 0 0 0 0 0 0 0 0 0 0 0 0 0 0 0 0 0 0 0 0 0 0 0 0 0 0 
0 0 0 0 0 0 0 0 0 0 0 0 0 0 0 0 0 0 0 0 0 0 0 0 0 0 0 0 0 0 0 0 0 0 0 0 0 0 0 0 0 0 0 0 0 0 0 0 0 0 0 0 0 0 0 0 0 0 0 0 0 0 0 0 0 0 0 0 0 0 0 0 0 0 0 0 0 0 0 0 0 0 0 0 0 0 0 0 0 0 0 0 0 0 0 0 0 0 0 0 0 0 0 0 0 0 0 0 0 0 0 0 0 0 0 0 0 0 0 0 0 0 0 0 0 0 0 0 0 0 0 0 0 0 0 0 0 0 0 0 0 0 0 0 0 0 0 0 0 0 0 0 0 0 0 0 0 0 0 0 0 0 0 0 0 0 0 0 0 0 0 0 0 0 0 0 0 0 0 0 0 0 0 0 0 0 0 0 0 0 0 0 0 0 0 0 0 0 0 0 0 0 0 0 0 0 0 0 0 0 0 0 0 0 0 0 0 0 0 0 0 0 0 0 0 0 0 0 0 0 0 0 0 0 0 0 0 0 0 0 0 0 0 0 0 0 0 0 0 0 0 0 0 0 0 0 0 0 0 0 0 0 0 0 0 0 0 0 0 0 0 0 0 0 0 0 0 0 0 0 0 0 0 0 0 0 0 0 0 0 
0 0 0 0 0 0 0 0 0 0 0 0 0 0 0 0 0 0 0 0 0 0 0 0 0 0 0 0 0 0 0 0 0 0 0 0 0 0 0 0 0 0 0 0 0 0 0 0 0 0 0 0 0 0 0 0 0 0 0 0 0 0 0 0 0 0 0 0 0 0 0 0 0 0 0 0 0 0 0 0 0 0 0 0 0 0 0 0 0 0 0 0 0 0 0 0 0 0 0 0 0 0 0 0 0 0 0 0 0 0 0 0 0 0 0 0 0 0 0 0 0 0 0 0 0 0 0 0 0 0 0 0 0 0 0 0 0 0 0 0 0 0 0 0 0 0 0 0 0 0 0 0 0 0 0 0 0 0 0 0 0 0 0 0 0 0 0 0 0 0 0 0 0 0 0 0 0 0 0 0 0 0 0 0 0 0 0 0 0 0 0 0 0 0 0 0 0 0 0 0 0 0 0 0 0 0 0 0 0 0 0 0 0 0 0 0 0 0 0 0 0 0 0 0 0 0 0 0 0 0 0 0 0 0 0 0 0 0 0 0 0 0 0 0 0 0 0 0 0 0 0 0 0 0 0 0 0 0 0 0 0 0 0 0 0 0 0 0 0 0 0 0 0 0 0 0 0 0 0 0 0 0 0 0 0 0 0 0 0 0 
0 0 0 0 0 0 0 0 0 0 0 0 0 0 0 0 0 0 0 0 0 0 0 0 0 0 0 0 0 0 0 0 0 0 0 0 0 0 0 0 0 0 0 0 0 0 0 0 0 0 0 0 0 0 0 0 0 0 0 0 0 0 0 0 0 0 0 0 0 0 0 0 0 0 0 0 0 0 0 0 0 0 0 0 0 0 0 0 0 0 0 0 0 0 0 0 0 0 0 0 0 0 0 0 0 0 0 0 0 0 0 0 0 0 0 0 0 0 0 0 0 0 0 0 0 0 0 0 0 0 0 0 0 0 0 0 0 0 0 0 0 0 0 0 0 0 0 0 0 0 0 0 0 0 0 0 0 0 0 0 0 0 0 0 0 0 0 0 0 0 0 0 0 0 0 0 0 0 0 0 0 0 0 0 0 0 0 0 0 0 0 0 0 0 0 0 0 0 0 0 0 0 0 0 0 0 0 0 0 0 0 0 0 0 0 0 0 0 0 0 0 0 0 0 0 0 0 0 0 0 0 0 0 0 0 0 0 0 0 0 0 0 0 0 0 0 0 0 0 0 0 0 0 0 0 0 0 0 0 0 0 0 0 0 0 0 0 0 0 0 0 0 0 0 0 0 0 0 0 0 0 0 0 0 0 0 0 0 0 0 
0 0 0 0 0 0 0 0 0 0 0 0 0 0 0 0 0 0 0 0 0 0 0 0 0 0 0 0 0 0 0 0 0 0 0 0 0 0 0 0 0 0 0 0 0 0 0 0 0 0 0 0 0 0 0 0 0 0 0 0 0 0 0 0 0 0 0 0 0 0 0 0 0 0 0 0 0 0 0 0 0 0 0 0 0 0 0 0 0 0 0 0 0 0 0 0 0 0 0 0 0 0 0 0 0 0 0 0 0 0 0 0 0 0 0 0 0 0 0 0 0 0 0 0 0 0 0 0 0 0 0 0 0 0 0 0 0 0 0 0 0 0 0 0 0 0 0 0 0 0 0 0 0 0 0 0 0 0 0 0 0 0 0 0 0 0 0 0 0 0 0 0 0 0 0 0 0 0 0 0 0 0 0 0 0 0 0 0 0 0 0 0 0 0 0 0 0 0 0 0 0 0 0 0 0 0 0 0 0 0 0 0 0 0 0 0 0 0 0 0 0 0 0 0 0 0 0 0 0 0 0 0 0 0 0 0 0 0 0 0 0 0 0 0 0 0 0 0 0 0 0 0 0 0 0 0 0 0 0 0 0 0 0 0 0 0 0 0 0 0 0 0 0 0 0 0 0 0 0 0 0 0 0 0 0 0 0 0 0 0 
0 0 0 0 0 0 0 0 0 0 0 0 0 0 0 0 0 0 0 0 0 0 0 0 0 0 0 0 0 0 0 0 0 0 0 0 0 0 0 0 0 0 0 0 0 0 0 0 0 0 0 0 0 0 0 0 0 0 0 0 0 0 0 0 0 0 0 0 0 0 0 0 0 0 0 0 0 0 0 0 0 0 0 0 0 0 0 0 0 0 0 0 0 0 0 0 0 0 0 0 0 0 0 0 0 0 0 0 0 0 0 0 0 0 0 0 0 0 0 0 0 0 0 0 0 0 0 0 0 0 0 0 0 0 0 0 0 0 0 0 0 0 0 0 0 0 0 0 0 0 0 0 0 0 0 0 0 0 0 0 0 0 0 0 0 0 0 0 0 0 0 0 0 0 0 0 0 0 0 0 0 0 0 0 0 0 0 0 0 0 0 0 0 0 0 0 0 0 0 0 0 0 0 0 0 0 0 0 0 0 0 0 0 0 0 0 0 0 0 0 0 0 0 0 0 0 0 0 0 0 0 0 0 0 0 0 0 0 0 0 0 0 0 0 0 0 0 0 0 0 0 0 0 0 0 0 0 0 0 0 0 0 0 0 0 0 0 0 0 0 0 0 0 0 0 0 0 0 0 0 0 0 0 0 0 0 0 0 0 0 
0 0 0 0 0 0 0 0 0 0 0 0 0 0 0 0 0 0 0 0 0 0 0 0 0 0 0 0 0 0 0 0 0 0 0 0 0 0 0 0 0 0 0 0 0 0 0 0 0 0 0 0 0 0 0 0 0 0 0 0 0 0 0 0 0 0 0 0 0 0 0 0 0 0 0 0 0 0 0 0 0 0 0 0 0 0 0 0 0 0 0 0 0 0 0 0 0 0 0 0 0 0 0 0 0 0 0 0 0 0 0 0 0 0 0 0 0 0 0 0 0 0 0 0 0 0 0 0 0 0 0 0 0 0 0 0 0 0 0 0 0 0 0 0 0 0 0 0 0 0 0 0 0 0 0 0 0 0 0 0 0 0 0 0 0 0 0 0 0 0 0 0 0 0 0 0 0 0 0 0 0 0 0 0 0 0 0 0 0 0 0 0 0 0 0 0 0 0 0 0 0 0 0 0 0 0 0 0 0 0 0 0 0 0 0 0 0 0 0 0 0 0 0 0 0 0 0 0 0 0 0 0 0 0 0 0 0 0 0 0 0 0 0 0 0 0 0 0 0 0 0 0 0 0 0 0 0 0 0 0 0 0 0 0 0 0 0 0 0 0 0 0 0 0 0 0 0 0 0 0 0 0 0 0 0 0 0 0 0 0 
0 0 0 0 0 0 0 0 0 0 0 0 0 0 0 0 0 0 0 0 0 0 0 0 0 0 0 0 0 0 0 0 0 0 0 0 0 0 0 0 0 0 0 0 0 0 0 0 0 0 0 0 0 0 0 0 0 0 0 0 0 0 0 0 0 0 0 0 0 0 0 0 0 0 0 0 0 0 0 0 0 0 0 0 0 0 0 0 0 0 0 0 0 0 0 0 0 0 0 0 0 0 0 0 0 0 0 0 0 0 0 0 0 0 0 0 0 0 0 0 0 0 0 0 0 0 0 0 0 0 0 0 0 0 0 0 0 0 0 0 0 0 0 0 0 0 0 0 0 0 0 0 0 0 0 0 0 0 0 0 0 0 0 0 0 0 0 0 0 0 0 0 0 0 0 0 0 0 0 0 0 0 0 0 0 0 0 0 0 0 0 0 0 0 0 0 0 0 0 0 0 0 0 0 0 0 0 0 0 0 0 0 0 0 0 0 0 0 0 0 0 0 0 0 0 0 0 0 0 0 0 0 0 0 0 0 0 0 0 0 0 0 0 0 0 0 0 0 0 0 0 0 0 0 0 0 0 0 0 0 0 0 0 0 0 0 0 0 0 0 0 0 0 0 0 0 0 0 0 0 0 0 0 0 0 0 0 0 0 0 
0 0 0 0 0 0 0 0 0 0 0 0 0 0 0 0 0 0 0 0 0 0 0 0 0 0 0 0 0 0 0 0 0 0 0 0 0 0 0 0 0 0 0 0 0 0 0 0 0 0 0 0 0 0 0 0 0 0 0 0 0 0 0 0 0 0 0 0 0 0 0 0 0 0 0 0 0 0 0 0 0 0 0 0 0 0 0 0 0 0 0 0 0 0 0 0 0 0 0 0 0 0 0 0 0 0 0 0 0 0 0 0 0 0 0 0 0 0 0 0 0 0 0 0 0 0 0 0 0 0 0 0 0 0 0 0 0 0 0 0 0 0 0 0 0 0 0 0 0 0 0 0 0 0 0 0 0 0 0 0 0 0 0 0 0 0 0 0 0 0 0 0 0 0 0 0 0 0 0 0 0 0 0 0 0 0 0 0 0 0 0 0 0 0 0 0 0 0 0 0 0 0 0 0 0 0 0 0 0 0 0 0 0 0 0 0 0 0 0 0 0 0 0 0 0 0 0 0 0 0 0 0 0 0 0 0 0 0 0 0 0 0 0 0 0 0 0 0 0 0 0 0 0 0 0 0 0 0 0 0 0 0 0 0 0 0 0 0 0 0 0 0 0 0 0 0 0 0 0 0 0 0 0 0 0 0 0 0 0 0 
0 0 0 0 0 0 0 0 0 0 0 0 0 0 0 0 0 0 0 0 0 0 0 0 0 0 0 0 0 0 0 0 0 0 0 0 0 0 0 0 0 0 0 0 0 0 0 0 0 0 0 0 0 0 0 0 0 0 0 0 0 0 0 0 0 0 0 0 0 0 0 0 0 0 0 0 0 0 0 0 0 0 0 0 0 0 0 0 0 0 0 0 0 0 0 0 0 0 0 0 0 0 0 0 0 0 0 0 0 0 0 0 0 0 0 0 0 0 0 0 0 0 0 0 0 0 0 0 0 0 0 0 0 0 0 0 0 0 0 0 0 0 0 0 0 0 0 0 0 0 0 0 0 0 0 0 0 0 0 0 0 0 0 0 0 0 0 0 0 0 0 0 0 0 0 0 0 0 0 0 0 0 0 0 0 0 0 0 0 0 0 0 0 0 0 0 0 0 0 0 0 0 0 0 0 0 0 0 0 0 0 0 0 0 0 0 0 0 0 0 0 0 0 0 0 0 0 0 0 0 0 0 0 0 0 0 0 0 0 0 0 0 0 0 0 0 0 0 0 0 0 0 0 0 0 0 0 0 0 0 0 0 0 0 0 0 0 0 0 0 0 0 0 0 0 0 0 0 0 0 0 0 0 0 0 0 0 0 0 0 
0 0 0 0 0 0 0 0 0 0 0 0 0 0 0 0 0 0 0 0 0 0 0 0 0 0 0 0 0 0 0 0 0 0 0 0 0 0 0 0 0 0 0 0 0 0 0 0 0 0 0 0 0 0 0 0 0 0 0 0 0 0 0 0 0 0 0 0 0 0 0 0 0 0 0 0 0 0 0 0 0 0 0 0 0 0 0 0 0 0 0 0 0 0 0 0 0 0 0 0 0 0 0 0 0 0 0 0 0 0 0 0 0 0 0 0 0 0 0 0 0 0 0 0 0 0 0 0 0 0 0 0 0 0 0 0 0 0 0 0 0 0 0 0 0 0 0 0 0 0 0 0 0 0 0 0 0 0 0 0 0 0 0 0 0 0 0 0 0 0 0 0 0 0 0 0 0 0 0 0 0 0 0 0 0 0 0 0 0 0 0 0 0 0 0 0 0 0 0 0 0 0 0 0 0 0 0 0 0 0 0 0 0 0 0 0 0 0 0 0 0 0 0 0 0 0 0 0 0 0 0 0 0 0 0 0 0 0 0 0 0 0 0 0 0 0 0 0 0 0 0 0 0 0 0 0 0 0 0 0 0 0 0 0 0 0 0 0 0 0 0 0 0 0 0 0 0 0 0 0 0 0 0 0 0 0 0 0 0 0 
0 0 0 0 0 0 0 0 0 0 0 0 0 0 0 0 0 0 0 0 0 0 0 0 0 0 0 0 0 0 0 0 0 0 0 0 0 0 0 0 0 0 0 0 0 0 0 0 0 0 0 0 0 0 0 0 0 0 0 0 0 0 0 0 0 0 0 0 0 0 0 0 0 0 0 0 0 0 0 0 0 0 0 0 0 0 0 0 0 0 0 0 0 0 0 0 0 0 0 0 0 0 0 0 0 0 0 0 0 0 0 0 0 0 0 0 0 0 0 0 0 0 0 0 0 0 0 0 0 0 0 0 0 0 0 0 0 0 0 0 0 0 0 0 0 0 0 0 0 0 0 0 0 0 0 0 0 0 0 0 0 0 0 0 0 0 0 0 0 0 0 0 0 0 0 0 0 0 0 0 0 0 0 0 0 0 0 0 0 0 0 0 0 0 0 0 0 0 0 0 0 0 0 0 0 0 0 0 0 0 0 0 0 0 0 0 0 0 0 0 0 0 0 0 0 0 0 0 0 0 0 0 0 0 0 0 0 0 0 0 0 0 0 0 0 0 0 0 0 0 0 0 0 0 0 0 0 0 0 0 0 0 0 0 0 0 0 0 0 0 0 0 0 0 0 0 0 0 0 0 0 0 0 0 0 0 0 0 0 0 
0 0 0 0 0 0 0 0 0 0 0 0 0 0 0 0 0 0 0 0 0 0 0 0 0 0 0 0 0 0 0 0 0 0 0 0 0 0 0 0 0 0 0 0 0 0 0 0 0 0 0 0 0 0 0 0 0 0 0 0 0 0 0 0 0 0 0 0 0 0 0 0 0 0 0 0 0 0 0 0 0 0 0 0 0 0 0 0 0 0 0 0 0 0 0 0 0 0 0 0 0 0 0 0 0 0 0 0 0 0 0 0 0 0 0 0 0 0 0 0 0 0 0 0 0 0 0 0 0 0 0 0 0 0 0 0 0 0 0 0 0 0 0 0 0 0 0 0 0 0 0 0 0 0 0 0 0 0 0 0 0 0 0 0 0 0 0 0 0 0 0 0 0 0 0 0 0 0 0 0 0 0 0 0 0 0 0 0 0 0 0 0 0 0 0 0 0 0 0 0 0 0 0 0 0 0 0 0 0 0 0 0 0 0 0 0 0 0 0 0 0 0 0 0 0 0 0 0 0 0 0 0 0 0 0 0 0 0 0 0 0 0 0 0 0 0 0 0 0 0 0 0 0 0 0 0 0 0 0 0 0 0 0 0 0 0 0 0 0 0 0 0 0 0 0 0 0 0 0 0 0 0 0 0 0 0 0 0 0 0 
0 0 0 0 0 0 0 0 0 0 0 0 0 0 0 0 0 0 0 0 0 0 0 0 0 0 0 0 0 0 0 0 0 0 0 0 0 0 0 0 0 0 0 0 0 0 0 0 0 0 0 0 0 0 0 0 0 0 0 0 0 0 0 0 0 0 0 0 0 0 0 0 0 0 0 0 0 0 0 0 0 0 0 0 0 0 0 0 0 0 0 0 0 0 0 0 0 0 0 0 0 0 0 0 0 0 0 0 0 0 0 0 0 0 0 0 0 0 0 0 0 0 0 0 0 0 0 0 0 0 0 0 0 0 0 0 0 0 0 0 0 0 0 0 0 0 0 0 0 0 0 0 0 0 0 0 0 0 0 0 0 0 0 0 0 0 0 0 0 0 0 0 0 0 0 0 0 0 0 0 0 0 0 0 0 0 0 0 0 0 0 0 0 0 0 0 0 0 0 0 0 0 0 0 0 0 0 0 0 0 0 0 0 0 0 0 0 0 0 0 0 0 0 0 0 0 0 0 0 0 0 0 0 0 0 0 0 0 0 0 0 0 0 0 0 0 0 0 0 0 0 0 0 0 0 0 0 0 0 0 0 0 0 0 0 0 0 0 0 0 0 0 0 0 0 0 0 0 0 0 0 0 0 0 0 0 0 0 0 0 
0 0 0 0 0 0 0 0 0 0 0 0 0 0 0 0 0 0 0 0 0 0 0 0 0 0 0 0 0 0 0 0 0 0 0 0 0 0 0 0 0 0 0 0 0 0 0 0 0 0 0 0 0 0 0 0 0 0 0 0 0 0 0 0 0 0 0 0 0 0 0 0 0 0 0 0 0 0 0 0 0 0 0 0 0 0 0 0 0 0 0 0 0 0 0 0 0 0 0 0 0 0 0 0 0 0 0 0 0 0 0 0 0 0 0 0 0 0 0 0 0 0 0 0 0 0 0 0 0 0 0 0 0 0 0 0 0 0 0 0 0 0 0 0 0 0 0 0 0 0 0 0 0 0 0 0 0 0 0 0 0 0 0 0 0 0 0 0 0 0 0 0 0 0 0 0 0 0 0 0 0 0 0 0 0 0 0 0 0 0 0 0 0 0 0 0 0 0 0 0 0 0 0 0 0 0 0 0 0 0 0 0 0 0 0 0 0 0 0 0 0 0 0 0 0 0 0 0 0 0 0 0 0 0 0 0 0 0 0 0 0 0 0 0 0 0 0 0 0 0 0 0 0 0 0 0 0 0 0 0 0 0 0 0 0 0 0 0 0 0 0 0 0 0 0 0 0 0 0 0 0 0 0 0 0 0 0 0 0 0 
0 0 0 0 0 0 0 0 0 0 0 0 0 0 0 0 0 0 0 0 0 0 0 0 0 0 0 0 0 0 0 0 0 0 0 0 0 0 0 0 0 0 0 0 0 0 0 0 0 0 0 0 0 0 0 0 0 0 0 0 0 0 0 0 0 0 0 0 0 0 0 0 0 0 0 0 0 0 0 0 0 0 0 0 0 0 0 0 0 0 0 0 0 0 0 0 0 0 0 0 0 0 0 0 0 0 0 0 0 0 0 0 0 0 0 0 0 0 0 0 0 0 0 0 0 0 0 0 0 0 0 0 0 0 0 0 0 0 0 0 0 0 0 0 0 0 0 0 0 0 0 0 0 0 0 0 0 0 0 0 0 0 0 0 0 0 0 0 0 0 0 0 0 0 0 0 0 0 0 0 0 0 0 0 0 0 0 0 0 0 0 0 0 0 0 0 0 0 0 0 0 0 0 0 0 0 0 0 0 0 0 0 0 0 0 0 0 0 0 0 0 0 0 0 0 0 0 0 0 0 0 0 0 0 0 0 0 0 0 0 0 0 0 0 0 0 0 0 0 0 0 0 0 0 0 0 0 0 0 0 0 0 0 0 0 0 0 0 0 0 0 0 0 0 0 0 0 0 0 0 0 0 0 0 0 0 0 0 0 0 
0 0 0 0 0 0 0 0 0 0 0 0 0 0 0 0 0 0 0 0 0 0 0 0 0 0 0 0 0 0 0 0 0 0 0 0 0 0 0 0 0 0 0 0 0 0 0 0 0 0 0 0 0 0 0 0 0 0 0 0 0 0 0 0 0 0 0 0 0 0 0 0 0 0 0 0 0 0 0 0 0 0 0 0 0 0 0 0 0 0 0 0 0 0 0 0 0 0 0 0 0 0 0 0 0 0 0 0 0 0 0 0 0 0 0 0 0 0 0 0 0 0 0 0 0 0 0 0 0 0 0 0 0 0 0 0 0 0 0 0 0 0 0 0 0 0 0 0 0 0 0 0 0 0 0 0 0 0 0 0 0 0 0 0 0 0 0 0 0 0 0 0 0 0 0 0 0 0 0 0 0 0 0 0 0 0 0 0 0 0 0 0 0 0 0 0 0 0 0 0 0 0 0 0 0 0 0 0 0 0 0 0 0 0 0 0 0 0 0 0 0 0 0 0 0 0 0 0 0 0 0 0 0 0 0 0 0 0 0 0 0 0 0 0 0 0 0 0 0 0 0 0 0 0 0 0 0 0 0 0 0 0 0 0 0 0 0 0 0 0 0 0 0 0 0 0 0 0 0 0 0 0 0 0 0 0 0 0 0 0 
0 0 0 0 0 0 0 0 0 0 0 0 0 0 0 0 0 0 0 0 0 0 0 0 0 0 0 0 0 0 0 0 0 0 0 0 0 0 0 0 0 0 0 0 0 0 0 0 0 0 0 0 0 0 0 0 0 0 0 0 0 0 0 0 0 0 0 0 0 0 0 0 0 0 0 0 0 0 0 0 0 0 0 0 0 0 0 0 0 0 0 0 0 0 0 0 0 0 0 0 0 0 0 0 0 0 0 0 0 0 0 0 0 0 0 0 0 0 0 0 0 0 0 0 0 0 0 0 0 0 0 0 0 0 0 0 0 0 0 0 0 0 0 0 0 0 0 0 0 0 0 0 0 0 0 0 0 0 0 0 0 0 0 0 0 0 0 0 0 0 0 0 0 0 0 0 0 0 0 0 0 0 0 0 0 0 0 0 0 0 0 0 0 0 0 0 0 0 0 0 0 0 0 0 0 0 0 0 0 0 0 0 0 0 0 0 0 0 0 0 0 0 0 0 0 0 0 0 0 0 0 0 0 0 0 0 0 0 0 0 0 0 0 0 0 0 0 0 0 0 0 0 0 0 0 0 0 0 0 0 0 0 0 0 0 0 0 0 0 0 0 0 0 0 0 0 0 0 0 0 0 0 0 0 0 0 0 0 0 0 
0 0 0 0 0 0 0 0 0 0 0 0 0 0 0 0 0 0 0 0 0 0 0 0 0 0 0 0 0 0 0 0 0 0 0 0 0 0 0 0 0 0 0 0 0 0 0 0 0 0 0 0 0 0 0 0 0 0 0 0 0 0 0 0 0 0 0 0 0 0 0 0 0 0 0 0 0 0 0 0 0 0 0 0 0 0 0 0 0 0 0 0 0 0 0 0 0 0 0 0 0 0 0 0 0 0 0 0 0 0 0 0 0 0 0 0 0 0 0 0 0 0 0 0 0 0 0 0 0 0 0 0 0 0 0 0 0 0 0 0 0 0 0 0 0 0 0 0 0 0 0 0 0 0 0 0 0 0 -5.2057224820600822568e-05 0 0 0 0 0 0 0 0 0 0 0 0 0 0 0 0 0 0 0 0 0 0 0 0 0 0 0 0 0 0 0 0 0 0 0 0 0 0 0 0 0 0 0 0 0 0 0 0 0 0 0 0 0 0 0 0 0 0 0 0 0 0 0 0 0 0 0 0 0 0 0 0 0 0 0 0 0 0 0 0 0 0 0 0 0 0 0 0 0 0 0 0 0 0 0 0 0 0 0 0 0 0 0 0 0 0 0 0 0 0 0 0 0 0 0 0 0 0 0 0 0 0 0 0 0 0 0 0 0 0 0 
0 0 0 0 0 0 0 0 0 0 0 0 0 0 0 0 0 0 0 0 0 0 0 0 0 0 0 0 0 0 0 0 0 0 0 0 0 0 0 0 0 0 0 0 0 0 0 0 0 0 0 0 0 0 0 0 0 0 0 0 0 0 0 0 0 0 0 0 0 0 0 0 0 0 0 0 0 0 0 0 0 0 0 0 0 0 0 0 0 0 0 0 0 0 0 0 0 0 0 0 0 0 0 0 0 0 0 0 0 0 0 0 0 0 0 0 0 0 0 0 0 0 0 0 0 0 0 0 0 0 0 0 0 0 0 0 0 0 0 0 0 0 0 0 0 0 0 0 0 0 0 0 0 0 0 0 0 0 0 0 0 0 0 0 0 0 0 0 0 0 -8.5599211161024868488e-05 0 0 0 0 0 0 0 0 0 0 0 0 0 0 0 0 0 0 0 0 0 0 0 0 0 0 0 0 0 0 0 0 0 0 0 0 0 0 0 0 0 0 0 0 0 0 0 0 0 0 0 0 0 0 0 0 0 0 0 0 0 0 0 0 0 0 0 0 0 0 0 0 0 0 0 0 0 0 0 0 0 0 0 0 0 0 0 0 0 0 0 0 0 0 0 0 0 0 0 0 0 0 0 0 0 0 0 0 0 0 0 0 0 0 0 0 0 0 0 
0 0 0 0 0 0 0 0 0 0 0 0 0 0 0 0 0 0 0 0 0 0 0 0 0 0 0 0 0 0 0 0 0 0 0 0 0 0 0 0 0 0 0 0 0 0 0 0 0 0 0 0 0 0 0 0 0 0 0 0 0 0 0 0 0 0 0 0 0 0 0 0 0 0 0 0 0 0 0 0 0 0 0 0 0 0 0 0 0 0 0 0 0 0 0 0 0 0 0 0 0 0 0 0 0 0 0 0 0 0 0 0 0 0 0 0 0 0 0 0 0 0 0 0 0 0 0 0 0 0 0 0 0 0 0 0 0 0 0 0 0 0 0 0 0 0 0 0 0 0 0 0 0 -9.6233452495653182268e-06 0 0 0 0 0 0 0 0 0 0 0 0 0.52065116167068481445 -7.3089249781332910061e-05 -6.592142017325386405e-05 -0.00010506341641303151846 -8.5599211161024868488e-05 -0.00012479054566938430071 -0.0017141094431281089783 -0.0019454058492556214333 0 0 0 0 0 0 0 0 0 0 0 0 0 0 0 0 0 0 0 0 0 0 0 0 0 0 0 0 0 0 0 0 0 0 0 0 0 0 0 0 0 0 0 0 0 0 0 0 0 0 0 0 0 0 0 0 0 0 0 0 0 0 0 0 0 0 0 0 0 0 0 0 0 0 0 0 0 0 0 0 0 0 0 0 0 0 0 0 0 0 0 0 0 0 0 0 0 0 0 0 0 0 0 0 0 0 0 0 0 0 0 0 0 0 0 0 
0 0 0 0 0 0 0 0 0 0 0 0 0 0 0 0 0 0 0 0 0 0 0 0 0 0 0 0 0 0 0 0 0 0 0 0 0 0 0 0 0 0 0 0 0 0 0 0 0 0 0 0 0 0 0 0 0 0 0 0 0 0 0 0 0 0 0 0 0 0 0 0 0 0 0 0 0 0 0 0 0 0 0 0 0 0 0 0 0 0 0 0 0 0 0 0 0 0 0 0 0 0 0 0 0 0 0 0 0 0 0 0 0 0 0 0 0 0 0 0 0 0 0 0 0 0 0 0 0 0 0 0 0 0 0 0 0 0 0 0 0 0 0 0 0 0 0 0 0 0.16687032580375671387 0 0.16687032580375671387 0.16687032580375671387 -9.6233452495653182268e-06 0 0 0 0 0 0 0 0 0 0 0 0 0.52065116167068481445 -0.00017810831195674836636 -0.00021586322691291570663 -0.00017500782269053161144 -0.0001078230561688542366 -0.00012479054566938430071 -0.0017141094431281089783 -0.0003197611076757311821 -0.0011130232596769928932 0 0 0 0 0 0 0 0 0 0 0 0 0 0 0 0 0 0 0 0 0 0 0 0 0 0 0 0 0 0 0 0 0 0 0 0 0 0 0 0 0 0 0 0 0 0 0 0 0 0 0 0 0 0 0 0 0 0 0 0 0 0 0 0 0 0 0 0 0 0 0 0 0 0 0 0 0 0 0 0 0 0 0 0 0 0 0 0 0 0 0 0 0 0 0 0 0 0 0 0 0 0 0 0 0 0 0 0 0 0 0 0 0 0 0 
0 0 0 0 0 0 0 0 0 0 0 0 0 0 0 0 0 0 0 0 0 0 0 0 0 0 0 0 0 0 0 0 0 0 0 0 0 0 0 0 0 0 0 0 0 0 0 0 0 0 0 0 0 0 0 0 0 0 0 0 0 0 0 0 0 0 0 0 0 0 0 0 0 0 0 0 0 0 0 0 0 0 0 0 0 0 0 0 0 0 0 0 0 0 0 0 0 0 0 0 0 0 0 0 0 0 0 0 0 0 0 0 0 0 0 0 0 0 0 0 0 0 0 0 0 0 0 0 0 0 0 0 0 0 0 0 0 0 0 0 0 0 0 0 0 0 0 0.16687032580375671387 0 0.16687032580375671387 -3.4121789212804287672e-05 0 0 0 0 0 0 0 0 0 0 0 0 0 0 -0.00011514133075252175331 -7.8485863923560827971e-05 -0.00017810831195674836636 -0.00019501494534779340029 -0.00026657935814000666142 -0.00037060846807435154915 -0.00021687849948648363352 -0.00024957550340332090855 -0.0003197611076757311821 0.0050137969665229320526 0 0 0 0 0 0 0 0 0 0 0 0 0 0 0 0 0 0 0 0 0 0 0 0 0 0 0 0 0 0 0 0 0 0 0 0 0 0 0 0 0 0 0 0 0 0 0 0 0 0 0 0 0 0 0 0 0 0 0 0 0 0 0 0 0 0 0 0 0 0 0 0 0 0 0 0 0 0 0 0 0 0 0 0 0 0 0 0 0 0 0 0 0 0 0 0 0 0 0 0 0 0 0 0 0 0 0 0 0 0 0 0 0 0 0 
0 0 0 0 0 0 0 0 0 0 0 0 0 0 0 0 0 0 0 0 0 0 0 0 0 0 0 0 0 0 0 0 0 0 0 0 0 0 0 0 0 0 0 0 0 0 0 0 0 0 0 0 0 0 0 0 0 0 0 0 0 0 0 0 0 0 0 0 0 0 0 0 0 0 0 0 0 0 0 0 0 0 0 0 0 0 0 0 0 0 0 0 0 0 0 0 0 0 0 0 0 0 0 0 0 0 0 0 0 0 0 0 0 0 0 0 0 0 0 0 0 0 0 0 0 0 0 0 0 0 0 0 0 0 0 0 0 0 0 0 0 0 0 0 0 0 -0.00010638585808919742703 -0.00011498345702420920134 -2.0634010070352815092e-05 -1.7713418856146745384e-05 -1.464909200876718387e-05 0 0 0 0 0 0 0 0 0 0 0 0 -0.00014820854994468390942 -0.00018530755187384784222 -0.00014605087926611304283 -0.00013156553904991596937 -0.00020506184955593198538 -0.00019501494534779340029 -0.00037317603710107505322 -0.00069596699904650449753 0.0033150126691907644272 0.0043513807468116283417 0.0097812023013830184937 0.0050137969665229320526 0.0048190411180257797241 0 0 0 0 0 0 0 0 0 0 0 0 0 0 0 0 0 0 0 0 0 0 0 0 0 0 0 0 0 0 0 0 0 0 0 0 0 0 0 0 0 0 0 0 0 0 0 0 0 0 0 0 0 0 0 0 0 0 0 0 0 0 0 0 0 0 0 0 0 0 0 0 0 0 0 0 0 0 0 0 0 0 0 0 0 0 0 0 0 0 0 0 0 0 0 0 0 0 0 0 0 0 0 0 0 0 0 0 0 0 0 0 0 0 
0 0 0 0 0 0 0 0 0 0 0 0 0 0 0 0 0 0 0 0 0 0 0 0 0 0 0 0 0 0 0 0 0 0 0 0 0 0 0 0 0 0 0 0 0 0 0 0 0 0 0 0 0 0 0 0 0 0 0 0 0 0 0 0 0 0 0 0 0 0 0 0 0 0 0 0 0 0 0 0 0 0 0 0 0 0 0 0 0 0 0 0 0 0 0 0 0 0 0 0 0 0 0 0 0 0 0 0 0 0 0 0 0 0 0 0 0 0 0 0 0 0 0 0 0 0 0 0 0 0 0 0 0 0 0 0 0 0 0 0 0 0 0 0 0 0 0 0 0 0 0 0 0 0 0 0 0 0 0 0 0 0 -0.00029706949135288596153 -0.00014820854994468390942 -0.00019750370120164006948 -0.00025911812554113566875 -0.00024231433053500950336 -0.00025224327691830694675 -0.00028661586111411452293 -0.00037317603710107505322 0.0088579729199409484863 0.0092519884929060935974 0.0035248305648565292358 0.011039579287171363831 0.01198260672390460968 0.0048190411180257797241 0 0 0 0 0 0 0 0 0 0 0 0 0 0 0 0 0 0 0 0 0 0 0 0 0 0 0 0 0 0 0 0 0 0 0 0 0 0 0 0 0 0 0 0 0 0 0 0 0 0 0 0 0 0 0 0 0 0 0 0 0 0 0 0 0 0 0 0 0 0 0 0 0 0 0 0 0 0 0 0 0 0 0 0 0 0 0 0 0 0 0 0 0 0 0 0 0 0 0 0 0 0 0 0 0 0 0 0 0 0 0 0 0 0 
0 0 0 0 0 0 0 0 0 0 0 0 0 0 0 0 0 0 0 0 0 0 0 0 0 0 0 0 0 0 0 0 0 0 0 0 0 0 0 0 0 0 0 0 0 0 0 0 0 0 0 0 0 0 0 0 0 0 0 0 0 0 0 0 0 0 0 0 0 0 0 0 0 0 0 0 0 0 0 0 0 0 0 0 0 0 0 0 0 0 0 0 0 0 0 0 0 0 0 0 0 0 0 0 0 0 0 0 0 0 0 0 0 0 0 0 0 0 0 0 0 0 0 0 0 0 0 0 0 0 0 0 0 0 0 0 0 0 0 0 0 0 0 0 0 0 0 0 0 0 0 0 0 0 0 0 0 0 0 -0.00055930967209860682487 -0.00075271294917911291122 0.02315416187047958374 0.023615974932909011841 -0.001914661959744989872 -0.00019750370120164006948 -0.0002682629565242677927 -0.0002889582247007638216 -0.00023564172443002462387 -0.0013132068561390042305 -0.00022825454652775079012 0.0088579729199409484863 0.01310710608959197998 0.0086686518043279647827 0.0053767305798828601837 0.013808427378535270691 0.0059819063171744346619 0 0 0 0 0 0 0 0 0 0 0 0 0 0 0 0 0 0 0 0 0 0 0 0 0 0 0 0 0 0 0 0 0 0 0 0 0 0 0 0 0 0 0 0 0 0 0 0 0 0 0 0 0 0 0 0 0 0 0 0 0 0 0 0 0 0 0 0 0 0 0 0 0 0 0 0 0 0 0 0 0 0 0 0 0 0 0 0 0 0 0 0 0 0 0 0 0 0 0 0 0 0 0 0 0 0 0 0 0 0 0 0 0 0 
0 0 0 0 0 0 0 0 0 0 0 0 0 0 0 0 0 0 0 0 0 0 0 0 0 0 0 0 0 0 0 0 0 0 0 0 0 0 0 0 0 0 0 0 0 0 0 0 0 0 0 0 0 0 0 0 0 0 0 0 0 0 0 0 0 0 0 0 0 0 0 0 0 0 0 0 0 0 0 0 0 0 0 0 0 0 0 0 0 0 0 0 0 0 0 0 0 0 0 0 0 0 0 0 0 0 0 0 0 0 0 0 0 0 0 0 0 0 0 0 0 0 0 0 0 0 0 0 0 0 0 0 0 0 0 0 -0.00012938409054186195135 -8.9761058916337788105e-05 -9.6847936220001429319e-05 -7.1465699875261634588e-05 0 0 0 0 0 0 0 0 0 0 0 0 0 0 0 -0.00030495115788653492928 -0.00059485255042091012001 -0.0007691799546591937542 -0.00046172941802069544792 -0.00072862103115767240524 -0.00075271294917911291122 -0.0004271704528946429491 -0.00028407256468199193478 -0.0010732507798820734024 -0.00019677031377796083689 -0.0002682629565242677927 -0.0002889582247007638216 -0.00020101132395211607218 -0.00039584893966093659401 -0.00017515651416033506393 0.0066580716520547866821 0.01310710608959197998 0.0086686518043279647827 0.010575637221336364746 0.010145353153347969055 0.0073086614720523357391 0.0096442149952054023743 0.036857850849628448486 0 0 0 0 0 0 0 0 0 0 0 0 0 0 0 0 0 0 0 0 0 0 0 0 0 0 0 0 0 0 0 0 0 0 0 0 0 0 0 0 0 0 0 0 0 0 0 0 0 0 0 0 0 0 0 0 0 0 0 0 0 0 0 0 0 0 0 0 0 0 0 0 0 0 0 0 0 0 0 0 0 0 0 0 0 0 0 0 0 0 0 0 0 0 0 0 0 0 0 0 0 0 0 0 0 0 0 0 0 0 0 0 
0 0 0 0 0 0 0 0 0 0 0 0 0 0 0 0 0 0 0 0 0 0 0 0 0 0 0 0 0 0 0 0 0 0 0 0 0 0 0 0 0 0 0 0 0 0 0 0 0 0 0 0 0 0 0 0 0 0 0 0 0 0 0 0 0 0 0 0 0 0 0 0 0 0 0 0 0 0 0 0 0 0 0 0 0 0 0 0 0 0 0 0 0 0 0 0 0 0 0 0 0 0 0 0 0 0 0 0 0 0 0 0 0 0 0 0 0 0 0 0 0 0 0 0 0 0 0 0 0 0 0 -0.0002936162345577031374 0 -0.00030966271879151463509 -0.00029890355654060840607 -9.9965734989382326603e-05 -0.00012938409054186195135 0 0 0 0 0 0 0 0 0 0 0 0 0 -0.00049557135207578539848 -0.00017820985522121191025 -0.00011557609104784205556 0 -0.00025745702441781759262 -0.00019389018416404724121 -0.0019897497259080410004 -0.0012602289207279682159 -0.00037026227801106870174 -0.00042602192843332886696 0.0057247653603553771973 -0.0004271704528946429491 0.0079478239640593528748 0.0045693567954003810883 -0.00018249361892230808735 -0.00017232919344678521156 -0.00020599627168849110603 -0.00020101132395211607218 0.0066955154761672019958 0.017839504405856132507 0.0096473060548305511475 0.014741898514330387115 0.0097825666889548301697 0.010575637221336364746 0.012736839242279529572 0.03867834433913230896 0.049767088145017623901 0.072573572397232055664 0 0 0.033928658813238143921 0 0 0 0 0 0 0 0 0 0 0 0 0 0 0 0 0 0 0 0 0 0 0 0 0 0 0 0 0 0 0 0 0 0 0 0 0 0 0 0 0 0 0 0 0 0 0 0 0 0 0 0 0 0 0 0 0 0 0 0 0 0 0 0 0 0 0 0 0 0 0 0 0 0 0 0 0 0 0 0 0 0 0 0 0 0 0 0 0 0 0 0 0 0 0 0 0 0 0 0 0 0 0 0 0 0 0 0 0 
0 0 0 0 0 0 0 0 0 0 0 0 0 0 0 0 0 0 0 0 0 0 0 0 0 0 0 0 0 0 0 0 0 0 0 0 0 0 0 0 0 0 0 0 0 0 0 0 0 0 0 0 0 0 0 0 0 0 0 0 0 0 0 0 0 0 0 0 0 0 0 0 0 0 0 0 0 0 0 0 0 0 0 0 0 0 0 0 0 0 0 0 0 0 0 0 0 0 0 0 0 0 0 0 0 0 0 0 0 0 0 0 0 0 0 0 0 0 0 0 0 0 0 0 0 0 0 -0.00029943956178613007069 -0.0002478610258549451828 0 0 -0.0002936162345577031374 -0.0029772808775305747986 -0.00077134434832260012627 -0.0003515572170726954937 -0.00020026019774377346039 0 0 0 0 0 0 0 0 0 -0.00050173053750768303871 -0.00015635769523214548826 -0.00032996389199979603291 0.53111547231674194336 -0.00029351215925998985767 -0.00027362955734133720398 -0.0002766363613773137331 -0.0001515008043497800827 -0.00021735337213613092899 -0.00030459777917712926865 -0.00035165000008419156075 -0.00050617166562005877495 -0.00033085825270973145962 -0.00033555788104422390461 -0.00044823912321589887142 -0.00044533310574479401112 0.0084166768938302993774 0.0079478239640593528748 0.0056154727935791015625 -0.00079640088370069861412 0.011001714505255222321 0.018666576594114303589 0.080009154975414276123 0.0066955154761672019958 0.0078235426917672157288 0.0064491392113268375397 0.041349381208419799805 0.0084586311131715774536 0.018760424107313156128 0.012736839242279529572 0.31061673164367675781 0.16775031387805938721 0.024738483130931854248 0.026841143146157264709 0.042595382779836654663 0.033928658813238143921 0.0065410523675382137299 0.0093478644266724586487 0 0 0 0 0 0 0 0 0 0 0 0 0 0 0 0 0 0 0 0 0 0 0 0 0 0 0 0 0 0 0 0 0 0 0 0 0 0 0 0 0 0 0 0 0 0 0 0 0 0 0 0 0 0 0 0 0 0 0 0 0 0 0 0 0 0 0 0 0 0 0 0 0 0 0 0 0 0 0 0 0 0 0 0 0 0 0 0 0 0 0 0 0 0 0 0 0 0 0 0 0 0 0 0 0 0 0 
0 0 0 0 0 0 0 0 0 0 0 0 0 0 0 0 0 0 0 0 0 0 0 0 0 0 0 0 0 0 0 0 0 0 0 0 0 0 0 0 0 0 0 0 0 0 0 0 0 0 0 0 0 0 0 0 0 0 0 0 0 0 0 0 0 0 0 0 0 0 0 0 0 0 0 0 0 0 0 0 0 0 0 0 0 0 0 0 0 0 0 0 0 0 0 0 0 0 0 0 0 0 0 0 0 0 0 0 0 0 0 0 0 0 0 0 0 0 0 0 0 0 0 0 0 0 0 -0.0014491792535409331322 -0.00045357760973274707794 -0.0026283231563866138458 -0.00038036712794564664364 0 -0.0029772808775305747986 0 0 0 0 0 0 0 0 0 0 0 -0.00029142500716261565685 -0.00050173053750768303871 -0.00022511469433084130287 -0.00048544886521995067596 -0.00064079905860126018524 -0.00020751691772602498531 -0.00062449288088828325272 -0.0002766363613773137331 -0.00021010905038565397263 -0.00018550363893155008554 -0.00038268099888227880001 -0.00021693056623917073011 -0.00040306121809408068657 -0.00061809492763131856918 -0.00045504042645916342735 -0.00031628497526980936527 -0.0008145376923494040966 0.0078892391175031661987 0.012421201914548873901 0.012586503289639949799 0.034058623015880584717 0.07955189049243927002 0.045726716518402099609 0.036320462822914123535 0.013898338191211223602 0.0078235426917672157288 0.006898717489093542099 0.014894639141857624054 0.04070698469877243042 0.024821396917104721069 0.040798068046569824219 0.31061673164367675781 0.080350458621978759766 0.0049148788675665855408 0.01143198646605014801 0.022269017994403839111 0.033184271305799484253 0.0065410523675382137299 0.0069725248031318187714 0.0033924474846571683884 0.0029154119547456502914 0 0 0 0 0 0 0 0 0 0 0 0 0 0 0 0 0 0 0 0 0 0 0 0 0 0 0 0 0 0 0 0 0 0 0 0 0 0 0 0 0 0 0 0 0 0 0 0 0 0 0 0 0 0 0 0 0 0 0 0 0 0 0 0 0 0 0 0 0 0 0 0 0 0 0 0 0 0 0 0 0 0 0 0 0 0 0 0 0 0 0 0 0 0 0 0 0 0 0 0 0 0 0 0 0 
0 0 0 0 0 0 0 0 0 0 0 0 0 0 0 0 0 0 0 0 0 0 0 0 0 0 0 0 0 0 0 0 0 0 0 0 0 0 0 0 0 0 0 0 0 0 0 0 0 0 0 0 0 0 0 0 0 0 0 0 0 0 0 0 0 0 0 0 0 0 0 0 0 0 0 0 0 0 0 0 0 0 0 0 0 0 0 0 0 0 0 0 0 0 0 0 0 0 0 0 0 0 0 0 0 0 0 0 0 0 0 0 0 0 0 0 0 0 0 0 0 0 -4.0262188122142106295e-05 0 0 0 0 -0.0011601853184401988983 -0.0003205524408258497715 -0.00026011088630184531212 -0.00017012277385219931602 0 0 0 0 0 0 0 0 0 0 -0.00056807248620316386223 -0.00030807693838141858578 -0.00044400244951248168945 -0.00034365153987891972065 -0.00024173854035325348377 -0.00022511469433084130287 -0.002295520855113863945 -0.001707073533907532692 -0.00016017464804463088512 -0.00026837183395400643349 -0.00038061896339058876038 -0.00021010905038565397263 0.0051319100894033908844 -0.00077554699964821338654 -0.00074998149648308753967 -0.00053062121151015162468 -0.00031835099798627197742 -0.00028646874125115573406 -0.00029930064920336008072 0.0067725605331361293793 0.017085174098610877991 0.088824123144149780273 0.074671849608421325684 0.0090797282755374908447 0.07955189049243927002 0.0093551808968186378479 0.0081704622134566307068 0.0082052825018763542175 0.011505125090479850769 0.006898717489093542099 0.014894639141857624054 0.010583708062767982483 0.011182039976119995117 0.0085547231137752532959 0.056392520666122436523 0.080350458621978759766 0.0049148788675665855408 0.0058918879367411136627 0.0046124998480081558228 0.005192461889237165451 0.0046020043082535266876 0.0069725248031318187714 0.0032729390077292919159 0.0038453538436442613602 0 0 0 0 0 0 0 0 0 0 0 0 0 0 0 0 0 0 0 0 0 0 0 0 0 0 0 0 0 0 0 0 0 0 0 0 0 0 0 0 0 0 0 0 0 0 0 0 0 0 0 0 0 0 0 0 0 0 0 0 0 0 0 0 0 0 0 0 0 0 0 0 0 0 0 0 0 0 0 0 0 0 0 0 0 0 0 0 0 0 0 0 0 0 0 0 0 0 0 0 0 0 0 0 0 
0 0 0 0 0 0 0 0 0 0 0 0 0 0 0 0 0 0 0 0 0 0 0 0 0 0 0 0 0 0 0 0 0 0 0 0 0 0 0 0 0 0 0 0 0 0 0 0 0 0 0 0 0 0 0 0 0 0 0 0 0 0 0 0 0 0 0 0 0 0 0 0 0 0 0 0 0 0 0 0 0 0 0 0 0 0 0 0 0 0 0 0 0 0 0 0 0 0 0 0 0 0 0 0 0 0 0 0 0 0 0 0 0 0 0 0 0 0 0 0 0 0 -4.0262188122142106295e-05 -0.00021977533469907939434 0 0 0 0 -0.0003205524408258497715 -0.00025648550945334136486 0 0 0 0 0 0 0 0 -0.00032467971323058009148 -0.00030316822812892496586 -0.0014690201496705412865 -0.00056807248620316386223 -0.00027392862830311059952 -0.00041618020622991025448 -0.0012324808631092309952 -0.00042659768951125442982 -0.00027586871874518692493 -0.002295520855113863945 -0.001707073533907532692 -7.4212955951225012541e-05 0.0029389457777142524719 -0.00018526820349507033825 0.0033218290191143751144 0.0051319100894033908844 -0.0031740935519337654114 -0.00080543442163616418839 -0.0005730643169954419136 -0.00047478004125878214836 -0.00042230958933942019939 -0.00029930064920336008072 -0.00036098659620620310307 0.011947747319936752319 0.014813531190156936646 0.01151228044182062149 0.0058945929631590843201 0.022283591330051422119 0.0093551808968186378479 0.020666740834712982178 0.023474387824535369873 0.0079829031601548194885 0.023273365572094917297 0.011821778491139411926 0.010583708062767982483 0.0048806839622557163239 0.0003715089114848524332 0.00043999883928336203098 0.004059954080730676651 0.0028221611864864826202 0.0058918879367411136627 0.0086671272292733192444 -0.00087619747500866651535 -0.00092478957958519458771 0.0057077547535300254822 0.0032729390077292919159 0.0038453538436442613602 -0.0004236590175423771143 -0.00060592987574636936188 -0.0010704570449888706207 1.2912192344665527344 0 -0.00080954591976478695869 0 0 0 0 0 0 0 0 0 0 0 0 0 0 0 0 0 0 0 0 0 0 0 0 0 0 0 0 0 0 0 0 0 0 0 0 0 0 0 0 0 0 0 0 0 0 0 0 0 0 0 0 0 0 0 0 0 0 0 0 0 0 0 0 0 0 0 0 0 0 0 0 0 0 0 0 0 0 0 0 0 0 0 0 0 0 0 0 0 0 0 0 0 0 0 0 0 0 0 
0 0 0 0 0 0 0 0 0 0 0 0 0 0 0 0 0 0 0 0 0 0 0 0 0 0 0 0 0 0 0 0 0 0 0 0 0 0 0 0 0 0 0 0 0 0 0 0 0 0 0 0 0 0 0 0 0 0 0 0 0 0 0 0 0 0 0 0 0 0 0 0 0 0 0 0 0 0 0 0 0 0 0 0 0 0 0 0 0 0 0 0 0 0 0 0 0 0 0 0 0 0 0 0 0 0 0 0 0 0 0 0 0 0 0 0 0 0 0 -9.9818636954296380281e-05 -0.00010439731704536825418 -0.00010880201443796977401 -0.00022658221132587641478 -0.00021977533469907939434 0 0 0 0 0 0 0 0 0 0 0 0 0 -0.00050283805467188358307 -0.00035060587106272578239 -0.00054751214338466525078 -0.0004677480610553175211 -0.00060693424893543124199 -0.00027392862830311059952 -0.00041618020622991025448 -0.00028590453439392149448 -0.00024856813251972198486 -0.0003238330536987632513 -0.0002550629724282771349 -0.00013638533710036426783 -7.4212955951225012541e-05 0.0031156248878687620163 0.0031559665221720933914 0.0041300584562122821808 0.0055388570763170719147 0.028762942180037498474 -0.00080543442163616418839 0.0047254231758415699005 0.0068676881492137908936 0.0080642867833375930786 0.037757769227027893066 0.04683078080415725708 0.0086417160928249359131 0.0077677024528384208679 0.016085416078567504883 0.006038883700966835022 0.027165006846189498901 0.063743896782398223877 0.020666740834712982178 0.036219105124473571777 0.053274035453796386719 0.031261626631021499634 0.023026468232274055481 0.0075032808817923069 0.0048806839622557163239 0.002293033059686422348 0.002125197090208530426 0.0069022937677800655365 0.014950597658753395081 0.0035686269402503967285 0.0086671272292733192444 -0.0028083536308258771896 -0.0059788487851619720459 -0.00088267115643247961998 -0.0006934362463653087616 -0.00062900496413931250572 -0.0004236590175423771143 -0.00057101028505712747574 -0.00057530961930751800537 -0.0010440918849781155586 -0.00081935920752584934235 -0.00080954591976478695869 0 0 0 0 0 0 0 0 0 0 0 0 0 0 0 0 0 0 0 0 0 0 0 0 0 0 0 0 0 0 0 0 0 0 0 0 0 0 0 0 0 0 0 0 0 0 0 0 0 0 0 0 0 0 0 0 0 0 0 0 0 0 0 0 0 0 0 0 0 0 0 0 0 0 0 0 0 0 0 0 0 0 0 0 0 0 0 0 0 0 0 0 0 0 0 0 0 0 0 
0 0 0 0 0 0 0 0 0 0 0 0 0 0 0 0 0 0 0 0 0 0 0 0 0 0 0 0 0 0 0 0 0 0 0 0 0 0 0 0 0 0 0 0 0 0 0 0 0 0 0 0 0 0 0 0 0 0 0 0 0 0 0 0 0 0 0 0 0 0 0 0 0 0 0 0 0 0 0 0 0 0 0 0 0 0 0 0 0 0 0 0 0 0 0 0 0 0 0 0 0 0 0 0 0 0 0 0 0 0 0 0 0 0 0 0 0 0 0 0 0 0.50726467370986938477 0 0 0 0 0 0 0 0 0 0 0 0 0 0 1.0616811513900756836 -0.00050283805467188358307 -0.00035060587106272578239 -0.00030035519739612936974 -0.00068165705306455492973 -0.00027094248798675835133 -0.00040759285911917686462 -0.00040997727774083614349 -0.00028590453439392149448 -0.00027138434234075248241 -0.00091820285888388752937 -0.0014001056551933288574 -0.00020742093329317867756 -0.00016138024511747062206 0.0031156248878687620163 0.0072197904810309410095 0.0085112042725086212158 0.003986660391092300415 0.003828082699328660965 0.0020772477146238088608 0.0047254231758415699005 0.0039386469870805740356 0.020492011681199073792 0.014583048410713672638 0.027863899245858192444 0.012735218740999698639 0.046244591474533081055 0.013875597156584262848 0.0076889344491064548492 0.014475065283477306366 0.045411095023155212402 0.014633684419095516205 0.015164245851337909698 0.019543606787919998169 0.0043959687463939189911 0.0030339113436639308929 0.0028048537205904722214 0.0043736533261835575104 0.002293033059686422348 0.0033366312272846698761 0.015698740258812904358 0.021461743861436843872 0.011504577472805976868 -0.00078215199755504727364 -0.0028083536308258771896 -0.00076812325278297066689 -0.00046451808884739875793 -0.00051213486585766077042 -0.0017272626282647252083 -0.00065036991145461797714 -0.00057101028505712747574 -0.00043625308899208903313 -0.00043404879397712647915 -0.00091429316671565175056 -0.00077678624074906110764 0 0 0 0 0 0 0 0 0 0 0 0 0 0 0 0 0 0 0 0 0 0 0 0 0 0 0 0 0 0 0 0 0 0 0 0 0 0 0 0 0 0 0 0 0 0 0 0 0 0 0 0 0 0 0 0 0 0 0 0 0 0 0 0 0 0 0 0 0 0 0 0 0 0 0 0 0 0 0 0 0 0 0 0 0 0 0 0 0 0 0 0 0 0 0 0 0 0 0 
0 0 0 0 0 0 0 0 0 0 0 0 0 0 0 0 0 0 0 0 0 0 0 0 0 0 0 0 0 0 0 0 0 0 0 0 0 0 0 0 0 0 0 0 0 0 0 0 0 0 0 0 0 0 0 0 0 0 0 0 0 0 0 0 0 0 0 0 0 0 0 0 0 0 0 0 0 0 0 0 0 0 0 0 0 0 0 0 0 0 0 0 0 0 0 0 0 0 0 0 0 0 0 0 0 0 0 0 0 0 0 0 0 0 -0.000462395430076867342 -0.00051226577488705515862 -0.00071053940337151288986 -0.00095890241209417581558 0.50726467370986938477 0 0 0 0 0 0 0 0 0 0 0 0 0 0 -0.00051369663560763001442 -0.00025249074678868055344 -0.0010381782194599509239 -0.0021525623742491006851 -0.00067702709930017590523 -0.0003203346568625420332 -0.00030035519739612936974 -0.00037847246858291327953 -0.00033012265339493751526 -0.0010823262855410575867 -0.0012679748469963669777 -0.00027509735082276165485 -0.00027138434234075248241 0.0067603345960378646851 0.0063477177172899246216 -0.00031975243473425507545 0.011952885426580905914 0.0078698815777897834778 0.0072197904810309410095 0.0065920525230467319489 0.02403494715690612793 0.0032242380548268556595 0.0035332869738340377808 0.0054168580099940299988 0.0039386469870805740356 0.0091094076633453369141 0.0092098424211144447327 0.0067053185775876045227 0.0052247019484639167786 0.01029069162905216217 0.0072113228961825370789 0.0041081076487898826599 0.01263652462512254715 0.01830038800835609436 0.019088618457317352295 0.020264916121959686279 0.027749402448534965515 0.0030914838425815105438 0.003394528757780790329 0.0082336170598864555359 0.0025635673664510250092 0.0021699022036045789719 0.0033366312272846698761 0.015698740258812904358 0.011122005060315132141 0.0059000449255108833313 0.010318318381905555725 -0.0012581957271322607994 -0.00076812325278297066689 -0.002353207441046833992 -0.00513878650963306427 -0.0040322327986359596252 -0.0033864104188978672028 -0.0024615945294499397278 -0.00043625308899208903313 -0.00052820739801973104477 -0.0012242180528119206429 -0.003598902607336640358 -0.0082301208749413490295 0 0 0 0 0 0 0 0 0 0 0 0 0 0 0 0 0 0 0 0 0 0 0 0 0 0 0 0 0 0 0 0 0 0 0 0 0 0 0 0 0 0 0 0 0 0 0 0 0 0 0 0 0 0 0 0 0 0 0 0 0 0 0 0 0 0 0 0 0 0 0 0 0 0 0 0 0 0 0 0 0 0 0 0 0 0 0 0 0 0 0 0 0 0 0 0 0 0 
0 0 0 0 0 0 0 0 0 0 0 0 0 0 0 0 0 0 0 0 0 0 0 0 0 0 0 0 0 0 0 0 0 0 0 0 0 0 0 0 0 0 0 0 0 0 0 0 0 0 0 0 0 0 0 0 0 0 0 0 0 0 0 0 0 0 0 0 0 0 0 0 0 0 0 0 0 0 0 0 0 0 0 0 0 0 0 0 0 0 0 0 0 0 0 0 0 0 0 0 0 0 0 0 0 0 0 0 0 0 0 0 0 0 -0.000462395430076867342 -0.00064187485259026288986 -0.00030643111676909029484 0 0 0 0 0 0 0 0 0 0 0 0 0 0 0 0 0 -0.00051369663560763001442 -0.0036395809147506952286 -0.0053243823349475860596 -0.00074802117887884378433 -0.00040789056220091879368 -0.00037876746500842273235 -0.00037847246858291327953 0.0073971496894955635071 0.012268009595572948456 -0.0023474111221730709076 -0.00091410311870276927948 0.0068398010917007923126 0.0067603345960378646851 0.005768081173300743103 0.0065058278851211071014 0.011305456981062889099 0.0077990195713937282562 0.0066122319549322128296 0.0065920525230467319489 0.0059209754690527915955 0.0073358933441340923309 0.013854425400495529175 0.018932349979877471924 0.0057433377951383590698 0.0091094076633453369141 0.010214334353804588318 0.0073945228941738605499 0.013742123730480670929 0.0051383920945227146149 0.0033346789423376321793 0.0041081076487898826599 0.0025899182073771953583 0.027890071272850036621 0.0087831756100058555603 0.0026638789568096399307 0.051133017987012863159 0.01126657240092754364 0.003394528757780790329 0.0031605372205376625061 0.0031784118618816137314 0.0067272530868649482727 0.007639677729457616806 0.0034079358447343111038 0.011122005060315132141 0.016181869432330131531 0.0077864509075880050659 -0.00061900180298835039139 -0.00062340777367353439331 -0.002353207441046833992 -0.00513878650963306427 -0.00090350641403347253799 -0.0017326717497780919075 -0.0047118733637034893036 -0.0045554703101515769958 -0.00052820739801973104477 -0.0005542522994801402092 -0.0010253306245431303978 0 0 0 0 0 0 0 0 0 0 0 0 0 0 0 0 0 0 0 0 0 0 0 0 0 0 0 0 0 0 0 0 0 0 0 0 0 0 0 0 0 0 0 0 0 0 0 0 0 0 0 0 0 0 0 0 0 0 0 0 0 0 0 0 0 0 0 0 0 0 0 0 0 0 0 0 0 0 0 0 0 0 0 0 0 0 0 0 0 0 0 0 0 0 0 0 0 0 0 
0 0 0 0 0 0 0 0 0 0 0 0 0 0 0 0 0 0 0 0 0 0 0 0 0 0 0 0 0 0 0 0 0 0 0 0 0 0 0 0 0 0 0 0 0 0 0 0 0 0 0 0 0 0 0 0 0 0 0 0 0 0 0 0 0 0 0 0 0 0 0 0 0 0 0 0 0 0 0 0 0 0 0 0 0 0 0 0 0 0 0 0 0 0 0 0 0 0 0 0 0 0 0 0 0 0 0 0 0 0 0 -0.00014330496196635067463 -0.00011329168046358972788 -0.00018945911142509430647 -0.00018007800099439918995 -0.00064187485259026288986 -0.00030643111676909029484 0 0 0 0 0 0 0 0 0 0 0 0 0 0 -0.0012096454156562685966 -0.0008305112132802605629 -0.00052322604460641741753 -0.00026351571432314813137 -0.00036059360718354582787 -0.00052944733761250972748 -0.0003971500846091657877 -0.00055254588369280099869 -0.00087888032430782914162 -0.00064853508956730365753 0.0073971496894955635071 0.0084864133968949317932 0.013676500879228115082 0.015019219368696212769 0.026777544990181922913 0.008651713840663433075 0.005768081173300743103 0.0065058278851211071014 0.051573157310485839844 0.035770263522863388062 0.013662755489349365234 0.014667384326457977295 0.0059209754690527915955 0.0073358933441340923309 0.010262695141136646271 0.0070338235236704349518 0.0050752400420606136322 0.029416384175419807434 0.047510180622339248657 0.0073945228941738605499 0.0076241898350417613983 0.0034300598781555891037 0.013057189993560314178 0.014201432466506958008 0.0081093609333038330078 0.032804165035486221313 0.008885449729859828949 0.0070269503630697727203 0.0082376105710864067078 0.016611853614449501038 0.011974154040217399597 0.0042095188982784748077 0.009312997572124004364 0.022803401574492454529 0.002794330008327960968 0.0062498380430042743683 0.017476530745625495911 0.016181869432330131531 0.023604279384016990662 -0.0022120424546301364899 -0.0055047604255378246307 -0.0091718425974249839783 -0.00070958142168819904327 -0.00090350641403347253799 -0.0012949131196364760399 -0.0029079853557050228119 -0.0017940322868525981903 -0.00053198862588033080101 -0.0005542522994801402092 0 0 0 0 0 0 0 0 0 0 0 0 0 0 0 0 0 0 0 0 0 0 0 0 0 0 0 0 0 0 0 0 0 0 0 0 0 0 0 0 0 0 0 0 0 0 0 0 0 0 0 0 0 0 0 0 0 0 0 0 0 0 0 0 0 0 0 0 0 0 0 0 0 0 0 0 0 0 0 0 0 0 0 0 0 0 0 0 0 0 0 0 0 0 0 0 0 0 0 0 
0 0 0 0 0 0 0 0 0 0 0 0 0 0 0 0 0 0 0 0 0 0 0 0 0 0 0 0 0 0 0 0 0 0 0 0 0 0 0 0 0 0 0 0 0 0 0 0 0 0 0 0 0 0 0 0 0 0 0 0 0 0 0 0 0 0 0 0 0 0 0 0 0 0 0 0 0 0 0 0 0 0 0 0 0 0 0 0 0 0 0 0 0 0 0 0 0 0 0 0 0 0 0 0 0 0 0 0 0 0 0 -9.7947944595944136381e-05 -0.00013665806909557431936 -0.00036520280991680920124 -0.00022986227122601121664 -0.0010766091290861368179 0 0 0 0 0 0 0 0 0 0 0 0 0 0 0 0.0098837465047836303711 0.0069710640236735343933 0.006323444657027721405 -0.0024799366947263479233 -0.0032977261580526828766 -0.00046762949205003678799 -0.00093712011585012078285 -0.00095676415367051959038 0.0053899525664746761322 0.0058478205464780330658 0.014327393844723701477 0.0084864133968949317932 0.013676500879228115082 0.010870599187910556793 0.0079172169789671897888 0.012198993004858493805 0.010549669153988361359 0.018405584618449211121 0.051573157310485839844 0.016541620716452598572 0.0058729504235088825226 0.0065959841012954711914 0.0057414481416344642639 0.0052515710704028606415 0.010262695141136646271 0.0076883537694811820984 0.0061310576274991035461 0.04670448601245880127 0.080644205212593078613 0.0089971274137496948242 0.0076241898350417613983 0.0053926673717796802521 0.007309772539883852005 0.014448552392423152924 0.041497476398944854736 0.04762355610728263855 0.039721537381410598755 0.0084765069186687469482 0.0019055249867960810661 0.011062975041568279266 0.010072506964206695557 0.0040513449348509311676 0.0081819072365760803223 0.015228250995278358459 -0.0031277020461857318878 0.013799328356981277466 0.010358411818742752075 0.038311820477247238159 0.023604279384016990662 -0.0023516856599599123001 -0.0038034822791814804077 -0.0078894058242440223694 -0.0019691009074449539185 -0.0010918448679149150848 -0.0012949131196364760399 0.011101656593382358551 0.0068291597999632358551 0.017536062747240066528 0.012663055211305618286 0.0077630016021430492401 0 0 0 0 0 0 0 0 0 0 0 0 0 0 0 0 0 0 0 0 0 0 0 0 0 0 0 0 0 0 0 0 0 0 0 0 0 0 0 0 0 0 0 0 0 0 0 0 0 0 0 0 0 0 0 0 0 0 0 0 0 0 0 0 0 0 0 0 0 0 0 0 0 0 0 0 0 0 0 0 0 0 0 0 0 0 0 0 0 0 0 0 0 0 0 0 0 0 0 
0 0 0 0 0 0 0 0 0 0 0 0 0 0 0 0 0 0 0 0 0 0 0 0 0 0 0 0 0 0 0 0 0 0 0 0 0 0 0 0 0 0 0 0 0 0 0 0 0 0 0 0 0 0 0 0 0 0 0 0 0 0 0 0 0 0 0 0 0 0 0 0 0 0 0 0 0 0 0 0 0 0 0 0 0 0 0 0 0 0 0 0 0 0 0 0 0 0 0 0 0 0 0 0 0 0 0 0 0 0 0 -5.2200852223904803395e-05 -0.00013665806909557431936 0 0 0 0 0 0 0 0 0 0 0 0 0 0 0 0 0.0064539434388279914856 0.0078003103844821453094 0.0098837465047836303711 0.038277767598628997803 -0.00079098716378211975098 -0.0025097059551626443863 -0.0064381244592368602753 -0.00036729668499901890755 -0.00054084276780486106873 -0.00095676415367051959038 0.0088635431602597236633 0.006645897403359413147 0.0069348211400210857391 0.0075468719005584716797 0.015584272332489490509 0.010870599187910556793 0.016305282711982727051 0.013347250409424304962 0.01783542148768901825 0.020403310656547546387 0.058861322700977325439 0.016541620716452598572 0.019752381369471549988 0.018958063796162605286 0.021959921345114707947 0.008798968978226184845 0.008978495374321937561 0.0076883537694811820984 0.011841599829494953156 0.0064208828844130039215 0.012318463064730167389 0.01631602458655834198 0.010240353643894195557 0.0053926673717796802521 0.0087097687646746635437 0.0084505220875144004822 0.037789382040500640869 0.039550293236970901489 0.031671669334173202515 0.0084765069186687469482 -0.00267938198521733284 -0.010117004625499248505 0.042160280048847198486 0.013460625894367694855 0.014941171742975711823 -0.0015120975440368056297 -0.012129487469792366028 0.031431913375854492188 0.051723990589380264282 0.045512273907661437988 0.035124100744724273682 0.02206841297447681427 0.01616201549768447876 -0.0016794318798929452896 -0.00094535085372626781464 -0.0063792997971177101135 -0.0080521553754806518555 -0.0040489300154149532318 0.0075447726994752883911 0.0069868210703134536743 0.0069662081077694892883 0.012125127017498016357 0 0 0 0 0 0 0 0 0 0 0 0 0 0 0 0 0 0 0 0 0 0 0 0 0 0 0 0 0 0 0 0 0 0 0 0 0 0 0 0 0 0 0 0 0 0 0 0 0 0 0 0 0 0 0 0 0 0 0 0 0 0 0 0 0 0 0 0 0 0 0 0 0 0 0 0 0 0 0 0 0 0 0 0 0 0 0 0 0 0 0 0 0 0 0 0 0 0 0 
0 0 0 0 0 0 0 0 0 0 0 0 0 0 0 0 0 0 0 0 0 0 0 0 0 0 0 0 0 0 0 0 0 0 0 0 0 0 0 0 0 0 0 0 0 0 0 0 0 0 0 0 0 0 0 0 0 0 0 0 0 0 0 0 0 0 0 0 0 0 0 0 0 0 0 0 0 0 0 0 0 0 0 0 0 0 0 0 0 0 0 0 0 0 0 0 0 0 0 0 0 0 0 0 0 0 0 0 0 0 0 0 0 0 0 0 0 0 0 0 0 0 0 0 0 0 0 0.0037649159785360097885 0.00482654571533203125 0.0085479756817221641541 0.0086367940530180931091 0.010021879337728023529 0.038277767598628997803 0.018304953351616859436 0.038285836577415466309 0.014568868093192577362 0.011214733123779296875 0.0088001405820250511169 0.0029116040095686912537 0.0088635431602597236633 0.028065044432878494263 0.01032010931521654129 0.008436876349151134491 0.0061141848564147949219 0.029356319457292556763 0.016305282711982727051 0.0081785246729850769043 0.0083803068846464157104 0.0078502101823687553406 0.010371478274464607239 0.019834028556942939758 0.019752381369471549988 0.0078081674873828887939 0.011812004260718822479 0.054099805653095245361 0.0072502242401242256165 0.013077245093882083893 0.011841599829494953156 0.01710809953510761261 0.016842883080244064331 0.012259589508175849915 0.02885086648166179657 0.0034816176630556583405 0.0087097687646746635437 0.003328912658616900444 0.002264308510348200798 -0.0022498897742480039597 -0.0026710059028118848801 -0.0037099421024322509766 -0.00267938198521733284 -0.002087616361677646637 -0.015045524574816226959 -0.014053269289433956146 0.053377185016870498657 0.066895842552185058594 -0.010554306209087371826 -0.012129487469792366028 0.028489887714385986328 0.055261272937059402466 0.041178148239850997925 0.042130131274461746216 0.016764266416430473328 -0.00061837700195610523224 -0.00053269905038177967072 -0.002361042192205786705 0.080280683934688568115 0.018569255247712135315 0.0064716418273746967316 0.034930869936943054199 0.060976330190896987915 0.0060292170383036136627 0.0053965654224157333374 0 0 0 0 0 0 0 0 0 0 0 0 0 0 0 0 0 0 0 0 0 0 0 0 0 0 0 0 0 0 0 0 0 0 0 0 0 0 0 0 0 0 0 0 0 0 0 0 0 0 0 0 0 0 0 0 0 0 0 0 0 0 0 0 0 0 0 0 0 0 0 0 0 0 0 0 0 0 0 0 0 0 0 0 0 0 0 0 0 0 0 0 0 0 0 0 0 0 
0 0 0 0 0 0 0 0 0 0 0 0 0 0 0 0 0 0 0 0 0 0 0 0 0 0 0 0 0 0 0 0 0 0 0 0 0 0 0 0 0 0 0 0 0 0 0 0 0 0 0 0 0 0 0 0 0 0 0 0 0 0 0 0 0 0 0 0 0 0 0 0 0 0 0 0 0 0 0 0 0 0 0 0 0 0 0 0 0 0 0 0 0 0 0 0 0 0 0 0 0 0 0 0 0 0 0 0 0 0 0 0 0 0 0 0 0 0 0 0 0 0 0 0 0 0 0 0.0037649159785360097885 0.02167279459536075592 0.0095894699916243553162 0.028728287667036056519 0.0070732287131249904633 0.015471469610929489136 0.018304953351616859436 0.072177670896053314209 0.088545069098472595215 0.0084328325465321540833 0.0063425316475331783295 0.0041026649996638298035 0.0030548970680683851242 0.02401095069944858551 0.0032218417618423700333 0.0073077278211712837219 0.019018538296222686768 0.015607209876179695129 0.024291632696986198425 0.0081785246729850769043 0.063000127673149108887 0.036102999001741409302 0.0066662807948887348175 0.01544198114424943924 0.0047570108436048030853 0.0078081674873828887939 0.011812004260718822479 0.010428643785417079926 0.0088868699967861175537 0.006687219720333814621 0.0074470127001404762268 0.01710809953510761261 0.016842883080244064331 0.0073770363815128803253 0.0012862336589023470879 0.0028558683115988969803 0.0019208816811442375183 0.003328912658616900444 0.002264308510348200798 0.022061564028263092041 -0.0044256807304918766022 -0.0086154676973819732666 -0.002392209833487868309 -0.00046622857917100191116 -0.0023534419015049934387 -0.0045126909390091896057 -0.0016666622832417488098 -0.0013457548338919878006 -0.0013780585722997784615 0.013483199290931224823 0.013466358184814453125 0.027256935834884643555 0.036535181105136871338 0.0076554096303880214691 0.012520317919552326202 0.0027004228904843330383 -0.00061837700195610523224 0.073686629533767700195 0.012883153744041919708 0.017779998481273651123 0.025683095678687095642 0.009629488922655582428 0.0063247489742934703827 0.0066298004239797592163 0.0066997148096561431885 0 0 0 0 0 0 0 0 0 0 0 0 0 0 0 0 0 0 0 0 0 0 0 0 0 0 0 0 0 0 0 0 0 0 0 0 0 0 0 0 0 0 0 0 0 0 0 0 0 0 0 0 0 0 0 0 0 0 0 0 0 0 0 0 0 0 0 0 0 0 0 0 0 0 0 0 0 0 0 0 0 0 0 0 0 0 0 0 0 0 0 0 0 0 0 0 0 0 
0 0 0 0 0 0 0 0 0 0 0 0 0 0 0 0 0 0 0 0 0 0 0 0 0 0 0 0 0 0 0 0 0 0 0 0 0 0 0 0 0 0 0 0 0 0 0 0 0 0 0 0 0 0 0 0 0 0 0 0 0 0 0 0 0 0 0 0 0 0 0 0 0 0 0 0 0 0 0 0 0 0 0 0 0 0 0 0 0 0 0 0 0 0 0 0 0 0 0 0 0 0 0 0 0 0 0 0 0 0 0 0 0 0 0 0 0 0 0 0 0 0 0 0 0 0 0.0087268548086285591125 0.007063281722366809845 0.02167279459536075592 0.0095894699916243553162 0.015793915838003158569 0.0060792565345764160156 0.0075241969898343086243 0.011947023682296276093 0.030648170039057731628 0.14095430076122283936 0.031548336148262023926 0.0014741516206413507462 0.0035075459163635969162 0.0073309997096657752991 0.022842409089207649231 0.0097723891958594322205 0.003873341018334031105 0.0060789799317717552185 0.0049948571249842643738 0.0060569178313016891479 0.018558954820036888123 0.063000127673149108887 0.036102999001741409302 0.012664819136261940002 0.009527574293315410614 0.0065641887485980987549 0.011146814562380313873 0.033605329692363739014 0.010428643785417079926 0.0089968917891383171082 0.0080147888511419296265 0.01791224256157875061 0.026567669585347175598 0.046623297035694122314 0.0073770363815128803253 0.0019580405205488204956 0.003049161052331328392 0.0056833410635590553284 0.0022073225118219852448 0.0032651983201503753662 0.022061564028263092041 0.02033572271466255188 0.011188051663339138031 -0.0014421265805140137672 -0.00059731054352596402168 -0.0003444444737397134304 -0.0045126909390091896057 -0.0029937129002064466476 -0.002077515237033367157 -0.0014067779993638396263 0.0069474093616008758545 0.012541994452476501465 0.0055169407278299331665 0.10126608610153198242 0.010023140348494052887 0.0031972283031791448593 0.0044720256701111793518 0.0074601401574909687042 0.1427879035472869873 0.0089784339070320129395 0.01179858669638633728 0.013911688700318336487 0.0084134703502058982849 0.0073153423145413398743 0.0063247489742934703827 0.0061663268133997917175 0 0 0 0 0 0 0 0 0 0 0 0 0 0 0 0 0 0 0 0 0 0 0 0 0 0 0 0 0 0 0 0 0 0 0 0 0 0 0 0 0 0 0 0 0 0 0 0 0 0 0 0 0 0 0 0 0 0 0 0 0 0 0 0 0 0 0 0 0 0 0 0 0 0 0 0 0 0 0 0 0 0 0 0 0 0 0 0 0 0 0 0 0 0 0 0 0 0 
0 0 0 0 0 0 0 0 0 0 0 0 0 0 0 0 0 0 0 0 0 0 0 0 0 0 0 0 0 0 0 0 0 0 0 0 0 0 0 0 0 0 0 0 0 0 0 0 0 0 0 0 0 0 0 0 0 0 0 0 0 0 0 0 0 0 0 0 0 0 0 0 0 0 0 0 0 0 0 0 0 0 0 0 0 0 0 0 0 0 0 0 0 0 0 0 0 0 0 0 0 0 0 0 0 0 0 0 0 0 0 0 0 0 0 0 0 0 0 0 0 0 0 0 0 0 0.0045995162799954414368 0.039874497801065444946 0.066481880843639373779 0.019074026495218276978 0.015793915838003158569 0.031820114701986312866 0.012370058335363864899 0.0015574585413560271263 0.014997964724898338318 0.049846716225147247314 0.031548336148262023926 0.04493184015154838562 0.030883766710758209229 0.0028123948723077774048 0.012122937478125095367 0.030312174931168556213 0.028845084831118583679 0.0060789799317717552185 0.012744654901325702667 0.0068485359661281108856 0.0044473134912550449371 0.011033783666789531708 0.007671452593058347702 0.012664819136261940002 0.032360572367906570435 0.066784530878067016602 0.027737690135836601257 0.023388229310512542725 0.015342930331826210022 0.0089968917891383171082 0.010385671630501747131 0.030479323118925094604 0.032467432320117950439 0.046416167169809341431 0.0054917191155254840851 0.0019580405205488204956 0.013824590481817722321 0.0053199776448309421539 0.01311745867133140564 0.0034543897490948438644 0.041951630264520645142 0.02033572271466255188 0.028222521767020225525 0.010719911195337772369 -0.0010150501038879156113 -0.00010004843352362513542 -0.00082532607484608888626 -0.0029937129002064466476 -0.0011622676393017172813 -0.0011070412583649158478 0.0038335223216563463211 0.009801843203604221344 0.046772442758083343506 0.10126608610153198242 0.0068962997756898403168 0.010552713647484779358 0.10562178492546081543 0.10805725306272506714 0.0054221083410084247589 0.0066860532388091087341 0.0052874255925416946411 0.01267644297331571579 0.013873349875211715698 0.013048641383647918701 0.0063870577141642570496 0.011174010112881660461 0 0 0 0 0 0 0 0 0 0 0 0 0 0 0 0 0 0 0 0 0 0 0 0 0 0 0 0 0 0 0 0 0 0 0 0 0 0 0 0 0 0 0 0 0 0 0 0 0 0 0 0 0 0 0 0 0 0 0 0 0 0 0 0 0 0 0 0 0 0 0 0 0 0 0 0 0 0 0 0 0 0 0 0 0 0 0 0 0 0 0 0 0 0 0 0 0 0 
0 0 0 0 0 0 0 0 0 0 0 0 0 0 0 0 0 0 0 0 0 0 0 0 0 0 0 0 0 0 0 0 0 0 0 0 0 0 0 0 0 0 0 0 0 0 0 0 0 0 0 0 0 0 0 0 0 0 0 0 0 0 0 0 0 0 0 0 0 0 0 0 0 0 0 0 0 0 0 0 0 0 0 0 0 0 0 0 0 0 0 0 0 0 0 0 0 0 0 0 0 0 0 0 0 0 0 -0.00031130833667702972889 -0.00019381527090445160866 0 0 0 0 0 0 0 0 0 0 0 0 0 0 0 0 0 0.0078191515058279037476 0.012309982441365718842 0.013473437167704105377 0.01654233783483505249 0.069536171853542327881 0.031820114701986312866 0.0077910171821713447571 0.015435078181326389313 0.013272551819682121277 0.040791165083646774292 0.056801654398441314697 0.04493184015154838562 0.030432846397161483765 0.0043742000125348567963 0.0045106140896677970886 0.0026788220275193452835 0.003831836627796292305 0.0046812267974019050598 0.012744654901325702667 0.0048695900477468967438 0.019465519115328788757 0.011350163258612155914 0.0041707325726747512817 0.0065697254613041877747 0.032360572367906570435 0.012879756279289722443 0.047181427478790283203 0.014152366667985916138 0.015837276354432106018 0.0072651184163987636566 0.010385671630501747131 0.012627206742763519287 0.027740983292460441589 0.025679109618067741394 0.0070380172692239284515 0.049978338181972503662 0.013824590481817722321 0.0043237227946519851685 0.003407969372346997261 0.0041569420136511325836 0.0078972764313220977783 0.016811355948448181152 0.028222521767020225525 0.0070901629514992237091 -0.00032152151106856763363 0.017616087570786476135 0.0047029703855514526367 0.0031154451426118612289 -0.0011622676393017172813 0.0055470210500061511993 0.0026652279775589704514 0.0035623826552182435989 0.019296465441584587097 0.020910998806357383728 0.0068962997756898403168 0.0033617264125496149063 0.010102073661983013153 0.0072253257967531681061 0.009389141574501991272 0.0026529203169047832489 0.0052874255925416946411 0.0032359771430492401123 0.0038754446431994438171 0.0083370143547654151917 0.0059979767538607120514 0.0025135762989521026611 0.0024245316162705421448 0.0031275209039449691772 0 0 0 0 0 0 0 0 0 0 0 0 0 0 0 0 0 0 0 0 0 0 0 0 0 0 0 0 0 0 0 0 0 0 0 0 0 0 0 0 0 0 0 0 0 0 0 0 0 0 0 0 0 0 0 0 0 0 0 0 0 0 0 0 0 0 0 0 0 0 0 0 0 0 0 0 0 0 0 0 0 0 0 0 0 0 0 0 0 0 0 0 0 0 0 0 
0 0 0 0 0 0 0 0 0 0 0 0 0 0 0 0 0 0 0 0 0 0 0 0 0 0 0 0 0 0 0 0 0 0 0 0 0 0 0 0 0 0 0 0 0 0 0 0 0 0 0 0 0 0 0 0 0 0 0 0 0 0 0 0 0 0 0 0 0 0 0 0 0 0 0 0 0 0 0 0 0 0 0 0 0 0 0 0 0 0 0 0 0 0 0 0 0 0 0 0 0 0 0 0 0 0 0 0 0 0 0 0 0 0 0 0 0 0 0 0 0 0 0 0 0 0.01009645313024520874 0.0078191515058279037476 0.0094119999557733535767 0.0061345933936536312103 0.012785546481609344482 0.015618581324815750122 0.040252644568681716919 0.0077910171821713447571 0.0087788859382271766663 0.040388487279415130615 0.053968474268913269043 0.060387525707483291626 0.058495882898569107056 0.044822148978710174561 0.095488697290420532227 0.0020939903333783149719 0.0030517498962581157684 0.0031294317450374364853 0.0023796851746737957001 0.0058661913499236106873 0.011163346469402313232 0.0098209278658032417297 0.0074682105332612991333 0.003177960636094212532 0.0046196570619940757751 0.0096725849434733390808 0.012879756279289722443 0.017483327537775039673 0.014335510320961475372 0.02913914807140827179 0.049362737685441970825 0.010120907798409461975 0.012627206742763519287 0.081184349954128265381 0.062343835830688476562 0.0080436775460839271545 0.039348144084215164185 0.0044463737867772579193 0.0043237227946519851685 0.003407969372346997261 0.0037919506430625915527 0.0032765564974397420883 0.0029048225842416286469 0.0032883363310247659683 0.0070901629514992237091 -0.00032152151106856763363 0.01125552784651517868 0.022435879334807395935 0.0035555523354560136795 0.0022891950793564319611 0.0055470210500061511993 0.0026652279775589704514 0.0022744976449757814407 0.033518470823764801025 0.0039068032056093215942 0.0032693885732442140579 0.0033617264125496149063 0.062425371259450912476 0.0066118799149990081787 0.018938547000288963318 0.0038038904312998056412 0.0059049814008176326752 0.0032359771430492401123 0.0044447267428040504456 0.0075839208438992500305 0.0055730254389345645905 0.0044269850477576255798 0.0038001718930900096893 0.0031275209039449691772 0 0 0 0 0 0 0 0 0 0 0 0 0 0 0 0 0 0 0 0 0 0 0 0 0 0 0 0 0 0 0 0 0 0 0 0 0 0 0 0 0 0 0 0 0 0 0 0 0 0 0 0 0 0 0 0 0 0 0 0 0 0 0 0 0 0 0 0 0 0 0 0 0 0 0 0 0 0 0 0 0 0 0 0 0 0 0 0 0 0 0 0 0 0 0 0 
0 0 0 0 0 0 0 0 0 0 0 0 0 0 0 0 0 0 0 0 0 0 0 0 0 0 0 0 0 0 0 0 0 0 0 0 0 0 0 0 0 0 0 0 0 0 0 0 0 0 0 0 0 0 0 0 0 0 0 0 0 0 0 0 0 0 0 0 0 0 0 0 0 0 0 0 0 0 0 0 0 0 0 0 0 0 0 0 0 0 0 0 0 0 0 0 0 0 0 0 0 0 0 0 -0.00010425112850498408079 0 0 0 0 0 0 0 0 0 0 0 0 0 0 0 0 0 0.0069437534548342227936 0.0085396226495504379272 0.036948181688785552979 0.020927943289279937744 0.014462891966104507446 0.0094119999557733535767 0.0082890484482049942017 0.010192728601396083832 0.038116898387670516968 0.0071663246490061283112 0.0063974792137742042542 0.0087788859382271766663 0.040388487279415130615 0.008273578248918056488 0.010143283754587173462 0.02174591459333896637 0.025677634403109550476 0.013143770396709442139 0.0045793489553034305573 0.0030891371425241231918 0.0027719575446099042892 0.012544296681880950928 0.014249917119741439819 0.0046570026315748691559 0.0055939089506864547729 0.011300406418740749359 0.0077105509117245674133 0.0076848315075039863586 0.007671790197491645813 0.0054965023882687091827 0.017483327537775039673 0.014335510320961475372 0.015525103546679019928 0.01896346360445022583 0.019537745043635368347 0.019938081502914428711 0.081184349954128265381 0.062343835830688476562 0.0016129916766658425331 0.0028780251741409301758 0.003099623601883649826 0.0020410851575434207916 0.0042007239535450935364 0.0037919506430625915527 0.0052076703868806362152 0.00375837692990899086 0.044636148959398269653 0.029245490208268165588 0.012190645560622215271 0.01125552784651517868 0.0035660702269524335861 0.028111226856708526611 0.0026117735542356967926 0.0028690877370536327362 0.0034562516957521438599 0.0022744976449757814407 0.0033498567063361406326 0.031941056251525878906 0.0025630507152527570724 0.0031874878332018852234 0.047491818666458129883 0.0066118799149990081787 0.0040851985104382038116 0.0049326582811772823334 0.0040966849774122238159 0.0037455768324434757233 0.0044447267428040504456 0.011416125111281871796 0.0049708830192685127258 0.011188065633177757263 0.013797446154057979584 0.0064291749149560928345 0 0 0 0 0 0 0 0 0 0 0 0 0 0 0 0 0 0 0 0 0 0 0 0 0 0 0 0 0 0 0 0 0 0 0 0 0 0 0 0 0 0 0 0 0 0 0 0 0 0 0 0 0 0 0 0 0 0 0 0 0 0 0 0 0 0 0 0 0 0 0 0 0 0 0 0 0 0 0 0 0 0 0 0 0 0 0 0 0 0 0 0 0 0 0 0 
0 0 0 0 0 0 0 0 0 0 0 0 0 0 0 0 0 0 0 0 0 0 0 0 0 0 0 0 0 0 0 0 0 0 0 0 0 0 0 0 0 0 0 0 0 0 0 0 0 0 0 0 0 0 0 0 0 0 0 0 0 0 0 0 0 0 0 0 0 0 0 0 0 0 0 0 0 0 0 0 0 0 0 0 0 0 0 0 0 0 0 0 0 0 0 0 0 0 0 0 0 0 0 -0.00015025696484372019768 -2.8367145205265842378e-05 0 0 0 0 0 0 0 0 0 0 0 0 0 0 0 0 0 0.0069437534548342227936 -0.0030983614269644021988 -0.0018704177346080541611 0.010974681004881858826 0.01046637166291475296 0.030190911144018173218 0.0082890484482049942017 0.010192728601396083832 0.010425129905343055725 0.010551659390330314636 0.0057214954867959022522 0.014253227971494197845 0.049008145928382873535 0.008273578248918056488 0.0024730232544243335724 0.0087913013994693756104 0.035784453153610229492 0.017768254503607749939 0.0035575861111283302307 0.0030891371425241231918 0.0019966599065810441971 0.0042428150773048400879 0.0018988221418112516403 0.0030823480337858200073 0.0054586045444011688232 0.021745085716247558594 0.0077105509117245674133 0.01349198073148727417 0.0035648848861455917358 0.0053820619359612464905 0.0030746811535209417343 0.0021758535876870155334 0.015525103546679019928 0.0046927239745855331421 0.012204279191792011261 0.01048961002379655838 0.0076909530907869338989 0.0063907387666404247284 0.0016129916766658425331 0.0051028085872530937195 0.004615392535924911499 0.015464752912521362305 0.0027606503572314977646 0.0037493626587092876434 0.0052076703868806362152 0.0054980781860649585724 0.015746673569083213806 0.0085392761975526809692 0.004825268872082233429 0.0030527063645422458649 0.0035660702269524335861 0.015792932361364364624 0.029970882460474967957 0.0019233962520956993103 0.0021299270447343587875 0.0026990489568561315536 0.0033498567063361406326 0.0033290581777691841125 0.0024135967250913381577 0.014802596531808376312 0.0060317348688840866089 0.015546387061476707458 0.0040851985104382038116 0.0044802916236221790314 0.0032587470486760139465 0.0026170765049755573273 0.00377497868612408638 0.0028577127959579229355 0.0049708830192685127258 0.0035485152620822191238 0.0043256836943328380585 0 0 0 0 0 0 0 0 0 0 0 0 0 0 0 0 0 0 0 0 0 0 0 0 0 0 0 0 0 0 0 0 0 0 0 0 0 0 0 0 0 0 0 0 0 0 0 0 0 0 0 0 0 0 0 0 0 0 0 0 0 0 0 0 0 0 0 0 0 0 0 0 0 0 0 0 0 0 0 0 0 0 0 0 0 0 0 0 0 0 0 0 0 0 0 0 0 
0 0 0 0 0 0 0 0 0 0 0 0 0 0 0 0 0 0 0 0 0 0 0 0 0 0 0 0 0 0 0 0 0 0 0 0 0 0 0 0 0 0 0 0 0 0 0 0 0 0 0 0 0 0 0 0 0 0 0 0 0 0 0 0 0 0 0 0 0 0 0 0 0 0 0 0 0 0 0 0 0 0 0 0 0 0 0 0 0 0 0 0 0 0 0 0 0 0 0 0 0 0 -2.4334636691492050886e-05 -0.00015025696484372019768 -2.8367145205265842378e-05 0 0 0 0 0 0 0 0 0 0 0 0 0 0 0 0 0 0 -0.0030983614269644021988 -0.0014812025474384427071 0.025334198027849197388 0.037393704056739807129 0.041596356779336929321 0.0064460309222340583801 0.0046279272064566612244 0.010425129905343055725 0.0063472278416156768799 0.0072453427128493785858 0.010609664022922515869 0.013725412078201770782 0.0081946691498160362244 0.0024730232544243335724 0.0099137043580412864685 0.0022245447617024183273 0.0034942459315061569214 0.0027809715829789638519 0.001381097128614783287 0.0027434253133833408356 0.0081600798293948173523 0.0059261228889226913452 0.005715241655707359314 0.0033651669509708881378 0.015800964087247848511 0.0089969784021377563477 0.01349198073148727417 0.034830626100301742554 0.0082198288291692733765 0.010488817468285560608 0.0099266562610864639282 0.0050689512863755226135 0.0046927239745855331421 0.0019804183393716812134 0.0032837153412401676178 0.0099148852750658988953 0.003228305373340845108 0.0077349785715341567993 0.0051028085872530937195 0.0070972833782434463501 0.016744138672947883606 0.0084268590435385704041 0.0050219413824379444122 0.0030234295409172773361 0.0054980781860649585724 0.0037049755919724702835 0.0033920202404260635376 0.0063810846768319606781 0.0021455977112054824829 0.0030990340746939182281 0.015792932361364364624 0.0030863897409290075302 0.0054286969825625419617 0.0036158219445496797562 0.0027466653846204280853 0.0075120269320905208588 0.0033290581777691841125 0.0025299689732491970062 0.003709201933816075325 0.028272522613406181335 0.017139818519353866577 0.022657960653305053711 0.0044802916236221790314 0.005242519080638885498 0.0035658413544297218323 0.0046340054832398891449 0.0047651361674070358276 0.0034537932369858026505 0.0035485152620822191238 0.0022980994544923305511 0.0023008924908936023712 0 0 0 0 0 0 0 0 0 0 0 0 0 0 0 0 0 0 0 0 0 0 0 0 0 0 0 0 0 0 0 0 0 0 0 0 0 0 0 0 0 0 0 0 0 0 0 0 0 0 0 0 0 0 0 0 0 0 0 0 0 0 0 0 0 0 0 0 0 0 0 0 0 0 0 0 0 0 0 0 0 0 0 0 0 0 0 0 0 0 0 0 0 0 0 0 
0 0 0 0 0 0 0 0 0 0 0 0 0 0 0 0 0 0 0 0 0 0 0 0 0 0 0 0 0 0 0 0 0 0 0 0 0 0 0 0 0 0 0 0 0 0 0 0 0 0 0 0 0 0 0 0 0 0 0 0 0 0 0 0 0 0 0 0 0 0 0 0 0 0 0 0 0 0 0 0 0 0 0 0 0 0 0 0 0 0 0 0 0 0 0 0 0 0 0 0 0 0 0.33406266570091247559 -3.6244302464183419943e-05 0 0 0 0 0 0 0 0 0 0 0 0 0 0 0 0 0 0 0 -0.01273130904883146286 -0.0014812025474384427071 0.025334198027849197388 0.0089075816795229911804 0.0074764043092727661133 0.0081467675045132637024 0.0087259430438280105591 0.007585373707115650177 0.0063472278416156768799 0.007245767395943403244 0.0084387538954615592957 0.012559194117784500122 0.0062180683016777038574 0.0026996645610779523849 0.0099137043580412864685 0.0022245447617024183273 0.0036135346163064241409 0.0023905059788376092911 0.0012576432200148701668 0.0018363186391070485115 0.017969533801078796387 0.004877067171037197113 0.0023867748677730560303 0.0045353644527494907379 0.04071079939603805542 0.037760190665721893311 0.072207823395729064941 0.074745468795299530029 0.0024482239969074726105 0.0031205550767481327057 0.0034308528993278741837 0.002221655799075961113 0.0057199699804186820984 0.0019804183393716812134 0.011839224956929683685 0.034519042819738388062 0.013279560953378677368 0.011829645372927188873 0.0033058761619031429291 0.0070972833782434463501 0.0078731058165431022644 0.0026679250877350568771 0.0036960286088287830353 0.0038508290890604257584 0.0090380012989044189453 0.0037049755919724702835 0.050978284329175949097 0.002613957040011882782 0.0035958655644208192825 0.0020767555106431245804 0.0021368577145040035248 0.0030863897409290075302 0.0054286969825625419617 0.043109279125928878784 0.013341210782527923584 0.0024770935997366905212 0.0022732312791049480438 0.0025299689732491970062 0.003709201933816075325 0.0064116795547306537628 0.082818150520324707031 0.043221753090620040894 0.0048717786557972431183 0.005242519080638885498 0.0037160534411668777466 0.0035076234489679336548 0.0027326080016791820526 0.0034929092507809400558 0.0039939885027706623077 0.0022980994544923305511 0 0 0 0 0 0 0 0 0 0 0 0 0 0 0 0 0 0 0 0 0 0 0 0 0 0 0 0 0 0 0 0 0 0 0 0 0 0 0 0 0 0 0 0 0 0 0 0 0 0 0 0 0 0 0 0 0 0 0 0 0 0 0 0 0 0 0 0 0 0 0 0 0 0 0 0 0 0 0 0 0 0 0 0 0 0 0 0 0 0 0 0 0 0 0 0 0 
0 0 0 0 0 0 0 0 0 0 0 0 0 0 0 0 0 0 0 0 0 0 0 0 0 0 0 0 0 0 0 0 0 0 0 0 0 0 0 0 0 0 0 0 0 0 0 0 0 0 0 0 0 0 0 0 0 0 0 0 0 0 0 0 0 0 0 0 0 0 0 0 0 0 0 0 0 0 0 0 0 0 0 0 0 0 0 0 0 0 0 0 0 0 0 0 0 0 0 0 -2.4893286536098457873e-05 0 0 0 0 0 0 0 0 0 0 0 0 0 0 0 0 0 0 0 0 0 1.116761326789855957 -0.017358180135488510132 -0.0071618901565670967102 0.0094645777717232704163 0.0089075816795229911804 0.010658030398190021515 0.0040589966811239719391 0.0054489225149154663086 0.011186224408447742462 0.024108272045850753784 0.007245767395943403244 0.0044754594564437866211 0.039578542113304138184 0.021866282448172569275 0.0097830081358551979065 0.0041772965341806411743 0.0027548996731638908386 0.0036135346163064241409 0.010522885248064994812 0.0015366539591923356056 0.0039239670149981975555 0.0043965643271803855896 0.0018605745863169431686 0.001486215740442276001 0.0027329851873219013214 0.0070026502944529056549 0.013188037090003490448 0.0052730408497154712677 0.003507012268528342247 0.0035172612406313419342 0.0020055756904184818268 0.014688201248645782471 0.012513015419244766235 0.0020796675235033035278 0.0030188076198101043701 0.0090270321816205978394 0.0071563357487320899963 0.0055476576089859008789 0.0066346167586743831635 0.0023471040185540914536 0.0020316592417657375336 0.0078731058165431022644 0.0026679250877350568771 0.0027486258186399936676 0.002704561455175280571 0.0033272621221840381622 0.026549551635980606079 0.050978284329175949097 0.002613957040011882782 0.0026586093008518218994 0.0020668839570134878159 0.0070530157536268234253 0.0056507540866732597351 0.027853334322571754456 0.043109279125928878784 0.0097200144082307815552 0.0019319377606734633446 0.0041385269723832607269 0.00696832314133644104 0.0057000815868377685547 0.0064116795547306537628 0.018448941409587860107 0.044470217078924179077 0.0096811624243855476379 0.0075134928338229656219 0.0037160534411668777466 0.0066042277030646800995 0.0032442598603665828705 0.0033693606965243816376 0.0080670369789004325867 0.0025281899143010377884 0 0 0 0 0 0 0 0 0 0 0 0 0 0 0 0 0 0 0 0 0 0 0 0 0 0 0 0 0 0 0 0 0 0 0 0 0 0 0 0 0 0 0 0 0 0 0 0 0 0 0 0 0 0 0 0 0 0 0 0 0 0 0 0 0 0 0 0 0 0 0 0 0 0 0 0 0 0 0 0 0 0 0 0 0 0 0 0 0 0 0 0 0 0 0 0 0 
0 0 0 0 0 0 0 0 0 0 0 0 0 0 0 0 0 0 0 0 0 0 0 0 0 0 0 0 0 0 0 0 0 0 0 0 0 0 0 0 0 0 0 0 0 0 0 0 0 0 0 0 0 0 0 0 0 0 0 0 0 0 0 0 0 0 0 0 0 0 0 0 0 0 0 0 0 0 0 0 0 0 0 0 0 0 0 0 0 0 0 0 0 0 0 0 0 0 0 0 -2.4893286536098457873e-05 0 0 0 0 0 0 0 0 0 0 0 0 0 0 0 0 0 0 0 0 0 0 -0.00018486677436158061028 -0.00010111694427905604243 -0.00019162712851539254189 -7.0876179961487650871e-05 0.010658030398190021515 0.004936262965202331543 0.009109975770115852356 0.0070455563254654407501 0.0062684267759323120117 0.0065653459168970584869 0.0044754594564437866211 0.039578542113304138184 0.014637491665780544281 0.013323000632226467133 0.006510050501674413681 0.01440942566841840744 0.019708907231688499451 0.010522885248064994812 0.0024105727206915616989 0.0041498295031487941742 0.0021733450703322887421 0.0015823824796825647354 0.002711781766265630722 0.0027329851873219013214 0.0040094805881381034851 0.018419144675135612488 0.0050251721404492855072 0.003533899085596203804 0.0025206010323017835617 0.0018869235645979642868 0.014688201248645782471 0.012381990440189838409 0.0016628820449113845825 0.0040184296667575836182 0.015045213513076305389 0.0036472748033702373505 0.0055476576089859008789 0.0057112611830234527588 0.001858623814769089222 0.0030684911180287599564 0.0054848669096827507019 0.003597736358642578125 0.0027486258186399936676 0.036765035241842269897 0.024311715736985206604 0.066709749400615692139 0.059856530278921127319 0.0035737769212573766708 0.0026586093008518218994 0.0030218209140002727509 0.0058890390209853649139 0.00239276885986328125 0.016639802604913711548 0.033855814486742019653 0.0097200144082307815552 0.0060170064680278301239 0.0026004977989941835403 0.0053580109961330890656 0.0031842461321502923965 0.0025098833721131086349 0.018448941409587860107 0.0029605270829051733017 0.0043031112290918827057 0.0090581141412258148193 0.011832277290523052216 0.0066042277030646800995 0.0032442598603665828705 0.0032531023025512695312 0.0036010865587741136551 0 0 0 0 0 0 0 0 0 0 0 0 0 0 0 0 0 0 0 0 0 0 0 0 0 0 0 0 0 0 0 0 0 0 0 0 0 0 0 0 0 0 0 0 0 0 0 0 0 0 0 0 0 0 0 0 0 0 0 0 0 0 0 0 0 0 0 0 0 0 0 0 0 0 0 0 0 0 0 0 0 0 0 0 0 0 0 0 0 0 0 0 0 0 0 0 0 0 
0 0 0 0 0 0 0 0 0 0 0 0 0 0 0 0 0 0 0 0 0 0 0 0 0 0 0 0 0 0 0 0 0 0 0 0 0 0 0 0 0 0 0 0 0 0 0 0 0 0 0 0 0 0 0 0 0 0 0 0 0 0 0 0 0 0 0 0 0 0 0 0 0 0 0 0 0 0 0 0 0 0 0 0 0 0 0 0 0 0 0 0 0 0 0 0 0 0 0 0 0 0 0 0 0 0 0 0 0 0 0 0 0 0 0 0 0 0 0 0 0 0 0 -6.1556151194963604212e-05 -6.9531299232039600611e-05 -0.00048594159306958317757 -7.303577149286866188e-05 -5.5345353757729753852e-05 0.004936262965202331543 0.009109975770115852356 0.030948173254728317261 0.018660007044672966003 0.013633551076054573059 0.01912000216543674469 0.0063490252941846847534 0.014637491665780544281 0.0039187241345643997192 0.0039049219340085983276 0.0071106003597378730774 0.015055033378303050995 0.0038265530019998550415 0.0024105727206915616989 0.0031501913908869028091 0.0044273943640291690826 0.0036046244204044342041 0.0040234895423054695129 0.0048718713223934173584 0.0053490404970943927765 0.008569522760808467865 0.0037890982348471879959 0.0024958313442766666412 0.0024416258092969655991 0.0030029094778001308441 0.002128813648596405983 0.0209799986332654953 0.018283581361174583435 0.0073185604996979236603 0.0033999665174633264542 0.002930098213255405426 0.0054624462500214576721 0.0057112611830234527588 0.0019870989490300416946 0.0015419058036059141159 0.0015463522868230938911 0.001515402691438794136 0.0019775584805756807327 0.036765035241842269897 0.040850266814231872559 0.05419955030083656311 0.056714020669460296631 0.025175804272294044495 0.0082771657034754753113 0.0030218209140002727509 0.0046681757085025310516 0.0017673751572147011757 0.0016120510408654808998 0.0046487725339829921722 0.0080920262262225151062 0.0060170064680278301239 0.0054504186846315860748 0.0021843914873898029327 0.0031040618196129798889 0.0078575164079666137695 0.0042415545322000980377 0.0029605270829051733017 0.0030149118974804878235 0.0067390515469014644623 0.079905644059181213379 0.013080196455121040344 0.0035116095095872879028 0.0032531023025512695312 0.0026736299041658639908 0.0035476407501846551895 0 0 0 0 0 0 0 0 0 0 0 0 0 0 0 0 0 0 0 0 0 0 0 0 0 0 0 0 0 0 0 0 0 0 0 0 0 0 0 0 0 0 0 0 0 0 0 0 0 0 0 0 0 0 0 0 0 0 0 0 0 0 0 0 0 0 0 0 0 0 0 0 0 0 0 0 0 0 0 0 0 0 0 0 0 0 0 0 0 0 0 0 0 0 0 0 0 
0 0 0 0 0 0 0 0 0 0 0 0 0 0 0 0 0 0 0 0 0 0 0 0 0 0 0 0 0 0 0 0 0 0 0 0 0 0 0 0 0 0 0 0 0 0 0 0 0 0 0 0 0 0 0 0 0 0 0 0 0 0 0 0 0 0 0 0 0 0 0 0 0 0 0 0 0 0 0 0 0 0 0 0 0 0 0 0 0 0 0 0 0 0 0 0 0 0 0 0 0 0 0 0 0 0 0 0 0 0 0 0 0 0 0 0 0 0 0 0 0 0 0 -6.3675717683508992195e-05 -0.00014987305621616542339 -0.00025286935851909220219 -6.872267840662971139e-05 -8.9137422037310898304e-05 0.0065556382760405540466 0.053049277514219284058 0.030948173254728317261 0.005249609239399433136 0.0066868420690298080444 0.0080289281904697418213 0.0060587176121771335602 0.0054641794413328170776 0.0039187241345643997192 0.002347951522096991539 0.003604020923376083374 0.0048048375174403190613 0.011087843216955661774 0.0032859791535884141922 0.0036597114522010087967 0.0044273943640291690826 0.0025649964809417724609 0.0023793005384504795074 0.00237492402084171772 0.0029761486221104860306 0.0033146068453788757324 0.011933967471122741699 0.007614462636411190033 0.0026214402168989181519 0.0025972700677812099457 0.0056481086649000644684 0.0026276558637619018555 0.0075801205821335315704 0.0039205038920044898987 0.014826114289462566376 0.0107098408043384552 0.0083303069695830345154 0.0026001015212386846542 0.0022478350438177585602 0.0017227823846042156219 0.001311639673076570034 0.0015126056969165802002 0.0014636780833825469017 0.020797472447156906128 0.040850266814231872559 0.022287480533123016357 0.0065590869635343551636 0.011332737281918525696 0.0054700314067304134369 0.003706180257722735405 0.0046681757085025310516 0.0030198465101420879364 0.003180878935381770134 0.0017632574308663606644 0.002238271757960319519 0.0038233515806496143341 0.0054504186846315860748 0.0041879671625792980194 0.0036716181784868240356 0.0032045077532529830933 0.002374615054577589035 0.0020730581600219011307 0.0030149118974804878235 0.0044497796334326267242 0.036642279475927352905 0.044674962759017944336 0.01876134239137172699 0.0044494313187897205353 0.0026736299041658639908 0 0 0 0 0 0 0 0 0 0 0 0 0 0 0 0 0 0 0 0 0 0 0 0 0 0 0 0 0 0 0 0 0 0 0 0 0 0 0 0 0 0 0 0 0 0 0 0 0 0 0 0 0 0 0 0 0 0 0 0 0 0 0 0 0 0 0 0 0 0 0 0 0 0 0 0 0 0 0 0 0 0 0 0 0 0 0 0 0 0 0 0 0 0 0 0 0 0 
0 0 0 0 0 0 0 0 0 0 0 0 0 0 0 0 0 0 0 0 0 0 0 0 0 0 0 0 0 0 0 0 0 0 0 0 0 0 0 0 0 0 0 0 0 0 0 0 0 0 0 0 0 0 0 0 0 0 0 0 0 0 0 0 0 0 0 0 0 0 0 0 0 0 0 0 0 0 0 0 0 0 0 0 0 0 0 0 0 0 0 0 0 0 0 0 0 0 0 0 0.0034995302557945251465 0.0081997029483318328857 0 0 0 0 0 0 0 0 0 0 0 0 0 0 0 0 0 0 0 0 -7.4369359936099499464e-05 -4.8666046495782211423e-05 -6.9295238063205033541e-05 -0.00025286935851909220219 -8.0054618592839688063e-05 -0.0001084908581105992198 -0.00018294410256203263998 -6.5274180087726563215e-05 0.0077085481025278568268 0.005249609239399433136 -0.00010264226875733584166 -0.00024671427672728896141 -0.00032852045842446386814 0.023767041042447090149 0.0027663880027830600739 0.002347951522096991539 0.003604020923376083374 0.015341951511800289154 0.022914033383131027222 0.0045736669562757015228 0.013542715460062026978 0.0041108583100140094757 0.0025649964809417724609 0.0035903744865208864212 0.0096350247040390968323 0.0062194294296205043793 0.012905585579574108124 0.0084317782893776893616 0.019742561504244804382 0.0031017365399748086929 0.0027701815124601125717 0.0028121233917772769928 0.0023990883491933345795 0.0030202909838408231735 0.0044723642058670520782 0.049455881118774414062 0.040944706648588180542 0.0087867248803377151489 0.0032570909243077039719 0.0024608192034065723419 0.0020198998972773551941 0.0012024481547996401787 0.0021877333056181669235 0.011941012926399707794 0.0098019083961844444275 0.0031966946553438901901 0.022287480533123016357 0.0065590869635343551636 0.0024110658559948205948 0.0018566385842859745026 0.0019444193458184599876 0.0050924313254654407501 0.0030198465101420879364 0.003180878935381770134 0.0035192330833524465561 0.0045673358254134654999 0.0094492677599191665649 0.0074604428373277187347 0.0041879671625792980194 0.0036716181784868240356 0.0038698436692357063293 0.0037791896611452102661 0.0044729947112500667572 0.0053742625750601291656 0.0044497796334326267242 0.011509202420711517334 0.060748092830181121826 0.040360461920499801636 0.0043354970403015613556 0 0 0 0 0 0 0 0 0 0 0 0 0 0 0 0 0 0 0 0 0 0 0 0 0 0 0 0 0 0 0 0 0 0 0 0 0 0 0 0 0 0 0 0 0 0 0 0 0 0 0 0 0 0 0 0 0 0 0 0 0 0 0 0 0 0 0 0 0 0 0 0 0 0 0 0 0 0 0 0 0 0 0 0 0 0 0 0 0 0 0 0 0 0 0 0 0 0 0 
0 0 0 0 0 0 0 0 0 0 0 0 0 0 0 0 0 0 0 0 0 0 0 0 0 0 0 0 0 0 0 0 0 0 0 0 0 0 0 0 0 0 0 0 0 0 0 0 0 0 0 0 0 0 0 0 0 0 0 0 0 0 0 0 0 0 0 0 0 0 0 0 0 0 0 0 0 0 0 0 0 0 0 0 0 0 0 0 0 0 0 0 0 0 0 0 0 0 0 0 0.0046431673690676689148 0.0046489811502397060394 0.0045419055968523025513 0.0033907899633049964905 0 0 0 0 0 0 0 0 0 0 0 0 0 0 0 0 0 0 -5.2213865274097770452e-05 -5.1148323109373450279e-05 -9.7780997748486697674e-05 -0.00015787754091434180737 -8.0054618592839688063e-05 -0.0013206144794821739197 -0.00099676230456680059433 -7.4257492087781429291e-05 -5.9261303249513730407e-05 -0.00012893640086986124516 -0.00010264226875733584166 -0.00019656486983876675367 -0.00019343498570378869772 -0.00026813949807547032833 -0.00012322790280450135469 0.0038279532454907894135 0.0044868150725960731506 0.015341951511800289154 -0.0007700530695728957653 -0.00068577413912862539291 0.0013964013196527957916 0.0014947896124795079231 0.0029797360766679048538 0.0035903744865208864212 0.0028071859851479530334 0.0025592471938580274582 0.050619341433048248291 0.041345667093992233276 0.0032031054142862558365 0.0031017365399748086929 0.0057103582657873630524 0.005528676789253950119 0.0037357399705797433853 0.0037760080303996801376 0.0038203885778784751892 0.012522203847765922546 0.049455881118774414062 0.0086735486984252929688 0.012157967314124107361 0.0054599219001829624176 0.0044042081572115421295 0.0021944676991552114487 0.0021877333056181669235 0.003080064430832862854 0.0013435761211439967155 0.003314550500363111496 0.0031883281189948320389 0.010478102602064609528 0.0024110658559948205948 0.0022204082924872636795 0.0021973676048219203949 0.0041788476519286632538 0.0040860702283680438995 0.0020133270882070064545 0.0035192330833524465561 0.0060664159245789051056 0.015502415597438812256 0.0084938546642661094666 0.0029817991890013217926 0.0022651636973023414612 0.0038698436692357063293 0.0024588475935161113739 0.0035633966326713562012 0.004521543160080909729 0.0081131923943758010864 0.011509202420711517334 0.060748092830181121826 0.067153312265872955322 0.0067112185060977935791 0.0045494232326745986938 0 0 0 0 0 0 0 0 0 0 0 0 0 0 0 0 0 0 0 0 0 0 0 0 0 0 0 0 0 0 0 0 0 0 0 0 0 0 0 0 0 0 0 0 0 0 0 0 0 0 0 0 0 0 0 0 0 0 0 0 0 0 0 0 0 0 0 0 0 0 0 0 0 0 0 0 0 0 0 0 0 0 0 0 0 0 0 0 0 0 0 0 0 0 0 0 0 0 
0 0 0 0 0 0 0 0 0 0 0 0 0 0 0 0 0 0 0 0 0 0 0 0 0 0 0 0 0 0 0 0 0 0 0 0 0 0 0 0 0 0 0 0 0 0 0 0 0 0 0 0 0 0 0 0 0 0 0 0 0 0 0 0 0 0 0 0 0 0 0 0 0 0 0 0 0 0 0 0 0 0 0 0 0 0 0 0 0 0 0 0 0 0 0 0 0 0 0 0 0.0035614774096757173538 0.0046489811502397060394 0.0047138324007391929626 0 0 0 0 0 0 0 0 0 0 0 0 0 0 0 0 0 0 0 -6.5573920437600463629e-05 -0.00071741029387339949608 -6.1919839936308562756e-05 -9.5349176262971013784e-05 -0.00011015890049748122692 -0.0013206144794821739197 -0.00033198980963788926601 -0.00010345529881305992603 -0.00011567688488867133856 -7.8114564530551433563e-05 -0.00013368185318540781736 -0.00019656486983876675367 -0.00019343498570378869772 -8.5352185124065726995e-05 -5.0222992285853251815e-05 -0.00026345776859670877457 -0.0013742977753281593323 -0.00053065863903611898422 -0.0007700530695728957653 -0.00080116436583921313286 -0.0016047406243160367012 0.0037837526760995388031 0.0027784775011241436005 0.0029156815726310014725 0.0028071859851479530334 0.0025592471938580274582 0.0019008553354069590569 0.023001080378890037537 0.0027676385361701250076 0.0032157083041965961456 0.0057103582657873630524 0.0060728136450052261353 0.0067059407010674476624 0.0067403442226350307465 0.0031027318909764289856 0.0040287920273840427399 0.0077766259200870990753 0.005995316430926322937 0.039271496236324310303 0.040499955415725708008 0.0039958837442100048065 0.0031682285480201244354 0.0050771166570484638214 0.018331510946154594421 0.0030417377129197120667 0.0037533675786107778549 0.0036584849003702402115 0.002963587641716003418 0.0025938719045370817184 0.0022204082924872636795 0.0016904351068660616875 0.0023260286543518304825 0.0040905168280005455017 0.0032876858022063970566 0.0040551605634391307831 0.0060664159245789051056 0.0055960472673177719116 0.0036262138746678829193 0.0065752388909459114075 0.012416905723512172699 0.0024303172249346971512 0.0024588475935161113739 0.022013874724507331848 0.0092991357669234275818 0.003130573546513915062 0.0035889698192477226257 0.074208565056324005127 0.067153312265872955322 0.01932778581976890564 0 0 0 0 0 0 0 0 0 0 0 0 0 0 0 0 0 0 0 0 0 0 0 0 0 0 0 0 0 0 0 0 0 0 0 0 0 0 0 0 0 0 0 0 0 0 0 0 0 0 0 0 0 0 0 0 0 0 0 0 0 0 0 0 0 0 0 0 0 0 0 0 0 0 0 0 0 0 0 0 0 0 0 0 0 0 0 0 0 0 0 0 0 0 0 0 0 0 0 
0 0 0 0 0 0 0 0 0 0 0 0 0 0 0 0 0 0 0 0 0 0 0 0 0 0 0 0 0 0 0 0 0 0 0 0 0 0 0 0 0 0 0 0 0 0 0 0 0 0 0 0 0 0 0 0 0 0 0 0 0 0 0 0 0 0 0 0 0 0 0 0 0 0 0 0 0 0 0 0 0 0 0 0 0 0 0 0 0 0 0 0 0 0 0 0 0 0 0 0.0050309491343796253204 0.0043373811058700084686 0.0052082091569900512695 0.0047138324007391929626 0.0083580967038869857788 0 0 0 0 0 0 0 0 0 0 0 0 0 0 0 0 0 0 0 -0.0007042282959446310997 -0.00012862219591625034809 -0.00014706683577969670296 -8.325967064592987299e-05 -0.00015220165369100868702 -0.00028304063016548752785 -7.8033015597611665726e-05 -6.9126464950386434793e-05 -0.00023545172007288783789 -0.00016803575272206217051 -0.00091954250819981098175 -0.0013424284989014267921 -8.5352185124065726995e-05 -8.5606086940970271826e-05 -0.00036480414564721286297 -0.0021967107895761728287 -0.00051341066136956214905 -0.00077617878559976816177 -0.00080116436583921313286 -0.0016047406243160367012 0.0034610002767294645309 0.0049676634371280670166 0.00260919216088950634 0.0090284878388047218323 0.0019632300827652215958 0.0019008553354069590569 0.0036120938602834939957 0.0066276867873966693878 0.0068778614513576030731 0.0028291330672800540924 0.0027961612213402986526 0.0037867305800318717957 0.0034011458046734333038 0.0042900522239506244659 0.0022797186393290758133 0.0052206069231033325195 0.0066923256963491439819 0.015976499766111373901 0.0038679717108607292175 0.0022067783866077661514 0.0028684008866548538208 0.003350239945575594902 0.0019138791831210255623 0.0012865414610132575035 0.0024517884012311697006 0.0085394624620676040649 0.0047338269650936126709 0.0022035564761608839035 0.0017629000358283519745 0.0016904351068660616875 0.001642580842599272728 0.001337419264018535614 0.002283698180690407753 0.0025731131900101900101 0.0025156990159302949905 0.0055960472673177719116 0.0024669896811246871948 0.0037896661087870597839 0.0095481071621179580688 0.0083352336660027503967 0.0022795279510319232941 0.022013874724507331848 0.0031066269148141145706 -9.893243259284645319e-05 -0.00051700125914067029953 -0.00015738088404759764671 -0.00016300672723446041346 0.01932778581976890564 0 0 0 0 0 0 0 0 0 0 0 0 0 0 0 0 0 0 0 0 0 0 0 0 0 0 0 0 0 0 0 0 0 0 0 0 0 0 0 0 0 0 0 0 0 0 0 0 0 0 0 0 0 0 0 0 0 0 0 0 0 0 0 0 0 0 0 0 0 0 0 0 0 0 0 0 0 0 0 0 0 0 0 0 0 0 0 0 0 0 0 0 0 0 0 0 0 0 0 
0 0 0 0 0 0 0 0 0 0 0 0 0 0 0 0 0 0 0 0 0 0 0 0 0 0 0 0 0 0 0 0 0 0 0 0 0 0 0 0 0 0 0 0 0 0 0 0 0 0 0 0 0 0 0 0 0 0 0 0 0 0 0 0 0 0 0 0 0 0 0 0 0 0 0 0 0 0 0 0 0 0 0 0 0 0 0 0 0 0 0 0 0 0 0 0 0 0 0.019648890942335128784 0.007335350383073091507 0.0050501334480941295624 0.0050434665754437446594 0.0067583471536636352539 0.0083580967038869857788 0 0 0 0 0 0 0 0 0 0 0 0 0 0 0 0 0 0 0 -0.00040307338349521160126 -6.0436661442508921027e-05 -7.2069720772560685873e-05 -0.00056818861048668622971 -7.4962088547181338072e-05 -6.7666231188923120499e-05 -0.0003539936442393809557 -6.9126464950386434793e-05 -0.00010612287587719038129 -0.00043741348781622946262 -0.00013061828212812542915 -4.2186464270344004035e-05 -0.00051476602675393223763 -8.5606086940970271826e-05 -0.00062771677039563655853 -0.00074201985262334346771 -0.00091859133681282401085 -0.00041208279435522854328 -0.00056716607650741934776 -0.0051085804589092731476 0.0034610002767294645309 0.065283045172691345215 0.043673042207956314087 0.023905510082840919495 0.0025121637154370546341 0.0031120558269321918488 0.0036120938602834939957 0.01574204862117767334 0.0034533853176981210709 0.003998906351625919342 0.0034902859479188919067 0.0031209075823426246643 0.0034011458046734333038 0.00289366929791867733 0.0023675665725022554398 0.0038634033408015966415 0.0023929185699671506882 0.002929535694420337677 0.0039847274310886859894 0.0040290704928338527679 0.0032928127329796552658 0.0021168547682464122772 0.0029595543164759874344 0.00073009863262996077538 0.0013994661858305335045 0.0072454418987035751343 0.0022800071164965629578 0.0028075820300728082657 0.004151442553848028183 0.0015793965430930256844 0.0024531721137464046478 0.001337419264018535614 0.0023426373954862356186 0.0051006586290895938873 0.0028211351018399000168 0.0025043236091732978821 0.0024669896811246871948 0.0037896661087870597839 0.0046645421534776687622 0.0049312449991703033447 0.0029663445893675088882 0.0055696154013276100159 0.0031066269148141145706 -0.000153140848851762712 -0.00018300191732123494148 -0.00012658149353228509426 -9.615054295863956213e-05 -9.3875249149277806282e-05 0 0 0 0 0 0 0 0 0 0 0 0 0 0 0 0 0 0 0 0 0 0 0 0 0 0 0 0 0 0 0 0 0 0 0 0 0 0 0 0 0 0 0 0 0 0 0 0 0 0 0 0 0 0 0 0 0 0 0 0 0 0 0 0 0 0 0 0 0 0 0 0 0 0 0 0 0 0 0 0 0 0 0 0 0 0 0 0 0 0 0 0 0 0 0 0 0 0 0 
0 0 0 0 0 0 0 0 0 0 0 0 0 0 0 0 0 0 0 0 0 0 0 0 0 0 0 0 0 0 0 0 0 0 0 0 0 0 0 0 0 0 0 0 0 0 0 0 0 0 0 0 0 0 0 0 0 0 0 0 0 0 0 0 0 0 0 0 0 0 0 0 0 0 0 0 0 0 0 0 0 0 0 0 0 0 0 0 0 0 0 0 0 0 0 0 0 0 0 0.01003496069461107254 0.0062566008418798446655 0.0049918736331164836884 0.0090397614985704421997 0.0078777680173516273499 0 0 0 0 0 0 0 0 0 0 0 0 0 0 0 0 0 0 0 0 0 -6.0436661442508921027e-05 -0.00010488194675417616963 -3.7282283301465213299e-05 -4.5067019527778029442e-05 -4.664555672206915915e-05 -5.9168425650568678975e-05 -0.00010612287587719038129 -8.7129315943457186222e-05 -0.00016360312292817980051 -7.2288392402697354555e-05 -4.7496370825683698058e-05 -0.00076588633237406611443 -0.00062771677039563655853 -0.00074201985262334346771 -0.0074704322032630443573 -0.0052978168241679668427 -0.0020021062809973955154 -0.0028394120745360851288 0.053432535380125045776 0.065283045172691345215 0.058895483613014221191 0.013286805711686611176 0.0039773667231202125549 0.0034678766969591379166 0.024562006816267967224 0.01574204862117767334 0.0054635400883853435516 0.0053910631686449050903 0.0030923595186322927475 0.0034714359790086746216 0.0042897611856460571289 0.00289366929791867733 0.0054467692971229553223 0.0044386344961822032928 0.0035975007340312004089 0.0023002889938652515411 0.0032793506979942321777 0.0040290704928338527679 0.0093870665878057479858 0.0023873012978583574295 0.0023595432285219430923 0.001642470131628215313 0.0043898709118366241455 0.0074413055554032325745 0.0072454418987035751343 0.0020245402120053768158 0.0036758685018867254257 0.0020381624344736337662 0.0030266402754932641983 0.0015179098118096590042 0.0023426373954862356186 -4.4973825424676761031e-05 0.010067638009786605835 0.0032501190435141324997 0.0023896724451333284378 0.0019311320502310991287 0.0046645421534776687622 0.0068669733591377735138 0.02593945525586605072 0.0035249961074441671371 -0.00024201991618610918522 -0.00025900537730194628239 -0.00018300191732123494148 -0.0001762016036082059145 -0.00060436292551457881927 -0.00081645615864545106888 0 0 0 0 0 0 0 0 0 0 0 0 0 0 0 0 0 0 0 0 0 0 0 0 0 0 0 0 0 0 0 0 0 0 0 0 0 0 0 0 0 0 0 0 0 0 0 0 0 0 0 0 0 0 0 0 0 0 0 0 0 0 0 0 0 0 0 0 0 0 0 0 0 0 0 0 0 0 0 0 0 0 0 0 0 0 0 0 0 0 0 0 0 0 0 0 0 0 0 
0 0 0 0 0 0 0 0 0 0 0 0 0 0 0 0 0 0 0 0 0 0 0 0 0 0 0 0 0 0 0 0 0 0 0 0 0 0 0 0 0 0 0 0 0 0 0 0 0 0 0 0 0 0 0 0 0 0 0 0 0 0 0 0 0 0 0 0 0 0 0 0 0 0 0 0 0 0 0 0 0 0 0 0 0 0 0 0 0 0 0 0 0 0 0 0 0 0.0027740842197090387344 0.021619547158479690552 0.011384231969714164734 0.0054157404229044914246 0.0043425913900136947632 0.0052627348341047763824 0 0 0 0 0 0 0 0 0 0 0 0 0 0 0 0 0 0 0 0 0 0 -5.2635768952313810587e-05 -4.8295172746293246746e-05 -3.091373218921944499e-05 -1.9567727576941251755e-05 -3.5204626328777521849e-05 -0.00014954824291635304689 -4.8809415602590888739e-05 -8.7129315943457186222e-05 -0.00024326489074155688286 -5.6452088756486773491e-05 -0.00073349481681361794472 -0.00077407795470207929611 -0.00033719689236022531986 -0.00097883143462240695953 -0.0074704322032630443573 -0.0027860742993652820587 -0.0049274703487753868103 -0.0011905014980584383011 0.017465423792600631714 0.062727622687816619873 0.058895483613014221191 0.02623844146728515625 0.0042931651696562767029 0.0049555152654647827148 0.0024797739461064338684 0.0021301025990396738052 0.0054635400883853435516 0.0039383512921631336212 0.0026050980668514966965 0.0051761381328105926514 0.0033871855121105909348 0.0036940004210919141769 0.0054467692971229553223 0.0060170702636241912842 0.0020033793989568948746 0.0023713675327599048615 0.0018643516814336180687 0.0021592769771814346313 0.0093870665878057479858 0.0019902663771063089371 0.0022057550959289073944 0.0014159465208649635315 0.0034372785594314336777 0.018387304618954658508 0.0090250670909881591797 0.0025409983936697244644 0.0031499310862272977829 0.0039134663529694080353 0.0045460043475031852722 0.0016109779244288802147 0.0012452298542484641075 0.0013596100034192204475 -0.00095145450904965400696 -0.00014252607070375233889 -0.00010949860006803646684 0.0020508912857621908188 0.0032818170730024576187 0.0068669733591377735138 -0.00010062389628728851676 -0.00048021052498370409012 -9.4483119028154760599e-05 -8.940777479438111186e-05 -0.00011323898070259019732 -0.0001762016036082059145 -0.00022698013344779610634 -0.0001090609803213737905 0 0 0 0 0 0 0 0 0 0 0 0 0 0 0 0 0 0 0 0 0 0 0 0 0 0 0 0 0 0 0 0 0 0 0 0 0 0 0 0 0 0 0 0 0 0 0 0 0 0 0 0 0 0 0 0 0 0 0 0 0 0 0 0 0 0 0 0 0 0 0 0 0 0 0 0 0 0 0 0 0 0 0 0 0 0 0 0 0 0 0 0 0 0 0 0 0 0 0 
0 0 0 0 0 0 0 0 0 0 0 0 0 0 0 0 0 0 0 0 0 0 0 0 0 0 0 0 0 0 0 0 0 0 0 0 0 0 0 0 0 0 0 0 0 0 0 0 0 0 0 0 0 0 0 0 0 0 0 0 0 0 0 0 0 0 0 0 0 0 0 0 0 0 0 0 0 0 0 0 0 0 0 0 0 0 0 0 0 0 0 0 0 0 0 0 0 0.0024216482415795326233 0.014950821176171302795 0.014239507727324962616 0.03369348868727684021 0.0043425913900136947632 0.0067810127511620521545 0 0 0 0 0 0 0 0 0 0 0 0 0 0 0 0 0 0 0 0 0.10557153075933456421 -3.230529182474128902e-05 -5.8875059039564803243e-05 -5.6167231377912685275e-05 -8.8230655819643288851e-05 -2.0258132281014695764e-05 -0.00025858910521492362022 -5.2068091463297605515e-05 -8.493571658618748188e-05 -0.00018992701370734721422 -0.00024326489074155688286 -5.6452088756486773491e-05 -7.3817564043565653265e-06 -0.0019742914009839296341 -0.0028815045952796936035 -0.0026493084151297807693 -0.0048976941034197807312 -0.0027860742993652820587 -0.0023026480339467525482 -0.0051542427390813827515 -0.0011894744820892810822 -0.00088646524818614125252 0.01736173778772354126 0.02623844146728515625 0.0042931651696562767029 0.0039735315367579460144 0.0045480797998607158661 0.0029571542982012033463 0.0044024707749485969543 0.0039383512921631336212 0.0026050980668514966965 0.0097434287890791893005 0.0057151205837726593018 0.0029139381367713212967 0.0078941099345684051514 0.0024429794866591691971 0.0020033793989568948746 0.0021651952993124723434 0.0020254680421203374863 0.0023647663183510303497 0.0033573594409972429276 0.0025829819496721029282 0.0049381484277546405792 0.0018095654668286442757 0.024604288861155509949 0.041088420897722244263 0.0095269531011581420898 0.0022342165466398000717 0.0020460132509469985962 0.0054671168327331542969 0.002648739377036690712 0.0046730474568903446198 0.0020646795164793729782 -0.00011330552661092951894 -0.00015081085439305752516 -6.1797589296475052834e-05 -7.4324758315924555063e-05 -7.862282654969021678e-05 0.0039440821856260299683 0.0062985783442854881287 -9.0803929197136312723e-05 -0.00085742503870278596878 -0.0014531732304021716118 -0.00017328502144664525986 -0.0001141629909398034215 -0.00012826970487367361784 -0.00034840573789551854134 -8.8877539383247494698e-05 0 0 0 0 0 0 0 0 0 0 0 0 0 0 0 0 0 0 0 0 0 0 0 0 0 0 0 0 0 0 0 0 0 0 0 0 0 0 0 0 0 0 0 0 0 0 0 0 0 0 0 0 0 0 0 0 0 0 0 0 0 0 0 0 0 0 0 0 0 0 0 0 0 0 0 0 0 0 0 0 0 0 0 0 0 0 0 0 0 0 0 0 0 0 0 0 0 0 0 
0 0 0 0 0 0 0 0 0 0 0 0 0 0 0 0 0 0 0 0 0 0 0 0 0 0 0 0 0 0 0 0 0 0 0 0 0 0 0 0 0 0 0 0 0 0 0 0 0 0 0 0 0 0 0 0 0 0 0 0 0 0 0 0 0 0 0 0 0 0 0 0 0 0 0 0 0 0 0 0 0 0 0 0 0 0 0 0 0 0 0 0 0 0 0 0 0 0.0025047811213880777359 0.0073115099221467971802 0.013037391006946563721 0.04633738100528717041 0.0052718739025294780731 0.0067810127511620521545 0 0 0 0 0 0 0 0 0 0 0 0 0 0 0 0 0 0 0 0 0 0.10557153075933456421 -0.00057400634977966547012 -0.0004675286472775042057 -6.2070335843600332737e-05 -3.347200618009082973e-05 -6.8619723606389015913e-05 -2.6404217351227998734e-05 0.10557153075933456421 0.10557153075933456421 -0.00015899926074780523777 -7.6184522185940295458e-05 -7.3817564043565653265e-06 -0.0049260505475103855133 -0.0019560554064810276031 -0.0033055746462196111679 -0.0006456766277551651001 -0.001780463499017059803 -0.0023026480339467525482 -0.0051542427390813827515 -0.00046808988554403185844 -0.00043760190601460635662 -0.00057462591212242841721 0.0083146458491683006287 0.0086328033357858657837 0.0039735315367579460144 0.024950888007879257202 0.0048764268867671489716 0.0057088751345872879028 0.0042193089611828327179 0.008717795833945274353 0.0097434287890791893005 0.0036025587469339370728 0.0024255816824734210968 0.0041346005164086818695 0.0023702457547187805176 0.0017949981847777962685 0.0021651952993124723434 0.0059234597720205783844 0.0069521614350378513336 0.0035204240120947360992 0.003518751123920083046 0.0028288993053138256073 0.0018095654668286442757 0.003026971127837896347 0.0064408774487674236298 0.0067983292974531650543 0.0018873782828450202942 0.0018456816906109452248 0.0022109765559434890747 0.0039065629243850708008 0.0025920355692505836487 0.0019138181814923882484 -0.00011002390237990766764 -7.3740331572480499744e-05 -5.6208093155873939395e-05 -6.4669206039980053902e-05 -7.524618558818474412e-05 -5.8988822274841368198e-05 -0.0001318326540058478713 -0.00027492118533700704575 -0.0026850060094147920609 -0.0016247259918600320816 -0.00020363921066746115685 -0.00012741013779304921627 -0.00011025047570001333952 -0.00026270133093930780888 -0.00012427111505530774593 0 0 0 0 0 0 0 0 0 0 0 0 0 0 0 0 0 0 0 0 0 0 0 0 0 0 0 0 0 0 0 0 0 0 0 0 0 0 0 0 0 0 0 0 0 0 0 0 0 0 0 0 0 0 0 0 0 0 0 0 0 0 0 0 0 0 0 0 0 0 0 0 0 0 0 0 0 0 0 0 0 0 0 0 0 0 0 0 0 0 0 0 0 0 0 0 0 0 0 
0 0 0 0 0 0 0 0 0 0 0 0 0 0 0 0 0 0 0 0 0 0 0 0 0 0 0 0 0 0 0 0 0 0 0 0 0 0 0 0 0 0 0 0 0 0 0 0 0 0 0 0 0 0 0 0 0 0 0 0 0 0 0 0 0 0 0 0 0 0 0 0 0 0 0 0 0 0 0 0 0 0 0 0 0 0 0 0 0 0 0 0 0 0 0 0 0 0 0.021546404808759689331 0.0050763641484081745148 0.0060704816132783889771 0 0 0 0 0 0 0 0 0 0 0 0 0 -6.006325929774902761e-05 0 0 0 0 0 0 0 0 0 0 -5.068361497251316905e-05 -4.8776142648421227932e-05 -3.4439639421179890633e-05 -9.8053184046875685453e-05 -4.9474259867565706372e-05 -6.8619723606389015913e-05 -0.00019412924302741885185 -0.00012626367970369756222 -2.6318586606066673994e-05 -6.4796745391504373401e-06 -6.2479128246195614338e-05 -0.0049260505475103855133 -0.002438420196995139122 -0.0032231931108981370926 -0.00099022651556879281998 -0.0004759597359225153923 -0.0017252637771889567375 -0.0016279784031212329865 -0.00046808988554403185844 0.0033334747422486543655 0.0026258926372975111008 0.0025181390810757875443 0.011025545187294483185 0.022495539858937263489 0.024950888007879257202 0.0030484420713037252426 0.0028799080755561590195 0.0051418645307421684265 0.0055715953931212425232 0.0084406379610300064087 0.0036025587469339370728 0.016999412328004837036 0.019834782928228378296 0.0060304813086986541748 0.0031329093035310506821 0.013045877218246459961 0.0059234597720205783844 0.020735738798975944519 0.0078915487974882125854 0.003214187920093536377 0.0045223645865917205811 0.0061396337114274501801 0.003026971127837896347 0.0027017265092581510544 0.0041998079977929592133 0.0015883361920714378357 0.001942563103511929512 0.0028213104233145713806 0.0039065629243850708008 0.0021061080042272806168 0.0021580634638667106628 -0.0003832616202998906374 -0.00035710618249140679836 -5.3094456234248355031e-05 -6.287150608841329813e-05 -6.4669206039980053902e-05 -6.4820531406439840794e-05 -0.00013566439156420528889 -0.00043174668098799884319 -0.0029247007332742214203 -0.0013932965230196714401 -0.00095750112086534500122 -0.0007650225306861102581 -0.0012257244670763611794 -0.00069667724892497062683 -0.00052407756447792053223 -0.00021086307242512702942 0 0 0 0 0 0 0 0 0 0 0 0 0 0 0 0 0 0 0 0 0 0 0 0 0 0 0 0 0 0 0 0 0 0 0 0 0 0 0 0 0 0 0 0 0 0 0 0 0 0 0 0 0 0 0 0 0 0 0 0 0 0 0 0 0 0 0 0 0 0 0 0 0 0 0 0 0 0 0 0 0 0 0 0 0 0 0 0 0 0 0 0 0 0 0 0 0 0 
0 0 0 0 0 0 0 0 0 0 0 0 0 0 0 0 0 0 0 0 0 0 0 0 0 0 0 0 0 0 0 0 0 0 0 0 0 0 0 0 0 0 0 0 0 0 0 0 0 0 0 0 0 0 0 0 0 0 0 0 0 0 0 0 0 0 0 0 0 0 0 0 0 0 0 0 0 0 0 0 0 0 0 0 0 0 0 0 0 0 0 0 0 0 0 0 0 0 0.0086825052276253700256 0 0 0 0 0 0 0 0 0 0 0 0 0 0 0 0 0 0 0 0 0 0 0 0 0 0 0.10557153075933456421 -0.0001561172393849119544 -2.1112817194079980254e-05 -3.5053924420935800299e-06 -5.4020256357034668326e-06 -0.00034983543446287512779 -0.00012327877630013972521 -5.9827078075613826513e-05 0.33924534916877746582 1.2595161199569702148 -0.0003746103320736438036 -0.00077686924487352371216 -0.002438420196995139122 -0.0032231931108981370926 0.2553017735481262207 -7.3124133450619410723e-06 0.2553017735481262207 0.2553017735481262207 -0.00010564806143520399928 0.0033334747422486543655 0.0022463311906903982162 0.0066595897078514099121 0.0037877846043556928635 0.046528153121471405029 0.035239778459072113037 0.0030484420713037252426 0.0077263684943318367004 0.005279051605612039566 0.0033102335873991250992 0.0077732377685606479645 0.017392050474882125854 0.016999412328004837036 0.006818783935159444809 0.0022196921054273843765 0.0025064863730221986771 0.0039309118874371051788 0.011793845333158969879 0.020735738798975944519 0.0078915487974882125854 0.0034867839422076940536 0.0026198306586593389511 0.0030286002438515424728 0.0078299641609191894531 0.0027017265092581510544 0.014411786571145057678 0.0064870300702750682831 0.001755459117703139782 0.0038205606397241353989 0.0019970908761024475098 0.0032474489416927099228 -4.9314698117086663842e-05 -6.4153580751735717058e-05 -0.00034574157325550913811 -4.8165715270442888141e-05 -7.0237911131698638201e-05 -9.2442161985673010349e-05 -9.9033619335386902094e-05 -0.00025088770780712366104 -0.0014633600367233157158 -0.0016566624399274587631 -0.00088587770005688071251 -0.00095750112086534500122 -0.00083408161299303174019 -0.0011142560979351401329 -0.00074655038770288228989 -0.00025856989668682217598 0 0 0 0 0 0 0 0 0 0 0 0 0 0 0 0 0 0 0 0 0 0 0 0 0 0 0 0 0 0 0 0 0 0 0 0 0 0 0 0 0 0 0 0 0 0 0 0 0 0 0 0 0 0 0 0 0 0 0 0 0 0 0 0 0 0 0 0 0 0 0 0 0 0 0 0 0 0 0 0 0 0 0 0 0 0 0 0 0 0 0 0 0 0 0 0 0 0 0 
0 0 0 0 0 0 0 0 0 0 0 0 0 0 0 0 0 0 0 0 0 0 0 0 0 0 0 0 0 0 0 0 0 0 0 0 0 0 0 0 0 0 0 0 0 0 0 0 0 0 0 0 0 0 0 0 0 0 0 0 0 0 0 0 0 0 0 0 0 0 0 0 0 0 0 0 0 0 0 0 0 0 0 0 0 0 0 0 0 0 0 0 0 0 0 0 0 0 0.0074377674609422683716 0 0 0 0 0 0 0 0 0 0 0 0 0 0 0 0 0 0 0 0 0 0 0 0 0 0 0.10557153075933456421 -0.0001015691232169046998 -0.00055416789837181568146 -2.1853297766938339919e-06 -7.1201960963662713766e-05 -0.00098656490445137023926 -7.9076817200984805822e-05 -0.00016270464402623474598 -0.00038204554584808647633 -0.00045282742939889431 -0.00030119749135337769985 -0.00014559028204530477524 -0.00010290424688719213009 -0.00083374034147709608078 0.2553017735481262207 -0.00014550462947227060795 -0.00047665197052992880344 -0.00060513219796121120453 -0.00013609537563752382994 0.0024787185247987508774 0.0022463311906903982162 0.0032290220260620117188 0.0043652663007378578186 0.0069436514750123023987 0.0046411091461777687073 0.0031997771002352237701 0.0077263684943318367004 -0.00041818252066150307655 -0.00030537025304511189461 0.0029621096327900886536 0.0055750939063727855682 0.0058730458840727806091 0.006818783935159444809 0.0022196921054273843765 0.0022119791246950626373 0.0043707573786377906799 0.0035323719494044780731 0.0043613808229565620422 0.0035112178884446620941 0.0034867839422076940536 0.0015991586260497570038 0.0023274610284715890884 0.0037041984032839536667 0.0066011082381010055542 0.013931084424257278442 0.0064870300702750682831 0.002713217632845044136 0.0030794211197644472122 0.0026377791073173284531 0.0027907483745366334915 -4.4728156353812664747e-05 -6.4153580751735717058e-05 -0.00019094072922598570585 -5.0217760872328653932e-05 -5.7774064771365374327e-05 -7.7919597970321774483e-05 -0.00016766047338023781776 -0.00017135510279331356287 -0.00020585853781085461378 -0.0014300490729510784149 -0.00072612270014360547066 -0.0012207324616611003876 -0.00089650211157277226448 -0.0012158886529505252838 -0.0015995985595509409904 -0.0002479211252648383379 -0.00016393857367802411318 0 0 0 0 0 0 0 0 0 0 0 0 0 0 0 0 0 0 0 0 0 0 0 0 0 0 0 0 0 0 0 0 0 0 0 0 0 0 0 0 0 0 0 0 0 0 0 0 0 0 0 0 0 0 0 0 0 0 0 0 0 0 0 0 0 0 0 0 0 0 0 0 0 0 0 0 0 0 0 0 0 0 0 0 0 0 0 0 0 0 0 0 0 0 0 0 0 0 
0 0 0 0 0 0 0 0 0 0 0 0 0 0 0 0 0 0 0 0 0 0 0 0 0 0 0 0 0 0 0 0 0 0 0 0 0 0 0 0 0 0 0 0 0 0 0 0 0 0 0 0 0 0 0 0 0 0 0 0 0 0 0 0 0 0 0 0 0 0 0 0 0 0 0 0 0 0 0 0 0 0 0 0 0 0 0 0 0 0 0 0 0 0 0 0 0 0 0.0021073105745017528534 0 0 0 0 0 0 0 0 0 0 0 0 0 0 0 0 0 0 0 0 0 0 0 0 0 0 0 -0.0004618878592737019062 -0.00055416789837181568146 -8.3096689195372164249e-05 -0.00017590646166354417801 -0.00020384820527397096157 -0.00039091837243176996708 -0.00041472798329778015614 -0.00031789587228558957577 -0.00045282742939889431 -9.4312061264645308256e-05 -8.3926221122965216637e-05 -9.8231765150558203459e-05 -0.00023303837224375456572 -0.00011506022565299645066 -0.00014550462947227060795 -0.00034547323593869805336 -0.00021637215104419738054 0.0087448600679636001587 0.0025605724658817052841 0.0070602940395474433899 0.0032290220260620117188 0.0043652663007378578186 0.0018998330924659967422 0.0033086074981838464737 0.0029906490817666053772 0.0035653579980134963989 -0.00041818252066150307655 -0.00030537025304511189461 -0.00046665474656037986279 -0.00045222713379189372063 0.0072906943969428539276 0.0061476142145693302155 0.0024383575655519962311 0.0022119791246950626373 0.023259274661540985107 0.0053013670258224010468 0.0028782035224139690399 0.0022880714386701583862 0.0015381395351141691208 0.0015991586260497570038 0.0051142140291631221771 0.010562275536358356476 0.0066213691607117652893 0.01368058379739522934 0.0046071996912360191345 0.002713217632845044136 0.0018472167430445551872 0.0039553139358758926392 -4.4660282583208754659e-05 -3.638070847955532372e-05 -0.00011157744302181527019 -0.00019094072922598570585 -0.00017951740301214158535 -6.3172738009598106146e-05 -4.4724241888616234064e-05 -0.00011678295413730666041 -0.00011806964903371408582 -0.00020585853781085461378 -0.00075049442239105701447 -0.00086434587137773633003 -0.00043845578329637646675 -0.00069773680297657847404 -0.00095989170949906110764 -0.0015995985595509409904 -0.00011522274871822446585 0 0 0 0 0 0 0 0 0 0 0 0 0 0 0 0 0 0 0 0 0 0 0 0 0 0 0 0 0 0 0 0 0 0 0 0 0 0 0 0 0 0 0 0 0 0 0 0 0 0 0 0 0 0 0 0 0 0 0 0 0 0 0 0 0 0 0 0 0 0 0 0 0 0 0 0 0 0 0 0 0 0 0 0 0 0 0 0 0 0 0 0 0 0 0 0 0 0 0 
0 0 0 0 0 0 0 0 0 0 0 0 0 0 0 0 0 0 0 0 0 0 0 0 0 0 0 0 0 0 0 0 0 0 0 0 0 0 0 0 0 0 0 0 0 0 0 0 0 0 0 0 0 0 0 0 0 0 0 0 0 0 0 0 0 0 0 0 0 0 0 0 0 0 0 0 0 0 0 0 0 0 0 0 0 0 0 0 0 0 0 0 0 0 0 0 0.0016847377410158514977 0 0 0 0 0 0 0 0 0 0 0 0 0 -0.003285231301560997963 0 0 0 0 0 0 0 0 0 0 0 0 0 -0.0006900957087054848671 -0.00037524406798183917999 -1.7547217794344760478e-05 -0.00019400869496166706085 -8.3096689195372164249e-05 -0.00017416740593034774065 -0.00030277992482297122478 -0.00015375806833617389202 -0.00021660313359461724758 -0.00028733426006510853767 -0.00015632985741831362247 -9.4312061264645308256e-05 -0.0008734920993447303772 -0.00040167037514038383961 -0.00050247035687789320946 -0.00018149286916013807058 -0.00022087487741373479366 -0.00034547323593869805336 -0.00021637215104419738054 0.0030056221876293420792 0.0051647112704813480377 0.0036268315743654966354 0.0047188713215291500092 0.0025285789743065834045 0.0018998330924659967422 -0.0003608530387282371521 -0.00029749807436019182205 -0.0016512470319867134094 -0.00025671557523310184479 -0.00024601581390015780926 -0.00046665474656037986279 -0.0011250266106799244881 -0.00077242340194061398506 0.019624030217528343201 0.0028812543023377656937 0.0043118842877447605133 0.023259274661540985107 0.0044069243595004081726 0.0075795901939272880554 0.0031194926705211400986 0.0018726856214925646782 0.0018638151232153177261 0.0051142140291631221771 0.0051853894256055355072 0.0060004252009093761444 0.004578449297696352005 0.0031554969027638435364 0.0030607271473854780197 0.0018472167430445551872 0.0019787694327533245087 -6.7507724452298134565e-05 -4.0638944483362138271e-05 -0.00014812040899414569139 -0.00010984284017467871308 -0.00017951740301214158535 -5.3832955018151551485e-05 -6.7424989538267254829e-05 -7.9614692367613315582e-05 -7.4621450039558112621e-05 -0.00015208069817163050175 -0.00075049442239105701447 -0.00066042924299836158752 -0.00063848029822111129761 -0.00017234834376722574234 -0.00015182042261585593224 -0.00013358709111344069242 -0.00011522274871822446585 -4.7409521357621997595e-05 0 0 0 0 0 0 0 0 0 0 0 0 0 0 0 0 0 0 0 0 0 0 0 0 0 0 0 0 0 0 0 0 0 0 0 0 0 0 0 0 0 0 0 0 0 0 0 0 0 0 0 0 0 0 0 0 0 0 0 0 0 0 0 0 0 0 0 0 0 0 0 0 0 0 0 0 0 0 0 0 0 0 0 0 0 0 0 0 0 0 0 0 0 0 0 0 0 0 
0 0 0 0 0 0 0 0 0 0 0 0 0 0 0 0 0 0 0 0 0 0 0 0 0 0 0 0 0 0 0 0 0 0 0 0 0 0 0 0 0 0 0 0 0 0 0 0 0 0 0 0 0 0 0 0 0 0 0 0 0 0 0 0 0 0 0 0 0 0 0 0 0 0 0 0 0 0 0 0 0 0 0 0 0 0 0 0 0 0 0 0 0 0 0 0 0.0016847377410158514977 0 0 -0.036899067461490631104 -0.030747583135962486267 -0.01380312163382768631 0 0 0 0 0 0 0 0 -0.003285231301560997963 0 0 0 0 0 0 0 0 0 0 0 0 0 -0.00046629869029857218266 -0.00011293216812191531062 -0.00013229461910668760538 -0.00032774373539723455906 -0.00013443818897940218449 -0.00017416740593034774065 -0.00023284985218197107315 -0.00021896189718972891569 -0.00022526268730871379375 -0.00028523852233774960041 -9.6116207714658230543e-05 -0.00027479766868054866791 -0.00031953217694535851479 -0.0035938194487243890762 -0.00088582653552293777466 -0.00024464030866511166096 -0.00015456796973012387753 -0.00025627831928431987762 -0.00014733415446244180202 0.0030056221876293420792 0.0048610419034957885742 0.0038960012607276439667 -0.00054714060388505458832 -0.00046412553638219833374 -0.0033570691011846065521 -0.0003608530387282371521 -0.00029136490775272250175 -0.0005805646069347858429 -0.00062378757866099476814 -0.0048371981829404830933 -0.0057974928058683872223 -0.0011250266106799244881 -0.0014073575148358941078 -0.00065669993637129664421 0.00667072320356965065 0.0046274205669760704041 0.022012470290064811707 0.0044069243595004081726 0.0050987913273274898529 0.011968296021223068237 0.0094416532665491104126 0.0065859118476510047913 0.0049567245878279209137 0.0051853894256055355072 0.0060004252009093761444 0.013995611108839511871 0.0084732510149478912354 0.007123525720089673996 0.003376669716089963913 0.0019787694327533245087 -6.7507724452298134565e-05 -0.00010490538988960906863 -8.4261446318123489618e-05 -8.8881628471426665783e-05 -0.00017866092093754559755 -5.6872584536904469132e-05 -6.7424989538267254829e-05 -9.5358824182767421007e-05 -7.858145545469596982e-05 -0.0010742773301899433136 -0.00028894148999825119972 -0.00066042924299836158752 -0.00063848029822111129761 -0.00014165004540700465441 -0.00017731811385601758957 -9.988141391659155488e-05 -7.6348958828020840883e-05 -4.7409521357621997595e-05 -5.5399534176103770733e-05 0 0 0 0 0 0 0 0 0 0 0 0 0 0 0 0 0 0 0 0 0 0 0 0 0 0 0 0 0 0 0 0 0 0 0 0 0 0 0 0 0 0 0 0 0 0 0 0 0 0 0 0 0 0 0 0 0 0 0 0 0 0 0 0 0 0 0 0 0 0 0 0 0 0 0 0 0 0 0 0 0 0 0 0 0 0 0 0 0 0 0 0 0 0 0 0 0 
0 0 0 0 0 0 0 0 0 0 0 0 0 0 0 0 0 0 0 0 0 0 0 0 0 0 0 0 0 0 0 0 0 0 0 0 0 0 0 0 0 0 0 0 0 0 0 0 0 0 0 0 0 0 0 0 0 0 0 0 0 0 0 0 0 0 0 0 0 0 0 0 0 0 0 0 0 0 0 0 0 0 0 0 0 0 0 0 0 0 0 0 0 0 0 0 0 0 0 -0.0031299157999455928802 -0.016351955011487007141 -0.01788190007209777832 0 0 0 0 0 0 -0.00073810183675959706306 -0.00048874993808567523956 -0.00060321867931634187698 0 -5.2138795581413432956e-05 0 0 0 0 0 0 0 0 0 0 0 -0.00046629869029857218266 0 -5.5953223636606708169e-05 -0.00093320384621620178223 -0.00024017643590923398733 -0.00042962798033840954304 -0.00020677239808719605207 -0.00027024582959711551666 -0.00023513437190558761358 0 0 0 0 -0.0013481860514730215073 -0.00088582653552293777466 -0.00010246023884974420071 -9.1542671725619584322e-05 -0.00020836107432842254639 0.0075519713573157787323 0.0064659928902983665466 0.0048610419034957885742 -0.00033893485669977962971 -0.00034774190862663090229 -0.00047875475138425827026 -0.00032154211658053100109 -0.00026510655879974365234 -0.00029136490775272250175 -0.00029594587977044284344 -0.00053897517500445246696 -0.0037686810828745365143 -0.0064164572395384311676 -0.0025723441503942012787 -0.0014073575148358941078 0.0046288133598864078522 0.0040313736535608768463 0.0045973239466547966003 0.0049760644324123859406 0.0063567124307155609131 0.0050987913273274898529 0.011968296021223068237 0.0073670265264809131622 0.0052367467433214187622 0.002859501400962471962 0.0025542825460433959961 0.016964476555585861206 0.013995611108839511871 0.036984417587518692017 0.022571964189410209656 -0.00014958150859456509352 -5.7137065596180036664e-05 -0.0001598141534486785531 -0.00010490538988960906863 -5.3624069551005959511e-05 -5.4147527407621964812e-05 -6.3606319599784910679e-05 -0.00086358550470322370529 -0.00019894789147656410933 -9.5358824182767421007e-05 -0.00019531036377884447575 -7.8364442742895334959e-05 -0.00075319403549656271935 -0.00032892890158109366894 -0.00092491006944328546524 -0.00014165004540700465441 -0.00021755220950581133366 -0.0005655940622091293335 -0.00017046966240741312504 -3.4037150271615246311e-06 -5.5399534176103770733e-05 0 0 0 0 0 0 0 0 0 0 0 0 0 0 0 0 0 0 0 0 0 0 0 0 0 0 0 0 0 0 0 0 0 0 0 0 0 0 0 0 0 0 0 0 0 0 0 0 0 0 0 0 0 0 0 0 0 0 0 0 0 0 0 0 0 0 0 0 0 0 0 0 0 0 0 0 0 0 0 0 0 0 0 0 0 0 0 0 0 0 0 0 0 0 0 0 0 
0 0 0 0 0 0 0 0 0 0 0 0 0 0 0 0 0 0 0 0 0 0 0 0 0 0 0 0 0 0 0 0 0 0 0 0 0 0 0 0 0 0 0 0 0 0 0 0 0 0 0 0 0 0 0 0 0 0 0 0 0 0 0 0 0 0 0 0 0 0 0 0 0 0 0 0 0 0 0 0 0 0 0 0 0 0 0 0 0 0 0 0 0 0 0 0 0 0 0 -0.0031299157999455928802 -0.0051437723450362682343 -0.017151914536952972412 0 0 0 0 0 -0.00017080527322832494974 -0.000166586498380638659 -7.0669622800778597593e-05 -8.9655426563695073128e-05 -0.00014431997260544449091 -5.2138795581413432956e-05 0 0 0 0 0 0 0 0 0 0 0 0 0 -5.5953223636606708169e-05 0 0 0 -0.0001687791518634185195 -0.00086709682364016771317 -0.00023513437190558761358 0 0 0 -8.4707877249456942081e-05 -7.9261393693741410971e-05 -8.7600208644289523363e-05 -0.00010246023884974420071 -8.2372105680406093597e-05 -0.00010106648551300168037 -0.00068686198210343718529 -0.00057964859297499060631 -0.00066847901325672864914 -0.00033893485669977962971 -0.00024454982485622167587 -0.0002700391341932117939 -0.00041852638241834938526 -0.00036823804839514195919 -0.00021450023632496595383 -0.00029594587977044284344 -0.00053897517500445246696 -0.00024088971258606761694 -0.00021039477724116295576 0.0078660631552338600159 0.0052572926506400108337 0.0046288133598864078522 0.0040313736535608768463 0.0028991166036576032639 0.0035618322435766458511 0.0045845233835279941559 0.0034265520516782999039 0.0055835181847214698792 0.0073670265264809131622 0.0059393439441919326782 0.002668325323611497879 0.0044163824059069156647 0.044826380908489227295 0.065014764666557312012 0.036984417587518692017 0.017877498641610145569 0.010564506053924560547 0.0038661286234855651855 -0.00011209031799808144569 -6.3859719375614076853e-05 -5.3624069551005959511e-05 -5.7186996855307370424e-05 -0.00020069592574145644903 -0.000387008709367364645 -0.00010751182708190754056 -7.2106086008716374636e-05 -0.00019531036377884447575 -7.943900709506124258e-05 -0.00015341727703344076872 -0.00042384685366414487362 -0.00015614424773957580328 -0.00011549814371392130852 -0.00021755220950581133366 -0.00022675305081065744162 -0.00012398415128700435162 -0.00010314940300304442644 0 0 0 0 0 0 0 0 0 0 0 0 0 0 0 0 0 0 0 0 0 0 0 0 0 0 0 0 0 0 0 0 0 0 0 0 0 0 0 0 0 0 0 0 0 0 0 0 0 0 0 0 0 0 0 0 0 0 0 0 0 0 0 0 0 0 0 0 0 0 0 0 0 0 0 0 0 0 0 0 0 0 0 0 0 0 0 0 0 0 0 0 0 0 0 0 0 0 
0 0 0 0 0 0 0 0 0 0 0 0 0 0 0 0 0 0 0 0 0 0 0 0 0 0 0 0 0 0 0 0 0 0 0 0 0 0 0 0 0 0 0 0 0 0 0 0 0 0 0 0 0 0 0 0 0 0 0 0 0 0 0 0 0 0 0 0 0 0 0 0 0 0 0 0 0 0 0 0 0 0 0 0 0 0 0 0 0 0 0 0 0 0 0 0 0 0 0 -0.0018941067392006516457 -0.0051437723450362682343 -0.0039536808617413043976 -0.00050718587590381503105 -0.00041425894596613943577 -0.00077827170025557279587 -0.00014929161989130079746 -6.8962137447670102119e-05 -0.00017080527322832494974 -0.00010279751586494967341 -0.00010302945884177461267 -7.4289797339588403702e-05 -0.00014760576596017926931 -9.4104289019014686346e-05 -2.9638460546266287565e-05 0 0 0 0 0 0 0 0 0 0 0 0 0 0 0 0 0 0 0 0 0 -7.3238639743067324162e-05 -9.5579780463594943285e-05 -0.00016676273662596940994 -9.8808282928075641394e-05 -9.9820194009225815535e-05 -0.00011788759002229198813 -0.00012879980204161256552 -0.00062770472140982747078 -0.00079839082900434732437 -0.0012149889953434467316 -0.00061669235583394765854 -0.00024454982485622167587 -0.0002700391341932117939 -0.00047263252781704068184 -0.00032039842335507273674 -0.0014653861289843916893 -0.001949990750290453434 -0.0003071516111958771944 -0.00024088971258606761694 -0.00025008121156133711338 0.0050948448479175567627 0.015375440008938312531 0.013084107078611850739 0.0057086930610239505768 0.0028991166036576032639 0.0057728914543986320496 0.010548116639256477356 0.0047794678248465061188 0.006243639625608921051 0.004268387332558631897 0.0059393439441919326782 0.0077796392142772674561 0.027986878529191017151 0.022280087694525718689 0.0059362049214541912079 0.01408768724650144577 0.017877498641610145569 0.0031848154030740261078 0.020762480795383453369 0.014410631731152534485 -5.39055581612046808e-05 -0.0002076256641885265708 -5.7186996855307370424e-05 -0.00019794882973656058311 -0.00044122565304860472679 -0.00076017243554815649986 -0.0001927783014252781868 -9.2977374151814728975e-05 -7.943900709506124258e-05 0.1283705979585647583 0.15748091042041778564 0.15748091042041778564 -0.00013296470569912344217 -0.0002154232788598164916 -0.00022675305081065744162 0 0 0 0 0 0 0 0 0 0 0 0 0 0 0 0 0 0 0 0 0 0 0 0 0 0 0 0 0 0 0 0 0 0 0 0 0 0 0 0 0 0 0 0 0 0 0 0 0 0 0 0 0 0 0 0 0 0 0 0 0 0 0 0 0 0 0 0 0 0 0 0 0 0 0 0 0 0 0 0 0 0 0 0 0 0 0 0 0 0 0 0 0 0 0 0 0 0 0 0 
0 0 0 0 0 0 0 0 0 0 0 0 0 0 0 0 0 0 0 0 0 0 0 0 0 0 0 0 0 0 0 0 0 0 0 0 0 0 0 0 0 0 0 0 0 0 0 0 0 0 0 0 0 0 0 0 0 0 0 0 0 0 0 0 0 0 0 0 0 0 0 0 0 0 0 0 0 0 0 0 0 0 0 0 0 0 0 0 0 0 0 0 0 0 0 0 0 0 0 -0.015690246596932411194 -0.018985129892826080322 -0.0039536808617413043976 -0.00051269092364236712456 -0.00028740358538925647736 -0.00084075873019173741341 -0.00027743895770981907845 -5.6003056670306250453e-05 0.37465149164199829102 -0.00017096135707106441259 -0.00010302945884177461267 -0.00019678148964885622263 -0.00044006132520735263824 -9.7927222668658941984e-05 -7.5092015322297811508e-05 0 0 0 0 0 0 0 0 0 0 0 0 0 0 0 0 0 0 0 0 0 0 -5.2452200179686769843e-05 -0.0001219063487951643765 -7.6003576396033167839e-05 -6.6370070271659642458e-05 -0.00020289486565161496401 -0.00015700806397944688797 -0.00062770472140982747078 -0.0001877503091236576438 -0.00035012781154364347458 -0.00020250976376701146364 -0.00016870148829184472561 -0.00048641956527717411518 -0.00047263252781704068184 -0.00035973911872133612633 -0.00039559282595291733742 -0.00067033956293016672134 -0.00040594863821752369404 -0.00033093601814471185207 -0.00025008121156133711338 -0.00073491525836288928986 0.018905419856309890747 0.044328000396490097046 0.0052580074407160282135 0.0036199379246681928635 0.0057728914543986320496 0.0062806196510791778564 0.011821993626654148102 0.007746044546365737915 0.0066220103763043880463 0.0042417831718921661377 0.0077796392142772674561 0.0071123698726296424866 0.0053398334421217441559 0.0059867417439818382263 0.0030219375621527433395 0.0071192099712789058685 0.0031848154030740261078 0.020762480795383453369 0.0077415169216692447662 -0.00033648323733359575272 -0.00010341977031202986836 -7.1911417762748897076e-05 -0.00019794882973656058311 -0.00044122565304860472679 -0.00083663588156923651695 0.1283705979585647583 0.1283705979585647583 0.1283705979585647583 0.1283705979585647583 0.15748091042041778564 0 0 0 0 0 0 0 0 0 0 0 0 0 0 0 0 0 0 0 0 0 0 0 0 0 0 0 0 0 0 0 0 0 0 0 0 0 0 0 0 0 0 0 0 0 0 0 0 0 0 0 0 0 0 0 0 0 0 0 0 0 0 0 0 0 0 0 0 0 0 0 0 0 0 0 0 0 0 0 0 0 0 0 0 0 0 0 0 0 0 0 0 0 0 0 0 0 0 0 0 0 0 0 0 
0 0 0 0 0 0 0 0 0 0 0 0 0 0 0 0 0 0 0 0 0 0 0 0 0 0 0 0 0 0 0 0 0 0 0 0 0 0 0 0 0 0 0 0 0 0 0 0 0 0 0 0 0 0 0 0 0 0 0 0 0 0 0 0 0 0 0 0 0 0 0 0 0 0 0 0 0 0 0 0 0 0 0 0 0 0 0 0 0 0 0 0 0 0 0 0 0 0 0 -0.003180025145411491394 -0.008731777779757976532 -0.00081846024841070175171 -0.00074251892510801553726 -0.00042136848787777125835 -0.00022594191250391304493 -0.00018819567048922181129 -0.0003664987452793866396 -4.9672558816382661462e-05 -8.0608224379830062389e-05 -0.00010730635403888300061 -0.00019678148964885622263 -0.0013576620258390903473 -0.00017416439368389546871 -0.00035237969132140278816 -0.000323819316690787673 0 0 0 0 0 0 0 0 0 0 0 0 0 0 0 0 0 0 0 0 -4.0528004319639876485e-05 -7.8766061051283031702e-05 -0.00014112275675870478153 -6.6388631239533424377e-05 -8.2399390521459281445e-05 -0.00018690939759835600853 -0.00016611268802080303431 -0.00011155022366438060999 -0.0001877503091236576438 -0.0006898288847878575325 -0.00064548611408099532127 -0.00013370129454415291548 -0.00014580055722035467625 -0.00076387089211493730545 -0.00035973911872133612633 -0.00043751741759479045868 -0.00026522506959736347198 -0.00035670498618856072426 -0.00082002184353768825531 -0.00068602117244154214859 -0.00073491525836288928986 -0.00072177767287939786911 0.015226555988192558289 0.066509462893009185791 0.042235717177391052246 0.0073602492921054363251 0.0062806196510791778564 0.0054643815383315086365 0.0078243315219879150391 0.0073029096238315105438 0.0082486318424344062805 0.0057763801887631416321 0.0071123698726296424866 0.0053398334421217441559 0.0044023273512721061707 0.020132759585976600647 0.0066018784418702125549 0.0038336329162120819092 0.008502072654664516449 0.0077415169216692447662 -0.0032098705414682626724 -0.0019896952435374259949 -0.00084133760537952184677 -0.0003926514764316380024 -0.00055750069441273808479 -0.00083663588156923651695 0 0 0 0 0 0 0 0 0 0 0 0 0 0 0 0 0 0 0 0 0 0 0 0 0 0 0 0 0 0 0 0 0 0 0 0 0 0 0 0 0 0 0 0 0 0 0 0 0 0 0 0 0 0 0 0 0 0 0 0 0 0 0 0 0 0 0 0 0 0 0 0 0 0 0 0 0 0 0 0 0 0 0 0 0 0 0 0 0 0 0 0 0 0 0 0 0 0 0 0 0 0 0 0 0 0 0 0 0 
0 0 0 0 0 0 0 0 0 0 0 0 0 0 0 0 0 0 0 0 0 0 0 0 0 0 0 0 0 0 0 0 0 0 0 0 0 0 0 0 0 0 0 0 0 0 0 0 0 0 0 0 0 0 0 0 0 0 0 0 0 0 0 0 0 0 0 0 0 0 0 0 0 0 0 0 0 0 0 0 0 0 0 0 0 0 0 0 0 0 0 0 0 0 0 0 0 0 0 -0.0010288091143593192101 -0.00073366687865927815437 -0.00026632082881405949593 -0.00036904567969031631947 -0.0045536491088569164276 -0.0025042225606739521027 -0.00022594191250391304493 -0.00015604104555677622557 -9.4164715847000479698e-05 -0.00021859952539671212435 -0.0011664871126413345337 -0.00059750466607511043549 -0.0013576620258390903473 -0.00014157718396745622158 -0.0001887204416561871767 -0.00010928132542176172137 0 0 0 0 0 0 0 0 0 0 0 0 0 0 0 0 0 0 0 0 -5.2462659368757158518e-05 -0.00014049946912564337254 -0.00014112275675870478153 -9.6114061307162046432e-05 -5.3024617955088615417e-05 -0.00010926005052169784904 -0.0001437981409253552556 -8.6358886619564145803e-05 -7.5212061346974223852e-05 -0.0006898288847878575325 -0.00033514891401864588261 -0.00012399959086906164885 -0.00011205430928384885192 -0.00018906367768067866564 -0.00053395645227283239365 -0.00043751741759479045868 -0.00011155915126437321305 0.5871632695198059082 -0.00036078764242120087147 -0.0003943807678297162056 -0.00044417945900931954384 -0.00072177767287939786911 0.014537896960973739624 0.042310852557420730591 0.05948541685938835144 0.01457907259464263916 0.04890208318829536438 0.0054643815383315086365 0.0078243315219879150391 0.0042071077041327953339 0.0044479086063802242279 0.0051306230016052722931 0.052759829908609390259 0.023297771811485290527 0.0044023273512721061707 0.003408869495615363121 0.0044695800170302391052 -0.00056854396825656294823 -0.00043837906559929251671 -0.00029528999584726989269 -0.0032098705414682626724 -0.00031939375912770628929 -0.00064557703444734215736 -0.00093924667453393340111 0 0 0 0 0 0 0 0 0 0 0 0 0 0 0 0 0 0 0 0 0 0 0 0 0 0 0 0 0 0 0 0 0 0 0 0 0 0 0 0 0 0 0 0 0 0 0 0 0 0 0 0 0 0 0 0 0 0 0 0 0 0 0 0 0 0 0 0 0 0 0 0 0 0 0 0 0 0 0 0 0 0 0 0 0 0 0 0 0 0 0 0 0 0 0 0 0 0 0 0 0 0 0 0 0 0 0 0 0 0 0 
0 0 0 0 0 0 0 0 0 0 0 0 0 0 0 0 0 0 0 0 0 0 0 0 0 0 0 0 0 0 0 0 0 0 0 0 0 0 0 0 0 0 0 0 0 0 0 0 0 0 0 0 0 0 0 0 0 0 0 0 0 0 0 0 0 0 0 0 0 0 0 0 0 0 0 0 0 0 0 0 0 0 0 0 0 0 0 0 0 0 0 0 0 0 0 0 0 0 0 -0.0010288091143593192101 -0.0011226576752960681915 -0.0010669764596968889236 -0.0002476065419614315033 -0.00024496717378497123718 -0.0002297047758474946022 -0.00138098117895424366 -0.00018717351485975086689 -8.0826117482502013445e-05 -9.9620287073776125908e-05 -0.0001355688145849853754 -0.00018913098028860986233 -0.00024155611754395067692 -0.00014157718396745622158 -0.0001887204416561871767 -0.00017012415628414601088 0 0 0 0 0 0 0 0 0 0 0 0 0 0 0 0 0 0 0 0 -5.3151848987909033895e-05 -0.00010419290629215538502 -5.2197450713720172644e-05 -5.8749006711877882481e-05 -4.9031295930035412312e-05 -0.00017817683692555874586 -0.00024154510174412280321 -0.00012919513392262160778 -8.6334897787310183048e-05 -0.00013304855383466929197 -0.00037279305979609489441 -0.00013080774806439876556 -8.8550405052956193686e-05 -7.8735654824413359165e-05 -0.00038316319114528596401 -0.00046101352199912071228 -0.00011155915126437321305 0.5871632695198059082 -0.00017629929061513394117 0.5871632695198059082 -2.1963176550343632698e-05 -0.0003935245040338486433 0.014537896960973739624 0.042310852557420730591 0.0079459082335233688354 0.0071908417157828807831 0.010083299130201339722 0.04851740226149559021 0.011194945313036441803 0.0042071077041327953339 0.0043586632236838340759 0.011201630346477031708 0.0046072271652519702911 0.010130240581929683685 0.0036969301290810108185 0.003408869495615363121 -0.00062215758953243494034 -0.00039530658978037536144 -0.0030801577959209680557 -0.00093496154295280575752 -0.00031742049031890928745 -0.00031939375912770628929 -0.0018836971139535307884 -0.0028814105316996574402 -0.00044477698975242674351 -0.00042099450365640223026 0 0 0 0 0 0 0 0 0 0 0 0 0 0 0 0 0 0 0 0 0 0 0 0 0 0 0 0 0 0 0 0 0 0 0 0 0 0 0 0 0 0 0 0 0 0 0 0 0 0 0 0 0 0 0 0 0 0 0 0 0 0 0 0 0 0 0 0 0 0 0 0 0 0 0 0 0 0 0 0 0 0 0 0 0 0 0 0 0 0 0 0 0 0 0 0 0 0 0 0 0 0 0 0 0 0 0 0 0 
0 0 0 0 0 0 0 0 0 0 0 0 0 0 0 0 0 0 0 0 0 0 0 0 0 0 0 0 0 0 0 0 0 0 0 0 0 0 0 0 0 0 0 0 0 0 0 0 0 0 0 0 0 0 0 0 0 0 0 0 0 0 0 0 0 0 0 0 0 0 0 0 0 0 0 0 0 0 0 0 0 0 0 0 0 0 0 0 0 0 0 0 0 0 0 0 0 0 0 -0.0025754449889063835144 -0.0011226576752960681915 -0.00087445974349975585938 -0.00081562605919316411018 -0.00026541386614553630352 -0.00018289557192474603653 -0.000201298942556604743 -0.00018667784752324223518 -0.00029099310631863772869 -8.6550578998867422342e-05 -0.00015439820708706974983 -0.00017426059639547020197 -0.00026679935399442911148 -0.00020519756071735173464 -0.00026023405371233820915 -0.00017012415628414601088 0 0 0 0 0 0 0 0 0 0 0 0 0 0 0 0 0 0 0 0 0.17469635605812072754 -0.00015577720478177070618 -7.7663789852522313595e-05 -7.7543409133795648813e-05 -9.8115007858723402023e-05 -9.5291412435472011566e-05 -0.0007502848748117685318 -0.00022661374532617628574 -9.8696298664435744286e-05 -0.00010920735803665593266 -0.00037106426316313445568 -0.00030322032398544251919 -8.8550405052956193686e-05 -0.00027428631437942385674 -0.0020017288625240325928 -0.00095281709218397736549 -0.0003195542958565056324 -5.202460670261643827e-05 -0.00017629929061513394117 -0.0004016277962364256382 -0.00038722623139619827271 0.0040063229389488697052 0.0056197606027126312256 0.010917247273027896881 0.0079459082335233688354 0.0070217787288129329681 0.0034081421326845884323 0.012696417979896068573 0.014455831609666347504 0.011067316867411136627 0.0043586632236838340759 0.0035712681710720062256 0.0061109573580324649811 -0.00035999398096464574337 0.0036029752809554338455 0.014244924299418926239 -0.00062215758953243494034 -0.0010647940216585993767 -0.0030089456122368574142 -0.0027302952948957681656 -0.001304933568462729454 -0.00087783322669565677643 -0.0018836971139535307884 -0.0028814105316996574402 -0.00027417307137511670589 -0.00036326784174889326096 0 0 0 0 0 0 0 0 0 0 0 0 0 0 0 0 0 0 0 0 0 0 0 0 0 0 0 0 0 0 0 0 0 0 0 0 0 0 0 0 0 0 0 0 0 0 0 0 0 0 0 0 0 0 0 0 0 0 0 0 0 0 0 0 0 0 0 0 0 0 0 0 0 0 0 0 0 0 0 0 0 0 0 0 0 0 0 0 0 0 0 0 0 0 0 0 0 0 0 0 0 0 0 0 0 0 0 0 0 
0 0 0 0 0 0 0 0 0 0 0 0 0 0 0 0 0 0 0 0 0 0 0 0 0 0 0 0 0 0 0 0 0 0 0 0 0 0 0 0 0 0 0 0 0 0 0 0 0 0 0 0 0 0 0 0 0 0 0 0 0 0 0 0 0 0 0 0 0 0 0 0 0 0 0 0 0 0 0 0 0 0 0 0 0 0 0 0 0 0 0 0 0 0 0 0 0 0 -0.0006775148794986307621 -0.00067399797262623906136 -0.0010310247307643294334 -0.00087445974349975585938 -0.00081562605919316411018 -0.027083752676844596863 -0.00034270461765117943287 -0.00041432297439314424992 -0.0018066515913233160973 -0.0016064377268776297569 -0.00021696113981306552887 -0.00015439820708706974983 -0.00021633089636452496052 -0.00025002649636007845402 -0.00030641438206657767296 -0.0006478359573520720005 -0.00020142766879871487617 0 0 0 0 0 0 0 0 0 0 0 0 0 0 0 0 0 0 0 0 0.17469635605812072754 -5.4879852541489526629e-05 -4.4462827645475044847e-05 -5.1528728363336995244e-05 -0.00010941146319964900613 -0.00052567990496754646301 -0.0018818378448486328125 -0.0007502848748117685318 -8.9577901235315948725e-05 -8.0281875852961093187e-05 -7.3927214543800801039e-05 -8.5577128629665821791e-05 -5.4850392189109697938e-05 -0.00027428631437942385674 -0.00074366538319736719131 -0.00049947277875617146492 -0.0010020381305366754532 -0.00083278375677764415741 -0.0021598208695650100708 -0.0004016277962364256382 0.010840598493814468384 0.0059595298953354358673 0.0026404743548482656479 0.0029033231548964977264 0.049088954925537109375 0.0070217787288129329681 0.0045883781276643276215 0.003046201774850487709 0.0025109753478318452835 -0.00020162663713563233614 -0.00027274957392364740372 0.0035712681710720062256 -0.00099623564165085554123 -0.0010646585142239928246 -0.00084442412480711936951 -0.002226366894319653511 -0.001969476696103811264 -0.0010647940216585993767 -0.0030089456122368574142 -0.0010677489917725324631 -0.00052142440108582377434 -0.00071018008748069405556 -0.0032268462236970663071 -0.0010824085911735892296 -0.00027417307137511670589 -0.00063795881578698754311 0.62134438753128051758 0 0 0 0 0 0 0 0 0 0 0 0 0 0 0 0 0 0 0 0 0 0 0 0 0 0 0 0 0 0 0 0 0 0 0 0 0 0 0 0 0 0 0 0 0 0 0 0 0 0 0 0 0 0 0 0 0 0 0 0 0 0 0 0 0 0 0 0 0 0 0 0 0 0 0 0 0 0 0 0 0 0 0 0 0 0 0 0 0 0 0 0 0 0 0 0 0 0 0 0 0 0 0 0 0 0 0 0 
0 0 0 0 0 0 0 0 0 0 0 0 0 0 0 0 0 0 0 0 0 0 0 0 0 0 0 0 0 0 0 0 0 0 0 0 0 0 0 0 0 0 0 0 0 0 0 0 0 0 0 0 0 0 0 0 0 0 0 0 0 0 0 0 0 0 0 0 0 0 0 0 0 0 0 0 0 0 0 0 0 0 0 0 0 0 0 0 0 0 0 0 0 0 0 0 0 0 0 -0.0019196079811081290245 -0.00060699286404997110367 -0.0018076905980706214905 -0.015072073787450790405 -0.027083752676844596863 -0.0051885009743273258209 -0.0013753940584138035774 -0.00058246235130354762077 -0.0007205139845609664917 -0.00029140338301658630371 -9.3479509814642369747e-05 -0.00021633089636452496052 -0.00038648347253911197186 -0.00048840942326933145523 -0.0007157979416660964489 0.017817065119743347168 0.0091824205592274665833 0 0 0 0.013425553217530250549 0.037056956440210342407 0.011691354215145111084 0 0 0 0 0 0 0 0 0 0 0 0 0 0.17469635605812072754 -5.4879852541489526629e-05 -0.00013697193935513496399 -0.00013279762060847133398 -0.00011639075819402933121 -0.00015697722847107797861 -0.0006491273525170981884 -0.00022486495436169207096 -0.00011632680980255827308 -6.9606314355041831732e-05 -6.9247973442543298006e-05 -8.3575701864901930094e-05 -0.00021124831982888281345 -0.00014524842845275998116 -0.00016137382772285491228 0 -0.0014420378720387816429 -0.00079359678784385323524 -0.00058256991906091570854 -0.00059767783386632800102 0.020278241485357284546 0.0027341539971530437469 0.0033312139566987752914 0.0046047815121710300446 0.013108901679515838623 0.014044213108718395233 0.0045883781276643276215 0.0035948555450886487961 0.0047706142067909240723 -0.00030019477708265185356 -0.00027612678240984678268 -0.00036879532854072749615 -0.00099623564165085554123 -0.0010646585142239928246 -0.0035919991787523031235 -0.0057459743693470954895 -0.0027611260302364826202 -0.00075937301153317093849 -0.0014543709112331271172 -0.0010677489917725324631 -0.0031364017631858587265 -0.0073390388861298561096 -0.0048202648758888244629 -0.0011197145795449614525 -0.00081024150131270289421 -0.00063795881578698754311 0 0 0 0 0 0 0 0 0 0 0 0 0 0 0 0 0 0 0 0 0 0 0 0 0 0 0 0 0 0 0 0 0 0 0 0 0 0 0 0 0 0 0 0 0 0 0 0 0 0 0 0 0 0 0 0 0 0 0 0 0 0 0 0 0 0 0 0 0 0 0 0 0 0 0 0 0 0 0 0 0 0 0 0 0 0 0 0 0 0 0 0 0 0 0 0 0 0 0 0 0 0 0 0 0 0 0 0 0 
0 0 0 0 0 0 0 0 0 0 0 0 0 0 0 0 0 0 0 0 0 0 0 0 0 0 0 0 0 0 0 0 0 0 0 0 0 0 0 0 0 0 0 0 0 0 0 0 0 0 0 0 0 0 0 0 0 0 0 0 0 0 0 0 0 0 0 0 0 0 0 0 0 0 0 0 0 0 0 0 0 0 0 0 0 0 0 0 0 0 0 0 0 0 0 0 0 0 0 -0.0040741492994129657745 -0.0045082401484251022339 -0.0020007560960948467255 -0.022493565455079078674 -0.040456861257553100586 -0.0051885009743273258209 -0.00043050348176620900631 -0.0011398629285395145416 -0.0026285694912075996399 -0.00043993638246320188046 -0.0004283411253709346056 -0.00022680308029521256685 -0.00032637864933349192142 0.0067886211909353733063 0.013945970684289932251 0.0043092854321002960205 0.0044019175693392753601 0.010515001602470874786 0 0 0.0091503458097577095032 0.01918432675302028656 0.017249414697289466858 0.038999367505311965942 0 0 0 0 0 0 0 0 0 0 0 0 -0 -0.00010711840150179341435 -0.00013697193935513496399 -0.00012145248911110684276 -0.0001649254263611510396 -7.8974306234158575535e-05 -0.00011639711738098412752 -7.8224416938610374928e-05 -7.8250101068988442421e-05 -6.8715358793269842863e-05 -8.1280035374220460653e-05 -9.611356654204428196e-05 -0.00013727866462431848049 -7.8129502071533352137e-05 -5.33684033143799752e-05 -0.00010990755981765687466 0.0077617382630705833435 0.012588590383529663086 0.10348453372716903687 0.026183489710092544556 0.0099651636555790901184 0.0060400627553462982178 0.0033312139566987752914 0.0062515670433640480042 0.0092681823298335075378 0.0055074151605367660522 0.0077392715029418468475 0.012738057412207126617 0.0047706142067909240723 -0.00049207435222342610359 -0.00054748961701989173889 -0.00034150495775975286961 -0.0035580794792622327805 -0.002617109101265668869 -0.0035919991787523031235 0.0041646431200206279755 0.0058303526602685451508 -0.00047216244274750351906 -0.00053565122652798891068 -0.00113297230564057827 -0.0031364017631858587265 -0.008150904439389705658 -0.0045324526727199554443 -0.00062403723131865262985 -0.00049687887076288461685 -0.00038663914892822504044 0 0 0 0 0 0 0 0 0 0 0 0 0 0 0 0 0 0 0 0 0 0 0 0 0 0 0 0 0 0 0 0 0 0 0 0 0 0 0 0 0 0 0 0 0 0 0 0 0 0 0 0 0 0 0 0 0 0 0 0 0 0 0 0 0 0 0 0 0 0 0 0 0 0 0 0 0 0 0 0 0 0 0 0 0 0 0 0 0 0 0 0 0 0 0 0 0 0 0 0 0 0 0 0 0 0 0 0 0 
0 0 0 0 0 0 0 0 0 0 0 0 0 0 0 0 0 0 0 0 0 0 0 0 0 0 0 0 0 0 0 0 0 0 0 0 0 0 0 0 0 0 0 0 0 0 0 0 0 0 0 0 0 0 0 0 0 0 0 0 0 0 0 0 0 0 0 0 0 0 0 0 0 0 0 0 0 0 0 0 0 0 0 0 0 0 0 0 0 0 0 0 0 0 0 0 0 0 0 -0.0040741492994129657745 -0.0029144186992198228836 -0.00088729686103761196136 -0.0062441136687994003296 -0.0045263706706464290619 -0.00049533590208739042282 -0.00043050348176620900631 -0.00050052773440256714821 -0.0014647545758634805679 -0.00078144867438822984695 0.016415445134043693542 0.010428120382130146027 0.01360542885959148407 0.0044311285018920898438 0.0047995974309742450714 0.003534140298143029213 0.0038347260560840368271 0.008091907016932964325 0.017153134569525718689 0.015465369448065757751 0.0091503458097577095032 0.10513982921838760376 0.11679285764694213867 0.15186108648777008057 0 0 0 0 0 0 0 0 0 0 0 0 0.18638919293880462646 0.1937611997127532959 0.026083361357450485229 -0.00021093094255775213242 -0.0001649254263611510396 -0.00015425558376591652632 -7.040498894639313221e-05 -5.4149135394254699349e-05 -6.7646848037838935852e-05 -0.00013606289576273411512 -7.7201570093166083097e-05 -0.00019763343152590095997 -3.5434379242360591888e-05 0 0 0 0 0.012588590383529663086 0.0350133553147315979 0.019287841394543647766 0.0098768323659896850586 0.007463121321052312851 0.0048174262046813964844 0.0062515670433640480042 0.011918109841644763947 0.0045506926253437995911 0.0050092320889234542847 0.0058164289221167564392 0.0083726197481155395508 -0.00049207435222342610359 0.0064303623512387275696 0.0052551249973475933075 0.004606873728334903717 0.0036332693416625261307 -0.0004501580260694026947 0.0041646431200206279755 0.0036350658629089593887 0.0079154046252369880676 -0.00042989861685782670975 -0.00075166870374232530594 -0.00066609331406652927399 -0.008150904439389705658 -0.0006700299563817679882 -0.00063988228794187307358 -0.00047918062773533165455 0 0 0 0 0 0 0 0 0 0 0 0 0 0 0 0 0 0 0 0 0 0 0 0 0 0 0 0 0 0 0 0 0 0 0 0 0 0 0 0 0 0 0 0 0 0 0 0 0 0 0 0 0 0 0 0 0 0 0 0 0 0 0 0 0 0 0 0 0 0 0 0 0 0 0 0 0 0 0 0 0 0 0 0 0 0 0 0 0 0 0 0 0 0 0 0 0 0 0 0 0 0 0 0 0 0 0 0 0 0 
0 0 0 0 0 0 0 0 0 0 0 0 0 0 0 0 0 0 0 0 0 0 0 0 0 0 0 0 0 0 0 0 0 0 0 0 0 0 0 0 0 0 0 0 0 0 0 0 0 0 0 0 0 0 0 0 0 0 0 0 0 0 0 0 0 0 0 0 0 0 0 0 0 0 0 0 0 0 0 0 0 0 0 0 0 0 0 0 0 0 0 0 0 0 0 0 0 -0.0025368842761963605881 -0.0010097763733938336372 -0.0017175055108964443207 -0.0029144186992198228836 -0.0021784002892673015594 -0.0042147771455347537994 -0.003249972127377986908 -0.0028724377043545246124 -0.0016484536463394761086 -0.0012878439156338572502 -0.00048353779129683971405 0.018654560670256614685 0.028847631067037582397 0.015747463330626487732 0.02513934113085269928 0.0059863738715648651123 0.0098244929686188697815 0.003534140298143029213 0.0073065017350018024445 0.0078958543017506599426 0.018155327066779136658 0.069210633635520935059 0.016257505863904953003 0.10513982921838760376 0.098543398082256317139 0 0 0 0 0 0 0 0 0 0 0 0 0 0 0 0.053654644638299942017 -9.0511704911477863789e-05 -0.00014956010272726416588 -0.00015425558376591652632 -6.1250473663676530123e-05 -7.7827862696722149849e-05 -5.6573331676190719008e-05 -0.00013658106036018580198 -0.00013126079284120351076 -0.00019763343152590095997 -3.0261515348684042692e-05 -0.0005219325539655983448 -0.0010587699944153428078 -0.0014320517657324671745 -0.00093630095943808555603 0.0073442170396447181702 0.01352792792022228241 0.0066342232748866081238 0.017097402364015579224 0.022400885820388793945 0.0053837462328374385834 0.0029751046095043420792 0.0069122863933444023132 0.0011524109868332743645 0.0041746846400201320648 0.0073403897695243358612 0.031547136604785919189 0.01012563798576593399 0.003158667590469121933 0.0051875468343496322632 0.0033218695316463708878 0.0049808318726718425751 0.009609568864107131958 0.0031896957661956548691 0.0036350658629089593887 0.003344607306644320488 -0.00020008329011034220457 -0.00032802284113131463528 -0.00069695472484454512596 -0.0003765282162930816412 -0.0006700299563817679882 -0.00063988228794187307358 -0.00045648386003449559212 0 0 0 0 0 0 0 0 0 0 0 0 0 0 0 0 0 0 0 0 0 0 0 0 0 0 0 0 0 0 0 0 0 0 0 0 0 0 0 0 0 0 0 0 0 0 0 0 0 0 0 0 0 0 0 0 0 0 0 0 0 0 0 0 0 0 0 0 0 0 0 0 0 0 0 0 0 0 0 0 0 0 0 0 0 0 0 0 0 0 0 0 0 0 0 0 0 0 0 0 0 0 0 0 0 0 0 0 0 0 
0 0 0 0 0 0 0 0 0 0 0 0 0 0 0 0 0 0 0 0 0 0 0 0 0 0 0 0 0 0 0 0 0 0 0 0 0 0 0 0 0 0 0 0 0 0 0 0 0 0 0 0 0 0 0 0 0 0 0 0 0 0 0 0 0 0 0 0 0 0 0 0 0 0 0 0 0 0 0 0 0 0 0 0 0 0 0 0 0 0 0 0 0 0 0 0 0 0 -0.0009021153673529624939 -0.002223479095846414566 -0.0028776200488209724426 -0.0021784002892673015594 -0.0042147771455347537994 -0.0079977679997682571411 -0.0035188649781048297882 -0.0058057331480085849762 -0.0014980194391682744026 -0.001666878117248415947 -0.0015927109634503722191 0.015150572173297405243 0.032354131340980529785 0.012586508877575397491 0.019065245985984802246 0.0089856395497918128967 0.0067111207172274589539 0.0073065017350018024445 0.010033021681010723114 0.03467300906777381897 0.018448885530233383179 0.031512498855590820312 0.060183994472026824951 0.098543398082256317139 0 0 0 0 0 0 0 0 0 0 0 0 0 0 0 0 -0.00010579076479189097881 -5.1815768529195338488e-05 -4.9248199502471834421e-05 -6.1250473663676530123e-05 -6.8699540861416608095e-05 -8.1267629866488277912e-05 0 0 0 -0.001334238564595580101 -0.00075993780046701431274 -0.0012508308282122015953 -0.0014419240178540349007 0.0056344778276979923248 0.0085610970854759216309 0.015066752210259437561 0.012273674830794334412 0.020531738176941871643 0.012693825177848339081 0.0064108055084943771362 0.0044014533050358295441 0.0011971479980275034904 0.0024352436885237693787 0.0091545367613434791565 0.0075317467562854290009 0.0081221451982855796814 0.0060679004527628421783 0.0040167812258005142212 0.0025788806378841400146 0.0058151278644800186157 0.01734266430139541626 0.029072789475321769714 0.010374290868639945984 0.0057775597088038921356 0.0041342079639434814453 -0.00020008329011034220457 -0.0003355125372763723135 -0.00067436572862789034843 -0.00079219235340133309364 -0.0026370459236204624176 -0.00090203608851879835129 -0.00045648386003449559212 0 0 0 0 0 0 0 0 0 0 0 0 0 0 0 0 0 0 0 0 0 0 0 0 0 0 0 0 0 0 0 0 0 0 0 0 0 0 0 0 0 0 0 0 0 0 0 0 0 0 0 0 0 0 0 0 0 0 0 0 0 0 0 0 0 0 0 0 0 0 0 0 0 0 0 0 0 0 0 0 0 0 0 0 0 0 0 0 0 0 0 0 0 0 0 0 0 0 0 0 0 0 0 0 0 0 0 0 0 0 
0 0 0 0 0 0 0 0 0 0 0 0 0 0 0 0 0 0 0 0 0 0 0 0 0 0 0 0 0 0 0 0 0 0 0 0 0 0 0 0 0 0 0 0 0 0 0 0 0 0 0 0 0 0 0 0 0 0 0 0 0 0 0 0 0 0 0 0 0 0 0 0 0 0 0 0 0 0 0 0 0 0 0 0 0 0 0 0 0 0 0 0 0 0 0 0 0 0 -0.00087409035768359899521 -0.00038695562398061156273 -0.001173517666757106781 -0.001990336226299405098 -0.012133468873798847198 -0.0079977679997682571411 0.021316897124052047729 0.029621496796607971191 0.016546178609132766724 0.00697785988450050354 0.048783484846353530884 0.015150572173297405243 0.18338729441165924072 0.0040258420631289482117 0.016247650608420372009 0.032971799373626708984 0.012648598290979862213 0.010857409797608852386 0.010033021681010723114 0.0079611474648118019104 0.0075535788200795650482 0.012376277707517147064 0.031830906867980957031 0.037346769124269485474 0 0 0 0 0 0 0 0 0 0 0 0 0 0 0 0 0 0 -3.4864879125962033868e-05 -8.2093742094002664089e-05 0 0 0 1.5221431255340576172 -0.0020556256640702486038 -0.0013896030141040682793 -0.0010382614564150571823 -0.0011072732741013169289 -0.022798398509621620178 -0.0024503523018211126328 -0.0020880473311990499496 -0.0031431349925696849823 0.011576142162084579468 0.00107074761763215065 0.0090105496346950531006 0.0012103207409381866455 0.00069339782930910587311 0.00096743309404700994492 0.0012235321337357163429 0.0040700677782297134399 0.0075317467562854290009 0.0052786744199693202972 0.014798591844737529755 0.0057866699062287807465 0.0033643329516053199768 0.007815512828528881073 0.01734266430139541626 0.063366025686264038086 0.017988454550504684448 0.0045119142159819602966 0.0070468676276504993439 0.0044007790274918079376 -0.0003355125372763723135 0.033802624791860580444 0.012169765308499336243 -0.000386085856007412076 -0.00036547871422953903675 0.018032321706414222717 0 0 0 0 0 0 0 0 0 0 0 0 0 0 0 0 0 0 0 0 0 0 0 0 0 0 0 0 0 0 0 0 0 0 0 0 0 0 0 0 0 0 0 0 0 0 0 0 0 0 0 0 0 0 0 0 0 0 0 0 0 0 0 0 0 0 0 0 0 0 0 0 0 0 0 0 0 0 0 0 0 0 0 0 0 0 0 0 0 0 0 0 0 0 0 0 0 0 0 0 0 0 0 0 0 0 0 0 0 0 
0 0 0 0 0 0 0 0 0 0 0 0 0 0 0 0 0 0 0 0 0 0 0 0 0 0 0 0 0 0 0 0 0 0 0 0 0 0 0 0 0 0 0 0 0 0 0 0 0 0 0 0 0 0 0 0 0 0 0 0 0 0 0 0 0 0 0 0 0 0 0 0 0 0 0 0 0 0 0 0 0 0 0 0 0 0 0 0 0 0 0 0 0 0 0 0 0 0 -0.00050873606232926249504 -0.00037632172461599111557 -0.0040750266052782535553 -0.0023097472731024026871 -0.0019946261309087276459 0.022445695474743843079 0.021316897124052047729 0.14193512499332427979 0.011541544459760189056 0.01041417289525270462 0.013533945195376873016 0.037085521966218948364 0.029936425387859344482 0.018253324553370475769 0.0044208290055394172668 0.013310826383531093597 0.12403539568185806274 0.097570128738880157471 0.063995383679866790771 0.026049977168440818787 0.0075535788200795650482 0.020854782313108444214 0.020062396302819252014 0.014842905104160308838 0 0 0 0 0 0 0 0 0 0 0 0 0 0 0 0 0 0 0 0 0.26803678274154663086 0 0 -9.6115421911235898733e-05 -0.0027370804455131292343 -0.032533768564462661743 -0.0084044216200709342957 -0.0089262919500470161438 -0.022798398509621620178 -0.0058403848670423030853 -0.0018970372620970010757 0.0012684067478403449059 0.0022741211578249931335 0.0023483582772314548492 0.0090105496346950531006 0.0015518751461058855057 0.0092786159366369247437 0.021072104573249816895 0.0039500445127487182617 0.0049496064893901348114 0.007333375047892332077 0.0052396776154637336731 0.01458569057285785675 0.011601412668824195862 0.0060101798735558986664 0.0099975317716598510742 0.0090932603925466537476 0.023947631940245628357 0.0040910774841904640198 0.0026497405488044023514 0.0044101993553340435028 0.0066944709978997707367 0.0084837200120091438293 0.007852815091609954834 0.0081957858055830001831 -0.00095067155780270695686 -0.0028974274173378944397 0.0032930760644376277924 0.0030354030895978212357 0.0041350866667926311493 0.0034396345727145671844 0 0 0 0 0 0.0044119306840002536774 0.0028586944099515676498 0 0.0034405675251036882401 0.006216275971382856369 0.0019834968261420726776 0 0 0 0 0 0 0 0 0 0 0 0 0 0 0 0 0 0 0 0 0 0 0 0 0 0 0 0 0 0 0 0 0 0 0 0 0 0 0 0 0 0 0 0 0 0 0 0 0 0 0 0 0 0 0 0 0 0 0 0 0 0 0 0 0 0 0 0 0 0 0 0 0 0 0 0 0 0 0 0 0 0 0 0 0 0 0 0 0 0 0 0 0 0 0 0 
0 0 0 0 0 0 0 0 0 0 0 0 0 0 0 0 0 0 0 0 0 0 0 0 0 0 0 0 0 0 0 0 0 0 0 0 0 0 0 0 0 0 0 0 0 0 0 0 0 0 0 0 0 0 0 0 0 0 0 0 0 0 0 0 0 0 0 0 0 0 0 0 0 0 0 0 0 0 0 0 0 0 0 0 0 0 0 0 0 0 0 0 0 0 0 0 0 0 -0.00050873606232926249504 -0.00037632172461599111557 -0.0014054455095902085304 -0.0026991355698555707932 0.017563208937644958496 0.025702096521854400635 0.024656880646944046021 0.14193512499332427979 0.059882484376430511475 0.03775343671441078186 0.055144272744655609131 0.01543074287474155426 0.013932283036410808563 0.01329533010721206665 0.01585830003023147583 0.017949350178241729736 0.12553952634334564209 0.10699235647916793823 0.12858743965625762939 0.15539561212062835693 0.009524995461106300354 0.020854782313108444214 0 0 0 0 0 0 0 0 0 0 0 0 0 0 0 0 0.26803678274154663086 -0.00013661605771631002426 -0.00014435635239351540804 0 -0.0002161326119676232338 -0.0001087216805899515748 -0.00046411633957177400589 -0.00037902596523053944111 -0.00012249613064341247082 -9.6115421911235898733e-05 -0.00011056869698222726583 -0.021106718108057975769 -0.03075346723198890686 -0.019711049273610115051 -0.022993478924036026001 -0.0058403848670423030853 -0.003304654732346534729 -0.0090156951919198036194 0.035916142165660858154 0.020071806386113166809 0.028641674667596817017 0.025219907984137535095 0.0076489942148327827454 0.014439292252063751221 0.0056735849939286708832 0.0059967213310301303864 0.011309177614748477936 0.013755467720329761505 0.0073865372687578201294 0.0055394372902810573578 0.0047507048584520816803 0.01684377714991569519 0.0053570563904941082001 0.0041449046693742275238 0.0052634640596807003021 0.0055447234772145748138 0.016413865610957145691 0.0065627004951238632202 0.0041489396244287490845 0.0067544355988502502441 0.0098011922091245651245 0.031121898442506790161 0.0088640023022890090942 0.0026224369648844003677 0.0027132504619657993317 0.012487335130572319031 0.033871568739414215088 0.0054885223507881164551 0.0074954940937459468842 0.0095915803685784339905 0.036769881844520568848 0.0048119560815393924713 0.0028102551586925983429 0.010112335905432701111 0.004711758345365524292 0.0058090644888579845428 0.0096149882301688194275 0.0036349883303046226501 0.0080308001488447189331 0 0 0 0 0 0 0 0 0 0 0 0 0 0 0 0 0 0 0 0 0 0 0 0 0 0 0 0 0 0 0 0 0 0 0 0 0 0 0 0 0 0 0 0 0 0 0 0 0 0 0 0 0 0 0 0 0 0 0 0 0 0 0 0 0 0 0 0 0 0 0 0 0 0 0 0 0 0 0 0 0 0 0 0 0 0 0 0 0 0 0 0 0 0 0 
0 0 0 0 0 0 0 0 0 0 0 0 0 0 0 0 0 0 0 0 0 0 0 0 0 0 0 0 0 0 0 0 0 0 0 0 0 0 0 0 0 0 0 0 0 0 0 0 0 0 0 0 0 0 0 0 0 0 0 0 0 0 0 0 0 0 0 0 0 0 0 0 0 0 0 0 0 0 0 0 0 0 0 0 0 0 0 0 0 0 0 0 0 0 0 0 0 0 -0.0002769925631582736969 -0.00021568464580923318863 -0.0014054455095902085304 -0.0107911648228764534 -0.0016387263312935829163 0.080858707427978515625 0.058152828365564346313 0.084184683859348297119 0.088779613375663757324 0.03775343671441078186 0.02574628777801990509 0.011401121504604816437 0.030579568818211555481 0.0064478125423192977905 0.0076384316198527812958 0.016202416270971298218 0.12553952634334564209 0 0 0 0.0058903601020574569702 0.010305143892765045166 0 0 0 0 0 0 0 0 0 0 0 0 0 0 0 -0.0002264479990117251873 -0.00014414779434446245432 -0.00070435088127851486206 -0.0035241050645709037781 -0.00017246208153665065765 -0.0002161326119676232338 -0.00019353911920916289091 -0.00017768557881936430931 -0.00013822432083543390036 -0.00011530135816428810358 -0.00010024341463577002287 -0.00011056869698222726583 -0.0014141172869130969048 -0.0012780501274392008781 -0.014274206012487411499 -0.0094940159469842910767 -0.0044324053451418876648 -0.0031367747578769922256 -0.011714152991771697998 -0.0042102080769836902618 0.018940353766083717346 0.032366555184125900269 0.041726529598236083984 0.022497864440083503723 0.012244251556694507599 0.0046601099893450737 0.0045631169341504573822 0.0050205141305923461914 0.011740501970052719116 0.0073040970601141452789 0.0052713709883391857147 0.0037556241732090711594 0.0049118930473923683167 0.0030743563547730445862 0.002826531650498509407 0.006290728691965341568 0.0033186243381351232529 0.0055447234772145748138 0.016919260844588279724 0.0088762892410159111023 0.036998182535171508789 0.032017089426517486572 0.013612973503768444061 0.031121898442506790161 0.010530062019824981689 0.006251737009733915329 0.0052992426790297031403 0.0050589703023433685303 0.0047861183993518352509 0.0054885223507881164551 0.0059439260512590408325 0.010186081752181053162 0.0036084852181375026703 0.0067321136593818664551 0.0069066616706550121307 0.010112335905432701111 0.0081705683842301368713 0.0055108289234340190887 0.0058696712367236614227 0.019323902204632759094 0 0.0025187677238136529922 0 0 0 0 0 0 0 0 0 0 0 0 0 0 0 0 0 0 0 0 0 0 0 0 0 0 0 0 0 0 0 0 0 0 0 0 0 0 0 0 0 0 0 0 0 0 0 0 0 0 0 0 0 0 0 0 0 0 0 0 0 0 0 0 0 0 0 0 0 0 0 0 0 0 0 0 0 0 0 0 0 0 0 0 0 0 0 0 0 0 0 0 0 
0 0 0 0 0 0 0 0 0 0 0 0 0 0 0 0 0 0 0 0 0 0 0 0 0 0 0 0 0 0 0 0 0 0 0 0 0 0 0 0 0 0 0 0 0 0 0 0 0 0 0 0 0 0 0 0 0 0 0 0 0 0 0 0 0 0 0 0 0 0 0 0 0 0 0 0 0 0 0 0 0 0 0 0 0 0 0 0 0 0 0 0 0 0 0 0 0 0 0 -0.00047774365521036088467 -0.005989106837660074234 -0.0107911648228764534 0.010801859200000762939 0.059967461973428726196 0.036583542823791503906 0.091915041208267211914 0.070878721773624420166 0.016715627163648605347 0.02574628777801990509 0.022160129621624946594 0.04617605358362197876 0.036410279572010040283 0.01791165769100189209 0 0 0 0 0 0 0 0 0 0 0 0 0 0 0 0 0 0 0 0 0 -0.0003473470278549939394 -0.0002264479990117251873 -0.00033478296245448291302 -0.0001438341860193759203 -0.00035738758742809295654 -0.00016503887309227138758 -0.00021928237401880323887 -0.00019353911920916289091 -0.00017768557881936430931 -0.00019678489479701966047 -0.00027651674463413655758 -0.00012222542136441916227 -0.000129600142827257514 -0.0014427936403080821037 -0.0012780501274392008781 -0.0047209183685481548309 -0.0036468496546149253845 -0.0096889557316899299622 -0.0033201265614479780197 -0.0031457012519240379333 -0.0042102080769836902618 0.069246478378772735596 0.033468320965766906738 0.045620772987604141235 0.038690004497766494751 0.0049847136251628398895 0.0046601099893450737 0.008941846899688243866 0.007353162858635187149 0.0032795530278235673904 0.0028289384208619594574 0.0036628551315516233444 0.0037556241732090711594 0.0073714368045330047607 0.0049464209005236625671 0.0046102092601358890533 0.0062342374585568904877 0.0050884964875876903534 0.010262064635753631592 0.061888054013252258301 0.012853983789682388306 0.0068813958205282688141 0.024178391322493553162 0.0152913704514503479 0.0099542252719402313232 0.0056974892504513263702 0.0074048843234777450562 0.0096342042088508605957 0.028181623667478561401 0.0094190957024693489075 0.0082219801843166351318 0.011823591776192188263 0.0057472055777907371521 0.006613665260374546051 0.0067675095051527023315 0.038059003651142120361 0.022385993972420692444 0.011790687218308448792 0.0035983349662274122238 0.04179952666163444519 0.020116992294788360596 0.0023549103643745183945 0.0025187677238136529922 0 0 0 0 0 0 0 0 0 0 0 0 0 0 0 0 0 0 0 0 0 0 0 0 0 0 0 0 0 0 0 0 0 0 0 0 0 0 0 0 0 0 0 0 0 0 0 0 0 0 0 0 0 0 0 0 0 0 0 0 0 0 0 0 0 0 0 0 0 0 0 0 0 0 0 0 0 0 0 0 0 0 0 0 0 0 0 0 0 0 0 0 0 
0 0 0 0 0 0 0 0 0 0 0 0 0 0 0 0 0 0 0 0 0 0 0 0 0 0 0 0 0 0 0 0 0 0 0 0 0 0 0 0 0 0 0 0 0 0 0 0 0 0 0 0 0 0 0 0 0 0 0 0 0 0 0 0 0 0 0 0 0 0 0 0 0 0 0 0 0 0 0 0 0 0 0 0 0 0 0 0 0 0 0 0 0 0 0 0 0 0 -0.001515058102086186409 -0.00071759906131774187088 -0.001488728448748588562 -0.0013650612672790884972 0.010801859200000762939 0.059967461973428726196 0.018761705607175827026 0.030127722769975662231 0.010338882915675640106 0.017634637653827667236 0.026496259495615959167 0.022160129621624946594 0.015488785691559314728 0.016479495912790298462 0.010773769579827785492 0.040925864130258560181 0 0 0 0 0 0 0 0 0 0 0 0 0 0 0 0 0 0 0.27936151623725891113 0.27936151623725891113 -0.00047568330774083733559 -0.00029170460766181349754 -0.00033478296245448291302 -0.00011795894533861428499 -0.00012083935871487483382 -0.00010911051504081115127 -0.0015360250836238265038 -0.0020947677548974752426 -0.0023293688427656888962 -0.00019678489479701966047 -0.00020975712686777114868 -0.00019988515123259276152 -8.9452492829877883196e-05 -0.00013422068150248378515 -0.00099738035351037979126 -0.0047209183685481548309 -0.0011610705405473709106 -0.0011908401502296328545 -0.0019591983873397111893 0.039607007056474685669 0.036534439772367477417 0.069246478378772735596 0.12776082754135131836 0.0095766112208366394043 0.015236495062708854675 0.0023865576367825269699 0.0023182604927569627762 0.008941846899688243866 0.0051998500712215900421 0.006971945054829120636 0.0031438174191862344742 0.0057126302272081375122 0.0060859313234686851501 0.0066128885373473167419 0.010712253861129283905 0.0097803538665175437927 0.0094163436442613601685 0.006507319863885641098 0.0063005890697240829468 0.004664094187319278717 0.0081522800028324127197 0.0043578413315117359161 0.004558606073260307312 0.009150135330855846405 0.020506747066974639893 0.025217849761247634888 0.016144275665283203125 0.0036784505937248468399 0.0041527287103235721588 0.0042927814647555351257 0.016414528712630271912 0.05504503101110458374 0.009311825968325138092 0.0076891789212822914124 0.002279363805428147316 0.003997595515102148056 0.0054157464765012264252 0.0027297833003103733063 0.0040735346265137195587 -9.9072145530954003334e-05 -0.00014186174666974693537 -0.00011024707055184990168 -6.0358892369549721479e-05 0 0 0 0 0 0 0 0 0 0 0 0 0 0 0 0 0 0 0 0 0 0 0 0 0 0 0 0 0 0 0 0 0 0 0 0 0 0 0 0 0 0 0 0 0 0 0 0 0 0 0 0 0 0 0 0 0 0 0 0 0 0 0 0 0 0 0 0 0 0 0 0 0 0 0 0 0 0 0 0 0 0 0 0 0 0 0 0 0 0 0 0 0 
0 0 0 0 0 0 0 0 0 0 0 0 0 0 0 0 0 0 0 0 0 0 0 0 0 0 0 0 0 0 0 0 0 0 0 0 0 0 0 0 0 0 0 0 0 0 0 0 0 0 0 0 0 0 0 0 0 0 0 0 0 0 0 0 0 0 0 0 0 0 0 0 0 0 0 0 0 0 0 0 0 0 0 0 0 0 0 0 0 0 0 0 0 0 0 0 0 0 -0.004530374426394701004 -0.0039071082137525081635 -0.0032530950848013162613 -0.0013779380824416875839 0.045221060514450073242 0.073870979249477386475 0.018761705607175827026 0.012059746310114860535 0.038476619869470596313 0.013724840246140956879 0.014350541867315769196 0.0045079290866851806641 0.0043282555416226387024 0.036857444792985916138 0.014046129770576953888 0.045127436518669128418 0 0 0 0 0 0 0 0 0 0 0 0 0 0 0 0 0 0 -0.00043411136721260845661 -0.00071921799099072813988 -0.0019105103565379977226 -0.00051097822142764925957 -0.00017383029626216739416 -0.00011795894533861428499 -0.00012083935871487483382 -0.00020796470926143229008 -0.00020413308811839669943 -0.0019375021802261471748 -0.0021669238340109586716 -0.00022162700770422816277 -0.00020975712686777114868 -0.00015311327297240495682 -8.9959408796858042479e-05 0.0011564112501218914986 0.0029056633356958627701 0.0046233464963734149933 -0.0011610705405473709106 -0.0031391037628054618835 -0.0012628861004486680031 0.03415794670581817627 0.036506965756416320801 0.21491803228855133057 0.12776082754135131836 0.0095766112208366394043 0.0024891591165214776993 0.0081411618739366531372 0.0065532671287655830383 0.0046955840662121772766 0.0061232806183397769928 0.006971945054829120636 0.0075158728286623954773 0.0051947631873190402985 0.014979239553213119507 0.018616894260048866272 0.0083034299314022064209 0.0086709558963775634766 0.0032289938535541296005 0.0076520107686519622803 0.0043683936819434165955 0.0033023145515471696854 0.0028005053754895925522 0.004627847578376531601 0.0041901026852428913116 0.012010999955236911774 0.040113631635904312134 0.030772514641284942627 0.0055077844299376010895 0.0036784505937248468399 0.030498664826154708862 0.046370808035135269165 0.039226576685905456543 0.010141378268599510193 0.0082076052203774452209 0.0076891789212822914124 0.014609156176447868347 0.0025582865346223115921 0.0077434792183339595795 0.0034187207929790019989 0.004214395768940448761 -9.9072145530954003334e-05 -0.00012523407349362969398 -9.1672969574574381113e-05 -5.7406934502068907022e-05 0 0 0 0 0 0 0 0 0 0 0 0 0 0 0 0 0 0 0 0 0 0 0 0 0 0 0 0 0 0 0 0 0 0 0 0 0 0 0 0 0 0 0 0 0 0 0 0 0 0 0 0 0 0 0 0 0 0 0 0 0 0 0 0 0 0 0 0 0 0 0 0 0 0 0 0 0 0 0 0 0 0 0 0 0 0 0 0 0 0 0 0 0 
0 0 0 0 0 0 0 0 0 0 0 0 0 0 0 0 0 0 0 0 0 0 0 0 0 0 0 0 0 0 0 0 0 0 0 0 0 0 0 0 0 0 0 0 0 0 0 0 0 0 0 0 0 0 0 0 0 0 0 0 0 0 0 0 0 0 0 0 0 0 0 0 0 0 0 0 0 0 0 0 0 0 0 0 0 0 0 0 0 0 0 0 0 0 0 0 0 0 -0.004530374426394701004 -0.0024303740356117486954 -0.0018294746987521648407 0.079116292297840118408 0.054853975772857666016 0.087407760322093963623 0.014289882965385913849 0.012059746310114860535 0.038476619869470596313 0.010309489443898200989 0.037020977586507797241 0.025832075625658035278 0.0094117578119039535522 0.017212959006428718567 0.031708300113677978516 0.017072211951017379761 0.018748080357909202576 0 0 0 0 0 0 0 0 0 0 0 0 0 0 0 0 -0.0016245164442807435989 -0.00043411136721260845661 -0.0022900258190929889679 -0.0020545742008835077286 -0.00072210800135508179665 -0.00069789355620741844177 -0.00010360732267145067453 -0.00013159753871150314808 -0.00020796470926143229008 -0.00020285685604903846979 -0.00013314475654624402523 -0.00017934576317202299833 -0.00014333796571008861065 -0.00013144442345947027206 -0.00015311327297240495682 -0.00014184489555191248655 -0.00013829900126438587904 0.0029237191192805767059 0.0039098262786865234375 -0.00088799715740606188774 -0.0031391037628054618835 -0.0012628861004486680031 0.019995687529444694519 0.017289299517869949341 0.070027574896812438965 0.12843619287014007568 0.0016322927549481391907 0.0024891591165214776993 0.0058540469035506248474 0.0078319078311324119568 0.009942987002432346344 0.0066945110447704792023 0.015263369306921958923 0.0075158728286623954773 0.0041127316653728485107 0.0053317649289965629578 0.0048270965926349163055 0.0056752539239823818207 0.0081913396716117858887 0.0032289938535541296005 0.0063896281644701957703 0.0042268815450370311737 0.0040659629739820957184 0.0024517818819731473923 0.0034961262717843055725 0.0041901026852428913116 0.0079849800094962120056 0.026317534968256950378 0.039274886250495910645 0.043494727462530136108 0.055997736752033233643 0.030498664826154708862 0.020993834361433982849 0.012872699648141860962 0.0057735047303140163422 0.0028367983177304267883 0.0042913802899420261383 0.014609156176447868347 0.0045588104985654354095 0.0050189141184091567993 0.0071038487367331981659 0.00331547553651034832 -9.6515854238532483578e-05 -0.00012523407349362969398 -0.00010320828005205839872 0.1269652247428894043 0 0 0 0 0 0 0 0 0 0 0 0 0 0 0 0 0 0 0 0 0 0 0 0 0 0 0 0 0 0 0 0 0 0 0 0 0 0 0 0 0 0 0 0 0 0 0 0 0 0 0 0 0 0 0 0 0 0 0 0 0 0 0 0 0 0 0 0 0 0 0 0 0 0 0 0 0 0 0 0 0 0 0 0 0 0 0 0 0 0 0 0 0 
0 0 0 0 0 0 0 0 0 0 0 0 0 0 0 0 0 0 0 0 0 0 0 0 0 0 0 0 0 0 0 0 0 0 0 0 0 0 0 0 0 0 0 0 0 0 0 0 0 0 0 0 0 0 0 0 0 0 0 0 0 0 0 0 0 0 0 0 0 0 0 0 0 0 0 0 0 0 0 0 0 0 0 0 0 0 0 0 0 0 0 0 0 0 0 0 0 0 -0.0018919751746580004692 -0.0024303740356117486954 -0.0018294746987521648407 0.15711125731468200684 0.17150668799877166748 0.066415660083293914795 0.014978457242250442505 0.023225594311952590942 0.010310262441635131836 0.010309489443898200989 0.049256447702646255493 0.023847162723541259766 0.0096908733248710632324 0.0052454308606684207916 0.023519692942500114441 0.017072211951017379761 0.045116465538740158081 0 0 0 0 0 0 0 0 0 0 0 0 0 0 0 0 0 -0.0021936423145234584808 -0.0022900258190929889679 -0.0020545742008835077286 -0.00074027851223945617676 -0.00024052565277088433504 -0.00034988374682143330574 -0.0001602121046744287014 -0.00024319961084984242916 -0.00020285685604903846979 -0.00015034011448733508587 -0.00018471125804353505373 -0.00017556686361785978079 -0.00010646462033037096262 -0.00019200459064450114965 -0.00014184489555191248655 -0.00013829900126438587904 0.0093451859429478645325 0.0074954684823751449585 0.008700522594153881073 0.0129698142409324646 0.0079242046922445297241 0.019995687529444694519 0.011866140179336071014 0.020450355485081672668 0.070449449121952056885 0.011526493355631828308 0.0073242327198386192322 0.0058540469035506248474 0.005431812722235918045 0.005430675111711025238 0.0096981460228562355042 0.0088917715474963188171 0.0034619192592799663544 0.0041127316653728485107 0.006973677314817905426 0.0067306477576494216919 0.0091764600947499275208 0.0063617709092795848846 0.0029716212302446365356 0.0063896281644701957703 0.0077586881816387176514 0.051572997123003005981 0.0043743569403886795044 0.0042062499560415744781 0.0050839250907301902771 0.018673887476325035095 0.023659097030758857727 0.03953968733549118042 0.063134551048278808594 0.015222587622702121735 0.0033815065398812294006 0.0096485754474997520447 0.012872699648141860962 0.0073238625191152095795 0.0036095236428081989288 0.0082555310800671577454 0.03398774564266204834 0.0045588104985654354095 0.0050189141184091567993 0.04369354248046875 -8.4386389062274247408e-05 -0.00010266990284435451031 -0.00011651313252514228225 -0.00010320828005205839872 0.1269652247428894043 0 0 0 0 0 0 0 0 0 0 0 0 0 0 0 0 0 0 0 0 0 0 0 0 0 0 0 0 0 0 0 0 0 0 0 0 0 0 0 0 0 0 0 0 0 0 0 0 0 0 0 0 0 0 0 0 0 0 0 0 0 0 0 0 0 0 0 0 0 0 0 0 0 0 0 0 0 0 0 0 0 0 0 0 0 0 0 0 0 0 0 0 0 
0 0 0 0 0 0 0 0 0 0 0 0 0 0 0 0 0 0 0 0 0 0 0 0 0 0 0 0 0 0 0 0 0 0 0 0 0 0 0 0 0 0 0 0 0 0 0 0 0 0 0 0 0 0 0 0 0 0 0 0 0 0 0 0 0 0 0 0 0 0 0 0 0 0 0 0 0 0 0 0 0 0 0 0 0 0 0 0 0 0 0 0 0 0 0 0 0 0 0 -0.0015394046204164624214 -0.002128004562109708786 0.15711125731468200684 -0.016478296369314193726 -0.0031705955043435096741 0.010350397787988185883 0.0088163129985332489014 0.066298812627792358398 0.081592895090579986572 0.049256447702646255493 0.009825535118579864502 0.014683019369840621948 0.0084455925971269607544 0.018267935141921043396 0.02793934941291809082 0.030857661738991737366 0.032790556550025939941 0 0 0 0 0 0 0 0 0 0 0 0 0 0.27936151623725891113 -5.2874675020575523376e-05 -0.0029468701686710119247 -0.0035954660270363092422 -0.0033259510528296232224 -0.0041422257199883460999 -0.00074027851223945617676 -0.00021508660574909299612 -9.7704200015868991613e-05 -8.8431494077667593956e-05 -0.00018807922606356441975 -0.00028199492953717708588 -0.00015034011448733508587 -0.0008081553969532251358 -0.00018550221284385770559 -0.00016214164497796446085 -0.00018379837274551391602 -0.0010572775499895215034 0.0071652550250291824341 0.0093451859429478645325 0.011594233103096485138 0.019385168328881263733 0.010305651463568210602 0.012939847074449062347 0.0044346270151436328888 0.011866140179336071014 0.018880615010857582092 0.023082787171006202698 0.0096564032137393951416 0.01233270205557346344 0.0062209269963204860687 0.005431812722235918045 0.0048325122334063053131 0.01015495695173740387 0.0037055353168398141861 0.010446455329656600952 0.014707895927131175995 0.006973677314817905426 0.0067306477576494216919 0.0087032839655876159668 0.0098952529951930046082 0.0098145036026835441589 0.009521939791738986969 0.031899414956569671631 0.051572997123003005981 0.045162636786699295044 0.0083778314292430877686 0.0088276248425245285034 0.052224472165107727051 0.07975517958402633667 0.03953968733549118042 0.025549191981554031372 0.014511185698211193085 0.004002453293651342392 0.0055948109365999698639 0.0049161189235746860504 0.0073238625191152095795 0.007637556176632642746 0.0145949535071849823 0.0056075807660818099976 0.0038313362747430801392 0.016332389786839485168 0.04369354248046875 0.061772208660840988159 -0.00013318860146682709455 -0.0002590433869045227766 -0.00014481597463600337505 0 0 0 0 0 0 0 0 0 0 0 0 0 0 0 0 0 0 0 0 0 0 0 0 0 0 0 0 0 0 0 0 0 0 0 0 0 0 0 0 0 0 0 0 0 0 0 0 0 0 0 0 0 0 0 0 0 0 0 0 0 0 0 0 0 0 0 0 0 0 0 0 0 0 0 0 0 0 0 0 0 0 0 0 0 0 0 0 0 0 0 0 0 0 
0 0 0 0 0 0 0 0 0 0 0 0 0 0 0 0 0 0 0 0 0 0 0 0 0 0 0 0 0 0 0 0 0 0 0 0 0 0 0 0 0 0 0 0 0 0 0 0 0 0 0 0 0 0 0 0 0 0 0 0 0 0 0 0 0 0 0 0 0 0 0 0 0 0 0 0 0 0 0 0 0 0 0 0 0 0 0 0 0 0 0 0 0 0 0 0 0 0 1.180993199348449707 -0.0020735077559947967529 -0.0044667758047580718994 -0.023357754573225975037 -0.016478296369314193726 -0.0031705955043435096741 -0.0011748601682484149933 -0.00098026019986718893051 0.18517383933067321777 0.26659816503524780273 0.045259863138198852539 0.009825535118579864502 0.010927758179605007172 0.017062678933143615723 0.014804208651185035706 0.036576688289642333984 0.060334201902151107788 0.049185853451490402222 0 0 0 0 0 0 0 0 0 0 0 0 0 0.27936151623725891113 -5.2874675020575523376e-05 -0.000476570159662514925 -0.00069197901757434010506 -0.00087651412468403577805 -0.0032524666748940944672 -0.00028439098969101905823 -0.00021508660574909299612 -0.00011900046956725418568 -9.3651600764133036137e-05 -0.0001695209648460149765 -0.00011815058678621426225 -0.00075454608304426074028 -0.0008081553969532251358 -0.00018550221284385770559 -0.00052362639689818024635 -0.00079951295629143714905 0.0088607687503099441528 0.034396011382341384888 0.020667864009737968445 0.011594233103096485138 0.014387056231498718262 0.01286531984806060791 0.0037728715687990188599 0.0026795233134180307388 0.019247857853770256042 0.018880615010857582092 0.021193353459239006042 0.011798438616096973419 0.0063023865222930908203 0.015142533928155899048 0.0069164070300757884979 0.0048325122334063053131 0.01015495695173740387 0.005368536338210105896 0.0068224947899580001831 0.02885012701153755188 0.014279237948358058929 0.0040818299166858196259 0.0087032839655876159668 0.0042573795653879642487 0.02069996856153011322 0.0078247776255011558533 0.018438894301652908325 0.094751946628093719482 0.045162636786699295044 0.0084547270089387893677 0.0052693160250782966614 0.039634805172681808472 0.060733057558536529541 0.022997936233878135681 0.025549191981554031372 0.020944863557815551758 0.012154462747275829315 0.05973510444164276123 0.017364108934998512268 0.0056539471261203289032 0.007637556176632642746 0.011950070038437843323 0.019203782081604003906 0.01210680883377790451 0.050068587064743041992 0.08084341883659362793 0.061772208660840988159 -0.00021113264665473252535 -0.0002773878804873675108 -0.00010773149551823735237 0 0 0 0 0 0 0 0 0 0 0 0 0 0 0 0 0 0 0 0 0 0 0 0 0 0 0 0 0 0 0 0 0 0 0 0 0 0 0 0 0 0 0 0 0 0 0 0 0 0 0 0 0 0 0 0 0 0 0 0 0 0 0 0 0 0 0 0 0 0 0 0 0 0 0 0 0 0 0 0 0 0 0 0 0 0 0 0 0 0 0 0 0 0 
0 0 0 0 0 0 0 0 0 0 0 0 0 0 0 0 0 0 0 0 0 0 0 0 0 0 0 0 0 0 0 0 0 0 0 0 0 0 0 0 0 0 0 0 0 0 0 0 0 0 0 0 0 0 0 0 0 0 0 0 0 0 0 0 0 0 0 0 0 0 0 0 0 0 0 0 0 0 0 0 0 0 0 0 0 0 0 0 0 0 0 0 0 0 0 0 0 0 -0.0018796632066369056702 -0.0036136438138782978058 -0.0071723288856446743011 -0.018273090943694114685 -0.0041697188280522823334 -0.017677355557680130005 -0.0011748601682484149933 0.099834807217121124268 0.037188049405813217163 0.036950144916772842407 0.01285237632691860199 0.011023928411304950714 0.013721209950745105743 0.017062678933143615723 0.050451721996068954468 0.0059490017592906951904 0.14056910574436187744 0.029706027358770370483 0.010353524237871170044 0 0 0 0 0 0 0 0 0 0 0 0 -0.00010427316738059744239 -9.7950669442070648074e-06 -0.000476570159662514925 -0.00020732091797981411219 -0.00038114655762910842896 -0.00030296109616756439209 -0.000638417084701359272 -0.00033026884193532168865 -0.00011900046956725418568 -0.00018723389075603336096 -0.00013196381041780114174 -0.0002694104914553463459 -0.00016203214181587100029 -0.00019302011060062795877 -0.00013275495439302176237 -0.00052362639689818024635 0 0.0029145369771867990494 0.059425506740808486938 0.012254454195499420166 0.097688332200050354004 0.014387056231498718262 0.018926216289401054382 0.0031451615504920482635 0.0040860716253519058228 0.025484295561909675598 0.01982083544135093689 0.021193353459239006042 0.011798438616096973419 0.014648705720901489258 0.0080553432926535606384 0.021785223856568336487 0.0090296398848295211792 0.021094825118780136108 0.005368536338210105896 0.0050067948177456855774 0.014627308584749698639 0.005460771266371011734 0.0025410093367099761963 0.0026563878636807203293 0.0042573795653879642487 0.0089659579098224639893 0.0031433615367859601974 0.0061924103647470474243 0.060874771326780319214 0.078023985028266906738 0.0084547270089387893677 0.0094206444919109344482 0.0053414721041917800903 0.0034775782842189073563 0.022880453616380691528 0.035452671349048614502 0.020944863557815551758 0.0076261768117547035217 0.021372472867369651794 0.19432578980922698975 0.066891498863697052002 0.032174464315176010132 0.011950070038437843323 0.055703461170196533203 0.045118674635887145996 0.0073366919532418251038 0.045741870999336242676 -0.00033052818616852164268 -0.00021113264665473252535 -0.00014347613614518195391 -0.0011016199132427573204 -0.0003529120876919478178 0 0 0 0 0 0 0 0 0 0 0 0 0 0 0 0 0 0 0 0 0 0 0 0 0 0 0 0 0 0 0 0 0 0 0 0 0 0 0 0 0 0 0 0 0 0 0 0 0 0 0 0 0 0 0 0 0 0 0 0 0 0 0 0 0 0 0 0 0 0 0 0 0 0 0 0 0 0 0 0 0 0 0 0 0 0 0 0 0 0 0 0 0 
0 0 0 0 0 0 0 0 0 0 0 0 0 0 0 0 0 0 0 0 0 0 0 0 0 0 0 0 0 0 0 0 0 0 0 0 0 0 0 0 0 0 0 0 0 0 0 0 0 0 0 0 0 0 0 0 0 0 0 0 0 0 0 0 0 0 0 0 0 0 0 0 0 0 0 0 0 0 0 0 0 0 0 0 0 0 0 0 0 0 0 0 0 0 0 0 0 0 -0.0018796632066369056702 -0.0015345908468589186668 -0.0022697022650390863419 -0.012669698335230350494 -0.0038611993659287691116 0.040688477456569671631 -0.00014728683163411915302 0.099834807217121124268 0.059332504868507385254 0.0072802421636879444122 0.0084930779412388801575 0.01348992716521024704 0.014617797918617725372 0.016592247411608695984 0.050451721996068954468 0.11559288203716278076 0.042633846402168273926 0.051962710916996002197 0.28723475337028503418 0 0 0 0 0 0 0 0 0 0 0 -8.3033555711153894663e-06 -0.00019879981118720024824 -0.00013258996477816253901 -8.681602776050567627e-05 -0.00020732091797981411219 -0.00030913777300156652927 -0.00035108011798001825809 -0.0002173459506593644619 -0.00026468856958672404289 -0.00020954632782377302647 -0.00018723389075603336096 -0.00013196381041780114174 -0.00011988160258624702692 -0.00017338676843792200089 -0.00019954757590312510729 -0.00024511359515599906445 -0.00040732629713602364063 0 0.0079880366101861000061 0.0089882165193557739258 0.0094775874167680740356 0.026628093793988227844 0.070480652153491973877 0.018926216289401054382 0.0031451615504920482635 0.0043117692694067955017 0.0071907164528965950012 0.040599029511213302612 0.0099856965243816375732 0.0088302735239267349243 0.014648705720901489258 0.011406481266021728516 0.01100608333945274353 0.0089480504393577575684 0.024962209165096282959 0.0067924815230071544647 0.0050067948177456855774 0.0056490716524422168732 0.0031714017968624830246 0.0036781518720090389252 0.0027948187198489904404 0.0036728321574628353119 0.0089659579098224639893 0.0017217136919498443604 0.00167285907082259655 0.0027579104062169790268 0.017230780795216560364 0.014472116716206073761 0.0094206444919109344482 0.0053414721041917800903 0.028678506612777709961 0.010341495275497436523 0.0034522176720201969147 0.010440114885568618774 0.0076261768117547035217 0.021372472867369651794 0.0045645404607057571411 0.072626471519470214844 0.038426987826824188232 0.034062787890434265137 0.055703461170196533203 0.045118674635887145996 0.019599569961428642273 -0.0040004840120673179626 -0.0016497106989845633507 -0.0012442825827747583389 -0.00014347613614518195391 -0.00048356290790252387524 -0.00037346294266171753407 -0.00012438959674909710884 -0.00017959582328330725431 0 0 0 0 0 0 0 0 0 0 0 0 0 0 0 0 0 0 0 0 0 0 0 0 0 0 0 0 0 0 0 0 0 0 0 0 0 0 0 0 0 0 0 0 0 0 0 0 0 0 0 0 0 0 0 0 0 0 0 0 0 0 0 0 0 0 0 0 0 0 0 0 0 0 0 0 0 0 0 0 0 0 0 0 0 0 0 0 0 0 0 
0 0 0 0 0 0 0 0 0 0 0 0 0 0 0 0 0 0 0 0 0 0 0 0 0 0 0 0 0 0 0 0 0 0 0 0 0 0 0 0 0 0 0 0 0 0 0 0 0 0 0 0 0 0 0 0 0 0 0 0 0 0 0 0 0 0 0 0 0 0 0 0 0 0 0 0 0 0 0 0 0 0 0 0 0 0 0 0 0 0 0 0 0 0 0 0 0 0 0 -0.0015345908468589186668 -0.0022697022650390863419 -0.0091255847364664077759 -0.0061916308477520942688 0.13094639778137207031 0.0097546502947807312012 0.029707258567214012146 0.059332504868507385254 0.0072802421636879444122 0.015094527974724769592 0.010852571576833724976 0.029310079291462898254 0.043733827769756317139 0.12606184184551239014 0.11559288203716278076 0.037904009222984313965 0.036483768373727798462 0.015495432540774345398 0 0 0 0 0 0 0 0 0 0 0 -0.0002939833211712539196 -0.00033542347955517470837 -0.00036074186209589242935 -0.0004663071886170655489 -0.0010581845417618751526 -0.00030913777300156652927 -0.0002798716304823756218 -0.00036483441363088786602 -0.00015515701670665293932 -0.00018333966727368533611 -0.00018703275418374687433 -0.00020727675291709601879 -0.00011988160258624702692 -0.00020992895588278770447 0 0 0 0.0054318420588970184326 0.0079880366101861000061 0.0089882165193557739258 0.0098754400387406349182 0.0038783124182373285294 0.003729486372321844101 0.0044117290526628494263 0.0034152562730014324188 0.0043117692694067955017 0.016801167279481887817 0.010278706438839435577 0.010788834653794765472 0.0060313134454190731049 0.006822096649557352066 0.011406481266021728516 0.0086328173056244850159 0.010011566802859306335 0.0067820576950907707214 0.0055853202939033508301 0.0040266453288495540619 0.0056490716524422168732 0.036373946815729141235 0.0064874375239014625549 0.0052527147345244884491 0.0058062360621988773346 0.0022411765530705451965 0.0017217136919498443604 0.00167285907082259655 0.0027446597814559936523 0.0059315534308552742004 0.107477530837059021 0.087411493062973022461 0.0085204206407070159912 0.028678506612777709961 0.026157867163419723511 0.004266490694135427475 0.0037128268741071224213 0.0024747317656874656677 0.0028099024202674627304 0.0045645404607057571411 0.01246615871787071228 0.037161737680435180664 0.053854368627071380615 -0.015060267411172389984 0.016345378011465072632 0.019599569961428642273 -0.010918250307440757751 -0.016222363337874412537 -0.0018282629316672682762 -0.00017846417904365807772 -0.00048356290790252387524 -0.00037346294266171753407 0.1269652247428894043 0.1269652247428894043 0 0 0 0 0 0 0 0 0 0 0 0 0 0 0 0 0 0 0 0 0 0 0 0 0 0 0 0 0 0 0 0 0 0 0 0 0 0 0 0 0 0 0 0 0 0 0 0 0 0 0 0 0 0 0 0 0 0 0 0 0 0 0 0 0 0 0 0 0 0 0 0 0 0 0 0 0 0 0 0 0 0 0 0 0 0 0 0 0 0 0 
0 0 0 0 0 0 0 0 0 0 0 0 0 0 0 0 0 0 0 0 0 0 0 0 0 0 0 0 0 0 0 0 0 0 0 0 0 0 0 0 0 0 0 0 0 0 0 0 0 0 0 0 0 0 0 0 0 0 0 0 0 0 0 0 0 0 0 0 0 0 0 0 0 0 0 0 0 0 0 0 0 0 0 0 0 0 0 0 0 0 0 0 0 0 0 0 0 0 0 -0.0028331137727946043015 -0.0074460441246628761292 -0.0091255847364664077759 -0.0266970805823802948 -0.008727116510272026062 0.028389986604452133179 0.034490995109081268311 0.32752388715744018555 0.026431698352098464966 0.015094527974724769592 0.023562926799058914185 0.012294314801692962646 0.042157769203186035156 0.043076079338788986206 0.015141118317842483521 0.037904009222984313965 0.010227188467979431152 0.084154441952705383301 0 0 0.058053027838468551636 0 0 0 0 0 0 -0.00017881528765428811312 -0.00036296300822868943214 -0.0002939833211712539196 -0.00027908402262255549431 -0.00023959833197295665741 -0.0010756780393421649933 -0.00059054413577541708946 -0.00053116359049454331398 -0.0002798716304823756218 -0.00036483441363088786602 -0.00016392601537518203259 -0.00024941188166849315166 -0.00073701189830899238586 -0.00095077190781012177467 -0.00020421724184416234493 -0.00020992895588278770447 0 0.0047223325818777084351 0.011477597057819366455 0.040615066885948181152 0.072150051593780517578 0.014988351613283157349 0.0098754400387406349182 0.0041127828881144523621 0.0052169114351272583008 0.0056351590901613235474 0.0045129624195396900177 0.0082200895994901657104 0.016801167279481887817 0.0082607856020331382751 0.011145473457872867584 0.010998960584402084351 0.0054949102923274040222 0.013892875052988529205 0.0086328173056244850159 0.0066598691046237945557 0.006477541755884885788 0.041659764945507049561 0.0046177287586033344269 0.0086193205788731575012 0.036373946815729141235 0.0064874375239014625549 0.0083026718348264694214 0.00375763745978474617 0.0038057798519730567932 0.004304982256144285202 0.0024240470957010984421 0.0027446597814559936523 0.0054044765420258045197 0.0059742718003690242767 0.012197117321193218231 0.017037680372595787048 0.05368310585618019104 0.026157867163419723511 0.0024145334027707576752 0.0027327733114361763 0.0044966326095163822174 0.011543765664100646973 0.0070399767719209194183 0.01246615871787071228 0.047969099134206771851 0.041644737124443054199 0.017753627151250839233 -0.014928973279893398285 -0.01176505163311958313 -0.010918250307440757751 -0.032543253153562545776 -0.010136846452951431274 -0.0065477201715111732483 0.1269652247428894043 0.1269652247428894043 0.1269652247428894043 0 0 0 0 0 0 0 0 0 0 0 0 0 0 0 0 0 0 0 0 0 0 0 0 0 0 0 0 0 0 0 0 0 0 0 0 0 0 0 0 0 0 0 0 0 0 0 0 0 0 0 0 0 0 0 0 0 0 0 0 0 0 0 0 0 0 0 0 0 0 0 0 0 0 0 0 0 0 0 0 0 0 0 0 0 0 0 0 0 0 0 0 
0 0 0 0 0 0 0 0 0 0 0 0 0 0 0 0 0 0 0 0 0 0 0 0 0 0 0 0 0 0 0 0 0 0 0 0 0 0 0 0 0 0 0 0 0 0 0 0 0 0 0 0 0 0 0 0 0 0 0 0 0 0 0 0 0 0 0 0 0 0 0 0 0 0 0 0 0 0 0 0 0 0 0 0 0 0 0 0 0 0 0 0 0 0 0 0 0 0 0.039740312844514846802 0.049483750015497207642 0.044306058436632156372 0.11525078117847442627 -0.0266970805823802948 -0.008727116510272026062 0.0042278766632080078125 0.014602060429751873016 0.010773531161248683929 0.0075269108638167381287 0.0059296563267707824707 0.023562926799058914185 0.032896950840950012207 0.022277947515249252319 0.05468722805380821228 0.01678782142698764801 0.019671391695737838745 0.011862628161907196045 0.084154441952705383301 0.010267739184200763702 0 0 0 0 0 0 0.078990623354911804199 0.074898041784763336182 0.033702455461025238037 -0.00057204940821975469589 -0.00047595580690540373325 -0.00039041726267896592617 -0.0006640270003117620945 -0.00045878731179982423782 -0.00030477900872938334942 -0.00042595440754666924477 -0.00056956365006044507027 -0.00025763272424228489399 -0.00016392601537518203259 -0.00052652246085926890373 -0.00042577157728374004364 -0.00062376691494137048721 0 0 0 0.0047223325818777084351 0.028625259175896644592 0.017711805179715156555 0.049946703016757965088 0.0043128682300448417664 0.0038939537480473518372 0.0041127828881144523621 0.0044644181616604328156 0.0036773872561752796173 0.0041664056479930877686 0.018275652080774307251 0.044926252216100692749 0.0082607856020331382751 0.0067290975712239742279 0.0074697439558804035187 0.0036892958451062440872 0.048342105001211166382 0.06158196181058883667 0.0066598691046237945557 0.006477541755884885788 0.0035359789617359638214 0.0024746218696236610413 0.0021750812884420156479 0.0059954035095870494843 0.0077971015125513076782 0.0083026718348264694214 0.0043899510055780410767 0.0047453669831156730652 0.0064662531949579715729 0.027986766770482063293 0.018456947058439254761 0.0054044765420258045197 0.0021890448406338691711 0.0030820730607956647873 0.0028902362100780010223 0.0059196604415774345398 0.0064168046228587627411 0.0024145334027707576752 0.0052138594910502433777 0.0030238400213420391083 0.0068010739050805568695 0.004539955873042345047 0.016611458733677864075 0.047969099134206771851 -0.0067498642019927501678 -0.004442909732460975647 -0.0066901533864438533783 -0.032107904553413391113 -0.041229672729969024658 -0.032543253153562545776 -0.018646871671080589294 -0.018386965617537498474 -0.022397218272089958191 0 0 0 0 0 0 0 0 0 0 0 0 0 0 0 0 0 0 0 0 0 0 0 0 0 0 0 0 0 0 0 0 0 0 0 0 0 0 0 0 0 0 0 0 0 0 0 0 0 0 0 0 0 0 0 0 0 0 0 0 0 0 0 0 0 0 0 0 0 0 0 0 0 0 0 0 0 0 0 0 0 0 0 0 0 0 0 0 0 0 0 0 0 0 
0 0 0 0 0 0 0 0 0 0 0 0 0 0 0 0 0 0 0 0 0 0 0 0 0 0 0 0 0 0 0 0 0 0 0 0 0 0 0 0 0 0 0 0 0 0 0 0 0 0 0 0 0 0 0 0 0 0 0 0 0 0 0 0 0 0 0 0 0 0 0 0 0 0 0 0 0 0 0 0 0 0 0 0 0 0 0 0 0 0 0 0 0 0 0 0 0 0 0.064372174441814422607 0.070789262652397155762 0.065724305808544158936 0.070009507238864898682 0.021007932722568511963 0.0058751069009304046631 0.0042278766632080078125 0.0054548271000385284424 0.014677044004201889038 0.023867027834057807922 0.014920622110366821289 0.059678852558135986328 0.032896950840950012207 0.022277947515249252319 0.10447504371404647827 0.010607256554067134857 0.01296433713287115097 0.039900496602058410645 0.018564498052000999451 0.010267739184200763702 0.002195674460381269455 0 0 0 0 0 0 0.2162637859582901001 0.28810793161392211914 0.16212455928325653076 0.15431787073612213135 -0.0011588443303480744362 -0.00033387480652891099453 -0.00045878731179982423782 -0.00059960136422887444496 -0.00037187431007623672485 -0.00061246880795806646347 -0.0010052580619230866432 -0.0014812881126999855042 -0.00052652246085926890373 -0.00077019724994897842407 -0.00083432096289470791817 0 -0.035822924226522445679 -0.0064447051845490932465 0.0090220207348465919495 0.028625259175896644592 0.010029668919742107391 0.0089931814000010490417 0.011293517425656318665 0.0040373513475060462952 0.0035405557136982679367 0.0044644181616604328156 0.0030766306445002555847 0.0031633526086807250977 0.0038315407000482082367 0.01300160679966211319 0.017704751342535018921 0.0067290975712239742279 0.0074697439558804035187 0.0043840566650032997131 0.026120737195014953613 0.017482845112681388855 0.020072754472494125366 0.0028237984515726566315 0.0035359789617359638214 0.0032118838280439376831 0.0021355948410928249359 0.0026028938591480255127 0.0030233783181756734848 0.0021885964088141918182 0.0043899510055780410767 0.0088722864165902137756 0.0074795419350266456604 0.016674928367137908936 0.0082293385639786720276 0.0080845812335610389709 0.0021890448406338691711 0.0069730156101286411285 0.0031977756880223751068 0.0063747665844857692719 0.035720366984605789185 0.0046447268687188625336 0.0052138594910502433777 0.0030238400213420391083 0.01939565315842628479 0.0063662705942988395691 0.0021766501013189554214 0.0088219922035932540894 -0.0067498642019927501678 -0.007256929297000169754 -0.011412809602916240692 -0.028469178825616836548 -0.027807278558611869812 -0.033923503011465072632 -0.018646871671080589294 -0.0035324308555573225021 0 0 0 0 0 0 0 0 0 0 0 0 0 0 0 0 0 0 0 0 0 0 0 0 0 0 0 0 0 0 0 0 0 0 0 0 0 0 0 0 0 0 0 0 0 0 0 0 0 0 0 0 0 0 0 0 0 0 0 0 0 0 0 0 0 0 0 0 0 0 0 0 0 0 0 0 0 0 0 0 0 0 0 0 0 0 0 0 0 0 0 0 0 0 0 
0 0 0 0 0 0 0 0 0 0 0 0 0 0 0 0 0 0 0 0 0 0 0 0 0 0 0 0 0 0 0 0 0 0 0 0 0 0 0 0 0 0 0 0 0 0 0 0 0 0 0 0 0 0 0 0 0 0 0 0 0 0 0 0 0 0 0 0 0 0 0 0 0 0 0 0 0 0 0 0 0 0 0 0 0 0 0 0 0 0 0 0 0 0 0 0 0 0 0.064372174441814422607 0.090333670377731323242 0.051330063492059707642 0.037927914410829544067 0.034300077706575393677 0.0045189326629042625427 0.0068313363008201122284 0.0054548271000385284424 0.019721455872058868408 0.010593685321509838104 0.03758576512336730957 0.21572956442832946777 0.11065686494112014771 0.048433523625135421753 0.10447504371404647827 0.086218982934951782227 0.00086011865641921758652 0.041446790099143981934 0.017185086384415626526 0.011536401696503162384 0.002195674460381269455 0 0 0 0 0.037607669830322265625 0.024206461384892463684 0.22452817857265472412 0.088093347847461700439 -0.0054213744588196277618 -0.00124011235311627388 -0.00097365188412368297577 -0.00066595437237992882729 -0.00086597143672406673431 -0.00059960136422887444496 -0.00060306786326691508293 -0.00093826733063906431198 -0.0055661713704466819763 -0.005445598158985376358 -0.0009271414601244032383 -0.00077019724994897842407 -0.00083432096289470791817 -0.047344915568828582764 -0.034320913255214691162 -0.0099654234945774078369 -0.010645531117916107178 0.010978750884532928467 0.010029668919742107391 0.0040229102596640586853 0.0090325865894556045532 0.025136204436421394348 0.034177795052528381348 0.0029899913351982831955 0.0030766306445002555847 0.0031633526086807250977 0.0035409333650022745132 0.0094589395448565483093 0.028405681252479553223 0.0085570113733410835266 0.005439401138573884964 0.0043840566650032997131 0.023258807137608528137 0.0050671766512095928192 0.0034531292039901018143 0.012443169951438903809 0.0029699376318603754044 0.0032118838280439376831 0.0033144697081297636032 0.0052938563749194145203 0.0026983320713043212891 0.002620839979499578476 0.006665522698312997818 0.0088722864165902137756 0.0071288878098130226135 0.0076223090291023254395 0.0078671099618077278137 0.0054955226369202136993 0.01008199155330657959 0.0069730156101286411285 0.0031977756880223751068 0.0051198070868849754333 0.032650992274284362793 0.03622878342866897583 0.0021903098095208406448 0.0037217703647911548615 0.01939565315842628479 0.0041445200331509113312 0.0034847226925194263458 0.0060985619202256202698 -0.0026959562674164772034 -0.007256929297000169754 -0.011412809602916240692 -0.019133744761347770691 -0.034546632319688796997 -0.028252474963665008545 -0.01207684539258480072 -0.0035324308555573225021 0 0 0 0 0 0 0 0 0 0 0 0 0 0 0 0 0 0 0 0 0 0 0 0 0 0 0 0 0 0 0 0 0 0 0 0 0 0 0 0 0 0 0 0 0 0 0 0 0 0 0 0 0 0 0 0 0 0 0 0 0 0 0 0 0 0 0 0 0 0 0 0 0 0 0 0 0 0 0 0 0 0 0 0 0 0 0 0 0 0 0 0 0 0 0 
0 0 0 0 0 0 0 0 0 0 0 0 0 0 0 0 0 0 0 0 0 0 0 0 0 0 0 0 0 0 0 0 0 0 0 0 0 0 0 0 0 0 0 0 0 0 0 0 0 0 0 0 0 0 0 0 0 0 0 0 0 0 0 0 0 0 0 0 0 0 0 0 0 0 0 0 0 0 0 0 0 0 0 0 0 0 0 0 0 0 0 0 0 0 0 0 0 0 0 0.090333670377731323242 0.051330063492059707642 0.08462880551815032959 0.079991810023784637451 0.013867405243217945099 0.011842488311231136322 0.015267669223248958588 0.019721455872058868408 0.010593685321509838104 0.0057374686002731323242 0.022578483447432518005 0.012890526093542575836 0.014471864327788352966 0.092064462602138519287 0.086218982934951782227 0.0026804546359926462173 0.0012519569136202335358 0.00082263565855100750923 0 0 0 0 0.016926372423768043518 0.13432604074478149414 0.24637462198734283447 0.29033425450325012207 0.27645432949066162109 0.26068130135536193848 0.088093347847461700439 0.032861668616533279419 -0.00086850009392946958542 -0.0012710260925814509392 -0.00064339285017922520638 -0.00037570143467746675014 -0.00060306786326691508293 -0.0014006597921252250671 -0.0095840152353048324585 -0.0054809446446597576141 -0.0011198616120964288712 0 0 -0.047344915568828582764 -0.021503318101167678833 -0.0022337511181831359863 -0.0012579401955008506775 -0.00063554715598002076149 0.0032729096710681915283 0.0040229102596640586853 0.0090325865894556045532 0.0045006680302321910858 0.0035088171716779470444 0.0024301367811858654022 0.0044445958919823169708 0.0037722308188676834106 0.0035409333650022745132 0.08656511455774307251 0.057551983743906021118 0.015516336075961589813 0.0074087027460336685181 0.0052681663073599338531 0.023258807137608528137 0.022501904517412185669 0.023014681413769721985 0.036147937178611755371 0.050367768853902816772 0.012436766177415847778 0.0033144697081297636032 0.0056094755418598651886 0.024167276918888092041 0.010003748349845409393 0.0041618724353611469269 0.0039706546813249588013 0.0071288878098130226135 0.0076223090291023254395 0.0046970057301223278046 0.0041184728033840656281 0.0054191434755921363831 0.0031627153512090444565 0.0027978315483778715134 0.0051198070868849754333 0.0080523844808340072632 0.0076437131501734256744 0.0045040096156299114227 0.0039112376980483531952 0.012451617978513240814 0.0041445200331509113312 -0.0016081478679552674294 0.0038187243044376373291 -0.0017759923357516527176 -0.0028770915232598781586 -0.0050684334710240364075 -0.019133744761347770691 -0.0038991908077150583267 -0.003581741824746131897 -0.0049540107138454914093 0 0 0 0 0 0 0 0 0 0 0 0 0 0 0 0 0 0 0 0 0 0 0 0 0 0 0 0 0 0 0 0 0 0 0 0 0 0 0 0 0 0 0 0 0 0 0 0 0 0 0 0 0 0 0 0 0 0 0 0 0 0 0 0 0 0 0 0 0 0 0 0 0 0 0 0 0 0 0 0 0 0 0 0 0 0 0 0 0 0 0 0 0 0 0 0 
0 0 0 0 0 0 0 0 0 0 0 0 0 0 0 0 0 0 0 0 0 0 0 0 0 0 0 0 0 0 0 0 0 0 0 0 0 0 0 0 0 0 0 0 0 0 0 0 0 0 0 0 0 0 0 0 0 0 0 0 0 0 0 0 0 0 0 0 0 0 0 0 0 0 0 0 0 0 0 0 0 0 0 0 0 0 0 0 0 0 0 0 0 0 0 0 0 0 0 0.006341943051666021347 0.04935548827052116394 0.08462880551815032959 0.022796271368861198425 0.018834399059414863586 0.066941797733306884766 0.003386361757293343544 0.0044970223680138587952 0.0037144392263144254684 0.0057374686002731323242 0.012466684915125370026 0.0082700252532958984375 0.014117237180471420288 0.012392252683639526367 0.0091055342927575111389 0.0026804546359926462173 0.0012519569136202335358 0 0 0 0 0 0.016926372423768043518 0.10195890069007873535 0.34165871143341064453 0.0051889624446630477905 0.31829625368118286133 0.23924934864044189453 0.046819586306810379028 0.038252528756856918335 -0.0014437909703701734543 -0.0012761425459757447243 -0.00053032854339107871056 -0.00029641552828252315521 -0.00038529103039763867855 -0.00061368936439976096153 -0.0095840152353048324585 -0.0028593721799552440643 0 0 0 -0.028654269874095916748 -0.021503318101167678833 -0.0034082937054336071014 0.010071091353893280029 0.0056815440766513347626 0.0054687708616256713867 0.013355438597500324249 0.012780523858964443207 0.0045006680302321910858 0.0027081128209829330444 0.0018082249443978071213 0.0023435552138835191727 0.0048599215224385261536 0.0095166414976119995117 0.08656511455774307251 0.0018051444785669445992 0.0015536936698481440544 0.0016692163189873099327 0.004785210825502872467 0.014608326368033885956 0.022501904517412185669 0.031329378485679626465 0.01224317401647567749 0.022617740556597709656 0.052719846367835998535 0.004697487223893404007 0.0056094755418598651886 0.024167276918888092041 0.0025664619170129299164 0.0032533691264688968658 0.0039341370575129985809 0.005107977893203496933 0.0054378868080675601959 0.0046970057301223278046 0.0025021382607519626617 0.0020732337143272161484 0.0041024126112461090088 0.003533774055540561676 0.003901788732036948204 0.0080523844808340072632 0.004282495938241481781 0.017529800534248352051 0.022376351058483123779 0.0056525333784520626068 -0.00080232205800712108612 -0.0016081478679552674294 -0.0040305298753082752228 -0.0017283402848988771439 -0.0013221626868471503258 -0.0018583871424198150635 -0.003235409734770655632 -0.0038991908077150583267 0 0 0 0 0 0 0 0 0 0 0 0 0 0 0 0 0 0 0 0 0 0 0 0 0 0 0 0 0 0 0 0 0 0 0 0 0 0 0 0 0 0 0 0 0 0 0 0 0 0 0 0 0 0 0 0 0 0 0 0 0 0 0 0 0 0 0 0 0 0 0 0 0 0 0 0 0 0 0 0 0 0 0 0 0 0 0 0 0 0 0 0 0 0 0 0 0 0 
0 0 0 0 0 0 0 0 0 0 0 0 0 0 0 0 0 0 0 0 0 0 0 0 0 0 0 0 0 0 0 0 0 0 0 0 0 0 0 0 0 0 0 0 0 0 0 0 0 0 0 0 0 0 0 0 0 0 0 0 0 0 0 0 0 0 0 0 0 0 0 0 0 0 0 0 0 0 0 0 0 0 0 0 0 0 0 0 0 0 0 0 0 0 0 0 0 0 0 0.0023416569456458091736 0.0074938312172889709473 0.034775499254465103149 0.022796271368861198425 0.065554372966289520264 0.07937221229076385498 0.16662596166133880615 0.0051619829609990119934 0.0067559736780822277069 0.0056984936818480491638 0.012466684915125370026 0.016425896435976028442 0.016100769862532615662 0.014983952976763248444 0.011530256830155849457 0 0.0020878708455711603165 0 0 0 0 0 0.037840820848941802979 0.10195890069007873535 0.15559414029121398926 0.1685663759708404541 0.12464080005884170532 0.078004263341426849365 0.028217982500791549683 0.036239705979824066162 0.052119467407464981079 -0.0024772302713245153427 -0.0012050312943756580353 -0.0012791799381375312805 -0.00092231447342783212662 -0.00044061255175620317459 -0.00043960419134236872196 -0.0028593721799552440643 -0.00045951848733238875866 0 0.022518921643495559692 0.035052854567766189575 0.10444846749305725098 -0.0034082937054336071014 0.010071091353893280029 0.0042628622613847255707 0.013562841340899467468 0.010284690186381340027 0.0086843501776456832886 0.003452886827290058136 0.0027081128209829330444 0.0018125944770872592926 0.0020220300648361444473 0.0029879012145102024078 0.0036487074103206396103 0.019779106602072715759 0.0018051444785669445992 0.0042902361601591110229 0.0020811571739614009857 0.010591745376586914062 0.0068270070478320121765 0.0339794941246509552 0.031329378485679626465 0.01224317401647567749 0.032364711165428161621 0.0093970187008380889893 0.0061764223501086235046 0.0080178733915090560913 0.0069801984354853630066 0.0025664619170129299164 0.0069535295478999614716 0.0054131341166794300079 0.0046898000873625278473 0.0026865515392273664474 0.0054833805188536643982 0.0025021382607519626617 0.00315985153429210186 0.0046036434359848499298 0.0052192518487572669983 0.0046708839945495128632 0.0047530373558402061462 0.004282495938241481781 0.0038925076369196176529 0.0019185731653124094009 -0.0012570723192766308784 -0.0019764783792197704315 -0.0015566950896754860878 -0.0040305298753082752228 -0.0013130310690030455589 -0.00094091024948284029961 -0.00079975125845521688461 -0.0023058513179421424866 -0.0017645461484789848328 0 0 0 0 0 0 0 0 0 0 0 0 0 0 0 0 0 0 0 0 0 0 0 0 0 0 0 0 0 0 0 0 0 0 0 0 0 0 0 0 0 0 0 0 0 0 0 0 0 0 0 0 0 0 0 0 0 0 0 0 0 0 0 0 0 0 0 0 0 0 0 0 0 0 0 0 0 0 0 0 0 0 0 0 0 0 0 0 0 0 0 0 0 0 0 0 0 0 
0 0 0 0 0 0 0 0 0 0 0 0 0 0 0 0 0 0 0 0 0 0 0 0 0 0 0 0 0 0 0 0 0 0 0 0 0 0 0 0 0 0 0 0 0 0 0 0 0 0 0 0 0 0 0 0 0 0 0 0 0 0 0 0 0 0 0 0 0 0 0 0 0 0 0 0 0 0 0 0 0 0 0 0 0 0 0 0 0 0 0 0 0 0 0 0 0 0 0.013179853558540344238 0.0046750325709581375122 0.01449465285986661911 0.070541560649871826172 0.02388566918671131134 0.065554372966289520264 0.07937221229076385498 0.0033669788390398025513 0.010867613367736339569 0.0038416248280555009842 0.008296770043671131134 0.015822689980268478394 0.016425896435976028442 0.016100769862532615662 0.016422040760517120361 0.013588255271315574646 0.0026238225400447845459 0 0 0 0 0 0 0 0.16674475371837615967 0.15434573590755462646 0.148593902587890625 0 0.035028763115406036377 0.028421970084309577942 0.030679406598210334778 0.030660148710012435913 0.01967784389853477478 -0.0012050312943756580353 -0.00085876398952677845955 -0.00061351893236860632896 -0.00037586927646771073341 -0.00030321796657517552376 -0.00042705287341959774494 -0.00045951848733238875866 0.0082657737657427787781 0.014551470987498760223 0.026203809306025505066 0.031392712146043777466 0.02432611025869846344 0.011428262107074260712 0.0042628622613847255707 0.008573207072913646698 0.0063123698346316814423 0.010733026079833507538 0.013871016912162303925 0.0031842503231018781662 0.0018125944770872592926 0.00057525298325344920158 0.00057566538453102111816 0.00060446275165304541588 0.0017615399556234478951 0.0093000680208206176758 0.0042902361601591110229 0.0020811571739614009857 0.0085572507232427597046 0.0074344039894640445709 0.061336733400821685791 0.066594608128070831299 0.0060499068349599838257 0.032364711165428161621 0.015445995144546031952 0.0076310993172228336334 0.0037936805747449398041 0.0059222714044153690338 0.0045532779768109321594 0.0069535295478999614716 0.0079187033697962760925 0.016804583370685577393 0.0045684725046157836914 0.0047476659528911113739 0.0024749154690653085709 0.00315985153429210186 0.0046036434359848499298 0.0024538261350244283676 0.0037223994731903076172 0.0018322640098631381989 0.0036724144592881202698 0.0038925076369196176529 0.0019185731653124094009 0.0044463737867772579193 -0.0014826913829892873764 -0.010831451043486595154 -0.015942987054586410522 -0.0013130310690030455589 -0.00094091024948284029961 -0.0019814320839941501617 -0.0062021473422646522522 -0.00092909089289605617523 -0.0005704751238226890564 0 0 0 0 0 0 0 0 0 0 0 0 0 0 0 0 0 0 0 0 0 0 0 0 0 0 0 0 0 0 0 0 0 0 0 0 0 0 0 0 0 0 0 0 0 0 0 0 0 0 0 0 0 0 0 0 0 0 0 0 0 0 0 0 0 0 0 0 0 0 0 0 0 0 0 0 0 0 0 0 0 0 0 0 0 0 0 0 0 0 0 0 0 0 0 0 0 
0 0 0 0 0 0 0 0 0 0 0 0 0 0 0 0 0 0 0 0 0 0 0 0 0 0 0 0 0 0 0 0 0 0 0 0 0 0 0 0 0 0 0 0 0 0 0 0 0 0 0 0 0 0 0 0 0 0 0 0 0 0 0 0 0 0 0 0 0 0 0 0 0 0 0 0 0 0 0 0 0 0 0 0 0 0 0 0 0 0 0 0 0 0 0 0 0 0 0.013179853558540344238 0.044700987637042999268 0.099886551499366760254 0.048571147024631500244 0.061218623071908950806 0.0068985740654170513153 0.010445092804729938507 0.0033669788390398025513 0.010334756225347518921 0.0053630382753908634186 0.010281185619533061981 0.016599329188466072083 0.015025166794657707214 0.016220230609178543091 0.016422040760517120361 0.016813850030303001404 0.013284358195960521698 -0.022224139422178268433 -0 1.1888486146926879883 0 0 0.042659550905227661133 0 0.058061625808477401733 0.026543287560343742371 0 0 0.17243263125419616699 0 0 -0.0035179497208446264267 -0.00075282441684976220131 -0.0010559294605627655983 -0.0011404698016121983528 -0.0010860916227102279663 -0.00069479143712669610977 -0.00041346144280396401882 -0.00037365383468568325043 -0.00055189133854582905769 0 0.014551470987498760223 0.022059766575694084167 0.009119533933699131012 0.0036784806288778781891 0.0047409581020474433899 0.0051000639796257019043 0.008573207072913646698 0.013709277845919132233 0.0014876653440296649933 0.0010137550998479127884 0.00070439401315525174141 0.0006981471087783575058 0.00057525298325344920158 0.00057566538453102111816 0.0018449892522767186165 0.0066881077364087104797 0.026962613686919212341 0.028834311291575431824 0.0064486111514270305634 0.0085572507232427597046 0.011444065719842910767 0.018962170928716659546 0.013836727477610111237 0.017881590873003005981 0.011260083876550197601 0.015445995144546031952 0.015765625983476638794 0.0036497244145721197128 0.0039692819118499755859 0.0046999067999422550201 0.0043398072011768817902 0.0079187033697962760925 0.016804583370685577393 0.0086032729595899581909 0.0081094149500131607056 0.0040407860651612281799 0.0043989801779389381409 0.0043111052364110946655 0.0024538261350244283676 0.002927610417827963829 0.002276238519698381424 0.0037493978161364793777 0.0028824524488300085068 0.0023172919172793626785 0.0044463737867772579193 -0.0015948553336784243584 -0.0043392488732933998108 -0.0051048002205789089203 -0.0028906674124300479889 -0.0014357143081724643707 -0.0019814320839941501617 0 0 0 0 0 0 0 0 0 0 0 0 0 0 0 0 0 0 0 0 0 0 0 0 0 0 0 0 0 0 0 0 0 0 0 0 0 0 0 0 0 0 0 0 0 0 0 0 0 0 0 0 0 0 0 0 0 0 0 0 0 0 0 0 0 0 0 0 0 0 0 0 0 0 0 0 0 0 0 0 0 0 0 0 0 0 0 0 0 0 0 0 0 0 0 0 0 0 0 0 
0 0 0 0 0 0 0 0 0 0 0 0 0 0 0 0 0 0 0 0 0 0 0 0 0 0 0 0 0 0 0 0 0 0 0 0 0 0 0 0 0 0 0 0 0 0 0 0 0 0 0 0 0 0 0 0 0 0 0 0 0 0 0 0 0 0 0 0 0 0 0 0 0 0 0 0 0 0 0 0 0 0 0 0 0 0 0 0 0 0 0 0 0 0 0 0 0 0 0.12992405891418457031 0.044700987637042999268 0.024652529507875442505 0.034272179007530212402 0.05291767418384552002 0.059312149882316589355 0.003426737617701292038 0.0094516249373555183411 0.010334756225347518921 0.0053630382753908634186 0.014250991865992546082 0.015827199444174766541 0.01408760901540517807 0.017106886953115463257 0.016376795247197151184 0.016813850030303001404 0.31528472900390625 -0.040853992104530334473 0.28435230255126953125 0.086608588695526123047 0.20488817989826202393 0 0.042659550905227661133 0.002163615543395280838 0.079681560397148132324 0.027002131566405296326 0.013654555194079875946 0.030943056568503379822 0.17243263125419616699 0.11965738236904144287 0 0 -0.000200627895537763834 -0.00063952326308935880661 -0.0010311293881386518478 -0.00086202233796939253807 -0.00073303323006257414818 -0.00083471514517441391945 -0.00041278693242929875851 -0.00024972780374810099602 0 0.019847562536597251892 0.022059766575694084167 0.013173189014196395874 0.0067970249801874160767 0.0060976343229413032532 0.0067949583753943443298 0.016099441796541213989 0.013709277845919132233 0.0014876653440296649933 0.0015446980250999331474 0.00074703962309285998344 0.00089670374291017651558 0.00089712109183892607689 0.0013257201062515377998 0.0018449892522767186165 0.014467041008174419403 0.026016173884272575378 0.029194731265306472778 0.018707860261201858521 0.010144948028028011322 0.011444065719842910767 0.0070169349201023578644 0.0049479380249977111816 0.0080283507704734802246 0.0050854380242526531219 0.0037642337847501039505 0.015765625983476638794 0.0042486805468797683716 0.0036328968126326799393 0.0084135001525282859802 0.0046603186056017875671 0.0067837401293218135834 0.0043420856818556785583 0.0086032729595899581909 0.056908469647169113159 0.0092945108190178871155 0.0065435711294412612915 0.0037780748680233955383 0.0036291584838181734085 0.002927610417827963829 0.0021773478947579860687 0.0074939629994332790375 0.0047245514579117298126 0.0037224811967462301254 0.0030654214788228273392 -0.0015948553336784243584 0.0021391457412391901016 0.0024707366246730089188 0.0077782208099961280823 0 0 0 0 0 0 0 0 0 0 0 0 0 0 0 0 0 0 0 0 0 0 0 0 0 0 0 0 0 0 0 0 0 0 0 0 0 0 0 0 0 0 0 0 0 0 0 0 0 0 0 0 0 0 0 0 0 0 0 0 0 0 0 0 0 0 0 0 0 0 0 0 0 0 0 0 0 0 0 0 0 0 0 0 0 0 0 0 0 0 0 0 0 0 0 0 0 0 0 0 0 0 
0 0 0 0 0 0 0 0 0 0 0 0 0 0 0 0 0 0 0 0 0 0 0 0 0 0 0 0 0 0 0 0 0 0 0 0 0 0 0 0 0 0 0 0 0 0 0 0 0 0 0 0 0 0 0 0 0 0 0 0 0 0 0 0 0 0 0 0 0 0 0 0 0 0 0 0 0 0 0 0 0 0 0 0 0 0 0 0 0 0 0 0 0 0 0 0 0 0 0.061485469341278076172 0.070226050913333892822 0.024652529507875442505 0.034272179007530212402 0.052085708826780319214 0.050904024392366409302 0.0041992799378931522369 0.0024800410028547048569 0.012093791738152503967 0.012073678895831108093 0.014250991865992546082 0.0010611687321215867996 0.00094854686176404356956 0.014721099287271499634 0.0058824629522860050201 0.18546353280544281006 0.31528472900390625 -0.040853992104530334473 0.007063833530992269516 0.0047953207977116107941 0.043022248893976211548 0.019270882010459899902 0.02112476155161857605 0.002163615543395280838 0.014629772864282131195 0.14776647090911865234 0.040660489350557327271 0.065326236188411712646 0.11728808283805847168 0.12681457400321960449 0.069749139249324798584 0 0 0 -0.0012451681541278958321 -0.00087136391084641218185 -0.001262964797206223011 -0.00083471514517441391945 0.0094299921765923500061 0.0063073029741644859314 0.008196832612156867981 0.012412848882377147675 0.022605067119002342224 0.013173189014196395874 0.0052315695211291313171 0.015683772042393684387 0.0068266578018665313721 0.014912700280547142029 0.0054813208989799022675 0.0056361239403486251831 0.0015446980250999331474 0.00080621772212907671928 0.00086116854799911379814 0.00071689992910251021385 0.0020527262240648269653 0.0013328742934390902519 0.014467041008174419403 0.028366433456540107727 0.022048672661185264587 0.026646815240383148193 0.010946400463581085205 0.0034104627557098865509 0.0070169349201023578644 0.0045217387378215789795 0.010352458804845809937 0.0051940521225333213806 0.0039994311518967151642 0.006871439516544342041 0.0042486805468797683716 0.0036328968126326799393 0.0044261412695050239563 0.017576798796653747559 0.0041170846670866012573 0.0027578247245401144028 0.014180101454257965088 0.056908469647169113159 0.0045311325229704380035 0.0066898078657686710358 0.0022468643728643655777 0.0021903135348111391068 0.0043339352123439311981 0.0021773478947579860687 0.015534957870841026306 0.011100464500486850739 0.0054743671789765357971 0.0075358226895332336426 0.0045660575851798057556 0.0021391457412391901016 0.0053357961587607860565 0 0 0 0 0 0 0 0 0 0 0 0 0 0 0 0 0 0 0 0 0 0 0 0 0 0 0 0 0 0 0 0 0 0 0 0 0 0 0 0 0 0 0 0 0 0 0 0 0 0 0 0 0 0 0 0 0 0 0 0 0 0 0 0 0 0 0 0 0 0 0 0 0 0 0 0 0 0 0 0 0 0 0 0 0 0 0 0 0 0 0 0 0 0 0 0 0 0 0 0 0 0 0 
0 0 0 0 0 0 0 0 0 0 0 0 0 0 0 0 0 0 0 0 0 0 0 0 0 0 0 0 0 0 0 0 0 0 0 0 0 0 0 0 0 0 0 0 0 0 0 0 0 0 0 0 0 0 0 0 0 0 0 0 0 0 0 0 0 0 0 0 0 0 0 0 0 0 0 0 0 0 0 0 0 0 0 0 0 0 0 0 0 0 0 0 0 0 0 0 0 0.020965041592717170715 0.017352802678942680359 0.01982429996132850647 0.014930100180208683014 0.097892910242080688477 0.052085708826780319214 0.008426514454185962677 0.0016115711769089102745 0.0015070284716784954071 0.005396712571382522583 0.0092616649344563484192 0.014469168148934841156 0.0010611687321215867996 0.02773035876452922821 0.10269762575626373291 0.032030370086431503296 0.049857057631015777588 0.014169936999678611755 0.0087312906980514526367 0.007063833530992269516 -0.00086298934184014797211 0.024130776524543762207 0.023657927289605140686 0.024235246703028678894 0.0088278390467166900635 0.014629772864282131195 0.14776647090911865234 0.36128726601600646973 0.11446411162614822388 0.28078112006187438965 0.060884155333042144775 0.010600106790661811829 0 0.015393794514238834381 0.13022188842296600342 0.039875507354736328125 0.0033045376185327768326 0.00300833885557949543 0.004152037203311920166 0.034339148551225662231 0.010395829565823078156 0.0079698534682393074036 0.0071572153829038143158 0.017272299155592918396 0.013879176229238510132 0.013151466846466064453 0.015683772042393684387 0.0019573071040213108063 0.0063303806819021701813 0.0040741874836385250092 0.004226175602525472641 0.0066765048541128635406 0.00080621772212907671928 0.0017810533754527568817 0.0008659830782562494278 0.00085693242726847529411 0.0011857828358188271523 0.0018931205850094556808 0.028366433456540107727 0.021752648055553436279 0.0035874096211045980453 0.0032014432363212108612 0.0012451198417693376541 0.0085818264633417129517 0.0045217387378215789795 0.010352458804845809937 0.019088421016931533813 0.015442300587892532349 0.11825700849294662476 0.083220489323139190674 0.0092550190165638923645 0.0044261412695050239563 0.0061174449510872364044 0.0061266762204468250275 0.0051538385450839996338 0.0061605623923242092133 0.01270696055144071579 0.0045311325229704380035 0.0066893533803522586823 0.0028985342942178249359 0.0031042671762406826019 0.042858086526393890381 0.028493257239460945129 0.015534957870841026306 0.0030692687723785638809 0.01216077711433172226 0.038826823234558105469 0.019735462963581085205 0.0022446524817496538162 0.0048073246143758296967 0 0 0 0 0 0 0 0 0 0 0 0 0 0 0 0 0 0 0 0 0 0 0 0 0 0 0 0 0 0 0 0 0 0 0 0 0 0 0 0 0 0 0 0 0 0 0 0 0 0 0 0 0 0 0 0 0 0 0 0 0 0 0 0 0 0 0 0 0 0 0 0 0 0 0 0 0 0 0 0 0 0 0 0 0 0 0 0 0 0 0 0 0 0 0 0 0 0 0 0 0 0 0 
0 0 0 0 0 0 0 0 0 0 0 0 0 0 0 0 0 0 0 0 0 0 0 0 0 0 0 0 0 0 0 0 0 0 0 0 0 0 0 0 0 0 0 0 0 0 0 0 0 0 0 0 0 0 0 0 0 0 0 0 0 0 0 0 0 0 0 0 0 0 0 0 0 0 0 0 0 0 0 0 0 0 0 0 0 0 0 0 0 0 0 0 0 0 0 0 0 0.024462949484586715698 0.0078682191669940948486 0.01474337652325630188 0.030788926407694816589 0.063243739306926727295 0.010710793547332286835 0.008426514454185962677 0.0016115711769089102745 0.021847251802682876587 0.0042744381353259086609 0.023380355909466743469 0.0059188823215663433075 0.015652388334274291992 0.02773035876452922821 0.10269762575626373291 0.023372208699584007263 0.022556314244866371155 0.0760954245924949646 0.0044509256258606910706 -0.0091094868257641792297 -0.00086298934184014797211 0.015907498076558113098 0.54527604579925537109 0.0055834543891251087189 0.0062938230112195014954 0.056765142828226089478 0.28969845175743103027 0.36128726601600646973 0.069912552833557128906 0.084021106362342834473 0.086185082793235778809 0.010011043399572372437 0.038593005388975143433 0.015393794514238834381 0.016995051875710487366 0.027056600898504257202 0.0053300294093787670135 0.0082090329378843307495 0.025220206007361412048 0.10143864154815673828 0.022375367581844329834 0.0084345154464244842529 0.0086352312937378883362 0.0090485531836748123169 0.014287688769400119781 0.01007273700088262558 0.0046798419207334518433 0.0019573071040213108063 0.021639408543705940247 0.0052702692337334156036 0.0013786430936306715012 0.0019209099700674414635 0.0014533593785017728806 0.0017810533754527568817 0.00085922854486852884293 0.00074052769923582673073 0.0031310908962041139603 0.0065197269432246685028 0.010675488971173763275 0.014534452930092811584 0.0035874096211045980453 0.0027852118946611881256 0.0012514842674136161804 0.0074439528398215770721 0.0064704758115112781525 0.0047906716354191303253 0.019088421016931533813 0.022424938157200813293 0.10888498276472091675 0.084942378103733062744 0.015890022739768028259 0.0071296333335340023041 0.0061174449510872364044 0.0087104393169283866882 0.0034930086694657802582 0.0032569714821875095367 0.0015587417874485254288 0.004127331078052520752 0.0066893533803522586823 0.0028985342942178249359 0.0053111054003238677979 0.0073662693612277507782 0.0069293365813791751862 0.0028694348875433206558 0.0038209643680602312088 0.01216077711433172226 0.017479430884122848511 0.0042730374261736869812 0.0023192451335489749908 0.0043622246012091636658 0.0061935107223689556122 0 0 0 0 0 0 0 0 0 0 0 0 0 0 0 0 0 0 0 0 0 0 0 0 0 0 0 0 0 0 0 0 0 0 0 0 0 0 0 0 0 0 0 0 0 0 0 0 0 0 0 0 0 0 0 0 0 0 0 0 0 0 0 0 0 0 0 0 0 0 0 0 0 0 0 0 0 0 0 0 0 0 0 0 0 0 0 0 0 0 0 0 0 0 0 0 0 0 0 0 0 0 
0 0 0 0 0 0 0 0 0 0 0 0 0 0 0 0 0 0 0 0 0 0 0 0 0 0 0 0 0 0 0 0 0 0 0 0 0 0 0 0 0 0 0 0 0 0 0 0 0 0 0 0 0 0 0 0 0 0 0 0 0 0 0 0 0 0 0 0 0 0 0 0 0 0 0 0 0 0 0 0 0 0 0 0 0 0 0 0 0 0 0 0 0 0 0 0 0 0.0095480205491185188293 0.0078682191669940948486 0.058920469135046005249 0.16396965086460113525 0.044577945023775100708 0.017890781164169311523 0.016059726476669311523 0.025526281446218490601 0.021847251802682876587 0.012230896390974521637 0.007942180149257183075 0.010065417736768722534 -0.046097509562969207764 0.06616230309009552002 0.083016365766525268555 0.023372208699584007263 0.0074268085882067680359 0.0097127687186002731323 -0.0090192258358001708984 -0.005618236493319272995 -0.0011463196715340018272 0.015907498076558113098 0.54527604579925537109 -0.0013663589488714933395 -0.0046574962325394153595 -0.00083509838441386818886 0.011074529960751533508 0.049887951463460922241 0.069912552833557128906 0.047487311065196990967 0.064851924777030944824 0.023387653753161430359 0.10410710424184799194 0.027628945186734199524 0.017600428313016891479 0.1235655173659324646 0.0018600422190502285957 0.020614735782146453857 0.042392842471599578857 0.10689873993396759033 0.038447979837656021118 0.01363250240683555603 0.0086352312937378883362 0.015095061622560024261 0.0095280669629573822021 0.010124785825610160828 0.011862978339195251465 0.011587496846914291382 0.021639408543705940247 0.0013585475971922278404 0.0015617926837876439095 0.0020921048708260059357 0.0012110226089134812355 0.00084223120938986539841 0.0010618220549076795578 0.00074052769923582673073 0.00064321793615818023682 0.0006189055275171995163 0.00099333049729466438293 0.0071039195172488689423 0.0029955864883959293365 0.0027852118946611881256 0.0010644413996487855911 0.0009187600226141512394 0.0051436848007142543793 0.0049408986233174800873 0.0041852802969515323639 0.022424938157200813293 0.024267623201012611389 0.045992113649845123291 0.0061909104697406291962 0.0069551812484860420227 0.0029014137107878923416 0.021038757637143135071 0.0034930086694657802582 0.0049065621569752693176 0.0026235189288854598999 0.0017578025581315159798 0.004188385792076587677 0.0059739490970969200134 0.0053111054003238677979 0.00292760506272315979 0.0027219273615628480911 0.0035753205884248018265 0.0031858726870268583298 0.0028599451761692762375 0.017479430884122848511 0.0046455510891973972321 0.0067225652746856212616 0 0 0 0 0 0 0 0 0 0 0 0 0 0 0 0 0 0 0 0 0 0 0 0 0 0 0 0 0 0 0 0 0 0 0 0 0 0 0 0 0 0 0 0 0 0 0 0 0 0 0 0 0 0 0 0 0 0 0 0 0 0 0 0 0 0 0 0 0 0 0 0 0 0 0 0 0 0 0 0 0 0 0 0 0 0 0 0 0 0 0 0 0 0 0 0 0 0 0 0 0 0 0 0 
0 0 0 0 0 0 0 0 0 0 0 0 0 0 0 0 0 0 0 0 0 0 0 0 0 0 0 0 0 0 0 0 0 0 0 0 0 0 0 0 0 0 0 0 0 0 0 0 0 0 0 0 0 0 0 0 0 0 0 0 0 0 0 0 0 0 0 0 0 0 0 0 0 0 0 0 0 0 0 0 0 0 0 0 0 0 0 0 0 0 0 0 0 0 0 0 -0.0010741495061665773392 -0.0010683118598535656929 -0.0018212770810350775719 0.058920469135046005249 0.20019723474979400635 0.0052487296052277088165 0.0022326237522065639496 0.0021429415792226791382 0.0072612366639077663422 0.010000976733863353729 0.012230896390974521637 0.028295494616031646729 -0.018229555338621139526 -0.018772602081298828125 0.039985876530408859253 0.012240158393979072571 0.011394523084163665771 0.0074268085882067680359 -0.00059123587561771273613 -1.3375208254728931934e-05 -0.0029783926438540220261 0.0047636507079005241394 0.0032821323256939649582 -0.0014257077127695083618 -0.0013663589488714933395 -0.0034619630314409732819 -0.00090095843188464641571 0.037941046059131622314 0.10073869675397872925 0.26764085888862609863 0.047487311065196990967 0.085542708635330200195 0.12747234106063842773 0.082666739821434020996 0.040950484573841094971 0.021192256361246109009 0.02680042758584022522 0.0018879136769101023674 0.028717020526528358459 0.036054000258445739746 0.020030658692121505737 0.004665558692067861557 0.0044286693446338176727 0.0078171920031309127808 0.0062878429889678955078 0.019045317545533180237 0.0088359666988253593445 0.0066461358219385147095 0.01244118809700012207 0.0082566244527697563171 0.002757359994575381279 0.0015617926837876439095 0.0021189420949667692184 0.0030017653480172157288 0.001069888588972389698 0.00066370033891871571541 0.00086714606732130050659 0.00064321793615818023682 0.00064241280779242515564 0.0010153460316359996796 0.0039690816774964332581 0.0029304400086402893066 0.0022482548374682664871 0.0010644413996487855911 0.020261321216821670532 0.016675904393196105957 0.029650352895259857178 0.0053402050398290157318 0.011383911594748497009 0.016806822270154953003 0.045992113649845123291 0.0046791802160441875458 0.003328405553475022316 0.0038778567686676979065 0.025013424456119537354 0.014588338322937488556 0.0049065621569752693176 0.0016564725665375590324 0.0028350013308227062225 0.0095306718721985816956 0.034369159489870071411 0.0073845200240612030029 0.00292760506272315979 0.0037550376728177070618 0.0050236773677170276642 0.0044559566304087638855 0.0065813912078738212585 0.043942555785179138184 0.0087696416303515434265 0.0046308240853250026703 0 0 0 0 0 0 0 0 0 0 0 0 0 0 0 0 0 0 0 0 0 0 0 0 0 0 0 0 0 0 0 0 0 0 0 0 0 0 0 0 0 0 0 0 0 0 0 0 0 0 0 0 0 0 0 0 0 0 0 0 0 0 0 0 0 0 0 0 0 0 0 0 0 0 0 0 0 0 0 0 0 0 0 0 0 0 0 0 0 0 0 0 0 0 0 0 0 0 0 0 0 0 0 0 
0 0 0 0 0 0 0 0 0 0 0 0 0 0 0 0 0 0 0 0 0 0 0 0 0 0 0 0 0 0 0 0 0 0 0 0 0 0 0 0 0 0 0 0 0 0 0 0 0 0 0 0 0 0 0 0 0 0 0 0 0 0 0 0 0 0 0 0 0 0 0 0 0 0 0 0 0 0 0 0 0 0 0 0 0 0 0 0 0 0 0 0 0 0 0 0 -0.0013324407627806067467 -0.0060130101628601551056 0.061152819544076919556 0.04605188220739364624 0.20019723474979400635 0.0052487296052277088165 0.021839924156665802002 0.015728497877717018127 0.0045224837958812713623 0.0078441621735692024231 0.011851661838591098785 0.028295494616031646729 -0.018229555338621139526 0.065840221941471099854 0.16885437071323394775 0.097442917525768280029 -0.00090530543820932507515 -0.0011101249838247895241 -0.00059123587561771273613 -0.0011044549755752086639 0.56693929433822631836 -0.0032596390228718519211 0.024211382493376731873 -0.00022258746321313083172 -0.0023813326843082904816 -0.0034619630314409732819 -0.0016204635612666606903 -0.016778387129306793213 0.10615584254264831543 0.041250858455896377563 0.014564434997737407684 0.076304860413074493408 0.12747234106063842773 0.074321247637271881104 0.0021309005096554756165 0.0027801629621535539627 0.010695461183786392212 0.054075360298156738281 0.028717020526528358459 0.0086003830656409263611 0.024065701290965080261 0.017436238005757331848 0.011555790901184082031 0.0033310775179415941238 0.0072525157593190670013 0.011750442907214164734 0.0038355903234332799911 0.0095226485282182693481 0.017920890823006629944 0.0049239494837820529938 0.0076900934800505638123 0.0045153554528951644897 0.0021189420949667692184 0.0015094566624611616135 0.0018406448652967810631 0.0015917832497507333755 0.0013975687325000762939 0.00060510612092912197113 0.00062385975616052746773 0.0011721213813871145248 0.0010982683161273598671 0.00081325817154720425606 0.0031333679798990488052 0.0091933235526084899902 0.04694705083966255188 0.015355971641838550568 0.0080199278891086578369 0.0055616437457501888275 0.051631614565849304199 0.028852492570877075195 0.0050272499211132526398 0.0046791802160441875458 0.012959361076354980469 0.0024847041349858045578 0.0021673848386853933334 0.0018920561997219920158 0.0018129058880731463432 0.0016564725665375590324 0.003231748705729842186 0.0020405671093612909317 0.0019773594103753566742 0.0019036225276067852974 0.0020066811703145503998 0.0046857069246470928192 0.0050966897979378700256 0.0039426428265869617462 0.0081938477233052253723 0.043882977217435836792 0.014911331236362457275 0.0078289238736033439636 -0.00059389497619122266769 -0.00048875331413000822067 -0.00040172782610170543194 0 0 0 0 0 0 0 0 0 0 0 0 0 0 0 0 0 0 0 0 0 0 0 0 0 0 0 0 0 0 0 0 0 0 0 0 0 0 0 0 0 0 0 0 0 0 0 0 0 0 0 0 0 0 0 0 0 0 0 0 0 0 0 0 0 0 0 0 0 0 0 0 0 0 0 0 0 0 0 0 0 0 0 0 0 0 0 0 0 0 0 0 0 0 0 0 0 0 0 0 0 
0 0 0 0 0 0 0 0 0 0 0 0 0 0 0 0 0 0 0 0 0 0 0 0 0 0 0 0 0 0 0 0 0 0 0 0 0 0 0 0 0 0 0 0 0 0 0 0 0 0 0 0 0 0 0 0 0 0 0 0 0 0 0 0 0 0 0 0 0 0 0 0 0 0 0 0 0 0 0 0 0 0 0 0 0 0 0 0 0 0 0 0 0 0 0 0 -0.015543280169367790222 0.077459402382373809814 0.029852002859115600586 0.066516049206256866455 0.154031410813331604 0.008562716655433177948 0.021839924156665802002 0.0042046899907290935516 0.0052253026515245437622 0.0075290882959961891174 -0.0069795777089893817902 -0.0074310125783085823059 0.069270297884941101074 0.065840221941471099854 0.082795351743698120117 -0.0052376999519765377045 -0.00093575910432264208794 -0.00085265119560062885284 -0.0038344734348356723785 -0.0011044549755752086639 0.56693929433822631836 0.010182957164943218231 0.015757914632558822632 -9.7168900538235902786e-05 -0.0016842588083818554878 -0.0017159510171040892601 -0.0016204635612666606903 -0.016778387129306793213 0.01928722672164440155 0.0050226314924657344818 0.0026081944815814495087 0.011896610260009765625 0.012795846909284591675 0.074321247637271881104 0.047095544636249542236 0.007567827124148607254 0.011231194250285625458 0.034524429589509963989 0.059708803892135620117 0.0086024394258856773376 0.056316521018743515015 0.0040696398355066776276 0.0040837014093995094299 0.004017504863440990448 0.01014912780374288559 0.035884048789739608765 0.02175955846905708313 0.0095226485282182693481 0.013312962837517261505 0.0051644770428538322449 0.0017454394837841391563 0.0032187316101044416428 0.0036303121596574783325 0.0037564514204859733582 0.00087216589599847793579 0.0011777125764638185501 0.00092869490617886185646 0.0034384098835289478302 0.0010962473461404442787 0.001209707232192158699 0.001127689494751393795 0.00073633017018437385559 0.0011477953521534800529 0.0020145969465374946594 0.1132931932806968689 0.063782714307308197021 0.0080199278891086578369 0.0056649944745004177094 0.07318471372127532959 0.029861113056540489197 0.0020744607318192720413 0.0018726665293797850609 0.003227644599974155426 0.0038973316550254821777 0.018653804436326026917 0.0047803912311792373657 0.0018619521288201212883 0.0018688389100134372711 0.0025773032102733850479 0.0027677151374518871307 0.0031700357794761657715 0.0018357820808887481689 0.0024524496402591466904 0.0039016557857394218445 0.0024608250241726636887 0.0039426428265869617462 0.012804973870515823364 0.0057796277105808258057 0.0062183490954339504242 0.0076321479864418506622 -0.00052134704310446977615 -0.00059389497619122266769 -0.00056968641001731157303 -0.00052287743892520666122 0 0 0 0 0 0 0 0 0 0 0 0 0 0 0 0 0 0 0 0 0 0 0 0 0 0 0 0 0 0 0 0 0 0 0 0 0 0 0 0 0 0 0 0 0 0 0 0 0 0 0 0 0 0 0 0 0 0 0 0 0 0 0 0 0 0 0 0 0 0 0 0 0 0 0 0 0 0 0 0 0 0 0 0 0 0 0 0 0 0 0 0 0 0 0 0 0 0 0 0 
0 0 0 0 0 0 0 0 0 0 0 0 0 0 0 0 0 0 0 0 0 0 0 0 0 0 0 0 0 0 0 0 0 0 0 0 0 0 0 0 0 0 0 0 0 0 0 0 0 0 0 0 0 0 0 0 0 0 0 0 0 0 0 0 0 0 0 0 0 0 0 0 0 0 0 0 0 0 0 0 0 0 0 0 0 0 0 0 0 0 0 0 0 0 0 0 -0.0070050931535661220551 0.037359364330768585205 0.03868961334228515625 0.092656567692756652832 0.18441534042358398438 0.0032472254242748022079 0.0045138620771467685699 0.0042046899907290935516 0.0052253026515245437622 0.0058621494099497795105 0.0079950513318181037903 -0.0065223905257880687714 0.060769490897655487061 0.070590287446975708008 0.082795351743698120117 -0.0011267707450315356255 -0.0042327758856117725372 -0.0023646403569728136063 -0.0024413329083472490311 -0.00070281949592754244804 -0.00080322637222707271576 0.010182957164943218231 0.018695246428251266479 -0.00095740502001717686653 -0.00032139616087079048157 -0.00011794112651841714978 -0.00099829572718590497971 -0.0052511794492602348328 0.01928722672164440155 0.0240801982581615448 0.0044966205023229122162 0.030327098444104194641 0.056960545480251312256 0.10310712456703186035 0.047095544636249542236 0.018184909597039222717 0.016159242019057273865 0.052315942943096160889 0.049776062369346618652 0.0039849616587162017822 0.0027670376002788543701 0.0034742334391921758652 0.0045087314210832118988 0.0018871055217459797859 0.014517030678689479828 0.044595334678888320923 0.016968009993433952332 0.0037242476828396320343 0.0084187034517526626587 0.0054260855540633201599 0.011532348580658435822 0.0059862942434847354889 0.0027060757856816053391 0.0023904817644506692886 0.0016335736727342009544 0.0010427993256598711014 0.0007147162104956805706 0.0013295925455167889595 0.00085387472063302993774 0.00090827094390988349915 0.0010133570758625864983 0.00073633017018437385559 0.00052913854597136378288 0.0034366147592663764954 0.014574238099157810211 0.019437422975897789001 0.0098352730274200439453 0.0054746624082326889038 0.0023437328636646270752 0.0037052133120596408844 0.0057023428380489349365 0.0055940328165888786316 0.003963786642998456955 0.0023760451003909111023 0.017793180420994758606 0.0044084298424422740936 0.0018633881118148565292 0.0016396531136706471443 0.0015139696188271045685 0.0023334519937634468079 0.0031700357794761657715 0.0050607318989932537079 0.0081475013867020606995 0.0078154243528842926025 0.0091937761753797531128 0.0041867811232805252075 0.0059405905194580554962 0.0044369259849190711975 0.0065048593096435070038 -0.00065322115551680326462 -0.0005132709047757089138 -0.0020791334100067615509 -0.00057345535606145858765 -0.0005816075718030333519 -0.00042049575131386518478 -0.00051468115998432040215 0 0 0 0 0 0 0 0 0 0 0 0 0 0 0 0 0 0 0 0 0 0 0 0 0 0 0 0 0 0 0 0 0 0 0 0 0 0 0 0 0 0 0 0 0 0 0 0 0 0 0 0 0 0 0 0 0 0 0 0 0 0 0 0 0 0 0 0 0 0 0 0 0 0 0 0 0 0 0 0 0 0 0 0 0 0 0 0 0 0 0 0 0 0 0 0 0 0 
0 0 0 0 0 0 0 0 0 0 0 0 0 0 0 0 0 0 0 0 0 0 0 0 0 0 0 0 0 0 0 0 0 0 0 0 0 0 0 0 0 0 0 0 0 0 0 0 0 0 0 0 0 0 0 0 0 0 0 0 0 0 0 0 0 0 0 0 0 0 0 0 0 0 0 0 0 0 0 0 0 0 0 0 0 0 0 0 0 0 0 0 0 0 0 -0.025093076750636100769 0.065830871462821960449 0.040943432599306106567 0.03868961334228515625 0.01722594723105430603 0.03008838556706905365 0.0060964631848037242889 0.0036493842490017414093 0.0054482175037264823914 0.0069105159491300582886 0.0058621494099497795105 0.017656270414590835571 0.035586543381214141846 0.039337165653705596924 0.016331966966390609741 -0.0017889334121719002724 -0.0011267707450315356255 -0.0042327758856117725372 -0.0029733234550803899765 -0.0060210116207599639893 -0.0028334893286228179932 -0.0010986176785081624985 0.014876363798975944519 0.018695246428251266479 0.0095817269757390022278 0.54527604579925537109 -4.8926300223683938384e-05 0.0050342278555035591125 0.0038372194394469261169 0.0073059648275375366211 0.0240801982581615448 0.032407343387603759766 0.01283990032970905304 0.0056914458982646465302 0.011584296822547912598 0.021085470914840698242 0.016397440806031227112 0.016159242019057273865 0.031714156270027160645 0.032369021326303482056 0.026554860174655914307 0.017867334187030792236 0.011314604431390762329 0.0045087314210832118988 0.0032809197437018156052 0.003246437758207321167 0.002489904407411813736 0.0031587306875735521317 0.0030786190181970596313 0.0035594734363257884979 0.0016487383982166647911 0.0041645090095698833466 0.0042081344872713088989 0.0035810878034681081772 0.011513289064168930054 0.0036493241786956787109 0.0011089401086792349815 0.0010427993256598711014 0.00083451630780473351479 0.00063293735729530453682 0.00062254082877188920975 0.00088095350656658411026 0.00066061451798304915428 0.00048861448885872960091 0.001614172360859811306 0.0028219039086252450943 0.0041000149212777614594 0.085578851401805877686 0.085617780685424804688 0.006972780916839838028 0.0045656752772629261017 0.0036558767315000295639 0.0030080915894359350204 0.0038619115948677062988 0.0019605853594839572906 0.0044862120412290096283 0.017793180420994758606 0.0048395358026027679443 0.0066702282056212425232 0.0021225365344434976578 0.0023629046045243740082 0.0019723365548998117447 0.0020973146893084049225 0.0063591278158128261566 0.025526387616991996765 0.010139461606740951538 0.0065003414638340473175 0.0064703412353992462158 0.019874332472681999207 0.010917496867477893829 -0.0003907310892827808857 -0.00063460966339334845543 -0.0084093790501356124878 -0.0084150144830346107483 -0.0005816075718030333519 -0.0004418578464537858963 -0.00059095938922837376595 -0.00039431906770914793015 0 0 0 0 0 0 0 0 0 0 0 0 0 0 0 0 0 0 0 0 0 0 0 0 0 0 0 0 0 0 0 0 0 0 0 0 0 0 0 0 0 0 0 0 0 0 0 0 0 0 0 0 0 0 0 0 0 0 0 0 0 0 0 0 0 0 0 0 0 0 0 0 0 0 0 0 0 0 0 0 0 0 0 0 0 0 0 0 0 0 0 0 0 0 0 0 0 
0 0 0 0 0 0 0 0 0 0 0 0 0 0 0 0 0 0 0 0 0 0 0 0 0 0 0 0 0 0 0 0 0 0 0 0 0 0 0 0 0 0 0 0 0 0 0 0 0 0 0 0 0 0 0 0 0 0 0 0 0 0 0 0 0 0 0 0 0 0 0 0 0 0 0 0 0 0 0 0 0 0 0 0 0 0 0 0 0 0 0 0 0 0 0 -0.02639379352331161499 -0.014338885433971881866 0.096849896013736724854 0.04344410821795463562 0.01722594723105430603 0.064477778971195220947 0.014980260282754898071 0.017109075561165809631 0.0093562332913279533386 0.064668729901313781738 0.01462816726416349411 0.017656270414590835571 0.014827504754066467285 0.039810948073863983154 0.015222808346152305603 0.0097527336329221725464 -0.0011482816189527511597 -0.004616715945303440094 -0.0029733234550803899765 -0.001021242234855890274 -0.00060796982143074274063 0.0048204166814684867859 0.011765959672629833221 0.012050398625433444977 0.0095817269757390022278 0.54527604579925537109 0.010463343001902103424 0.0092579154297709465027 0.0097692543640732765198 0.012591696344316005707 0.049783583730459213257 0.032407343387603759766 0.01283990032970905304 0.021285990253090858459 0.013890901580452919006 0.0079628899693489074707 0.009480910375714302063 0.020088076591491699219 0.031714156270027160645 0.01709721982479095459 0.015213695354759693146 0.015403804369270801544 0.0073667201213538646698 0.024774286895990371704 0.0029903880786150693893 0.0059851212427020072937 0.0031802935991436243057 0.0029890097212046384811 0.0033102063462138175964 0.0028829937800765037537 0.0010092816082760691643 0.0025028765667229890823 0.0041645090095698833466 0.0011463592527434229851 0.0039487308822572231293 0.0017290173564106225967 0.00064216274768114089966 0.00062409968813881278038 0.0006663483218289911747 0.0018259657081216573715 0.0015601858031004667282 0.0062927184626460075378 0.014068977907299995422 0.00072450179141014814377 0.0016000146279111504555 0.0026800793129950761795 0.0036133583635091781616 0.044291090220212936401 0.087480008602142333984 0.0055518625304102897644 0.0045160595327615737915 0.0045656752772629261017 0.0025322891306132078171 0.0029415185563266277313 0.0015112394466996192932 0.0046731373295187950134 0.0059460992924869060516 0.0025722747668623924255 0.023615630343556404114 0.003970903344452381134 0.0017767343670129776001 0.0029992461204528808594 0.0030028983019292354584 0.032759014517068862915 0.037006940692663192749 0.015766801312565803528 0.045169491320848464966 0.028631882742047309875 0.02798033691942691803 0.010917496867477893829 -0.00071610521990805864334 -0.00094374635955318808556 -0.01105492468923330307 -0.010851697996258735657 -0.00074677873635664582253 -0.0004418578464537858963 -0.00046407841728068888187 0 0 0 0 0 0 0 0 0 0 0 0 0 0 0 0 0 0 0 0 0 0 0 0 0 0 0 0 0 0 0 0 0 0 0 0 0 0 0 0 0 0 0 0 0 0 0 0 0 0 0 0 0 0 0 0 0 0 0 0 0 0 0 0 0 0 0 0 0 0 0 0 0 0 0 0 0 0 0 0 0 0 0 0 0 0 0 0 0 0 0 0 0 0 0 0 0 0 
0 0 0 0 0 0 0 0 0 0 0 0 0 0 0 0 0 0 0 0 0 0 0 0 0 0 0 0 0 0 0 0 0 0 0 0 0 0 0 0 0 0 0 0 0 0 0 0 0 0 0 0 0 0 0 0 0 0 0 0 0 0 0 0 0 0 0 0 0 0 0 0 0 0 0 0 0 0 0 0 0 0 0 0 0 0 0 0 0 0 0 0 0 0 0.014367595314979553223 -0.010510953143239021301 -0.0043933307752013206482 -0.007714564446359872818 0.047256492078304290771 0.10072761774063110352 0.064477778971195220947 0.014980260282754898071 0.018179807811975479126 0.025625610724091529846 0.0096833230927586555481 0.0010882481001317501068 0.026264980435371398926 0.014827504754066467285 0.039810948073863983154 0.023827042430639266968 0.026386724784970283508 0.0092214401811361312866 -0.0013396725989878177643 -0.001180500607006251812 -0.001021242234855890274 0.0046512070111930370331 0.016964722424745559692 0.0098351622000336647034 0.010735213756561279297 0.013156446628272533417 0.0071881087496876716614 0.010463343001902103424 0.01230135839432477951 0.0047243377193808555603 0.014767631888389587402 0.012588026002049446106 0.028796987608075141907 0.022131560370326042175 0.021285990253090858459 0.050178784877061843872 0.048127006739377975464 0.034649465233087539673 0.0070238145999610424042 0.016822904348373413086 0.01709721982479095459 0.04810012131929397583 0.010323325172066688538 0.024144252762198448181 0.094062209129333496094 0.042261827737092971802 0.099228613078594207764 0.0038084231782704591751 0.0046700560487806797028 0.014347252435982227325 0.0036212434060871601105 0.0025761201977729797363 0.0012037213891744613647 0.0015074479160830378532 0.0068034538999199867249 0.0013095022877678275108 0.00091564300237223505974 0.00092260603560134768486 0.00078498944640159606934 0.00094309565611183643341 0.0010195977520197629929 0.0023196656256914138794 0.44462072849273681641 0.015043877996504306793 0.013509664684534072876 0.0016560874646529555321 0.0016806346829980611801 0.049400180578231811523 0.005968970712274312973 0.0057159061543643474579 0.0319481678307056427 0.037906486541032791138 0.047247938811779022217 0.0031096006277948617935 0.0035883188247680664062 0.0026048270519822835922 0.0042403787374496459961 0.0069946451112627983093 0.0034574137534946203232 0.022266363725066184998 0.0026662079617381095886 0.0056976987980306148529 0.0048614931292831897736 0.0025909682735800743103 0.0051042409613728523254 0.0048764608800411224365 0.013659072108566761017 -0.00090517592616379261017 -0.00087996805086731910706 -0.0011364516103640198708 -0.0005461278487928211689 -0.00071610521990805864334 -0.00046738571836613118649 -0.0010374269913882017136 -0.0020341970957815647125 -0.00087235524551942944527 -0.00048151719965972006321 -0.00046407841728068888187 0 0 0 0 0 0 0 0 0 0 0 0 0 0 0 0 0 0 0 0 0 0 0 0 0 0 0 0 0 0 0 0 0 0 0 0 0 0 0 0 0 0 0 0 0 0 0 0 0 0 0 0 0 0 0 0 0 0 0 0 0 0 0 0 0 0 0 0 0 0 0 0 0 0 0 0 0 0 0 0 0 0 0 0 0 0 0 0 0 0 0 0 0 0 0 0 0 0 
0 0 0 0 0 0 0 0 0 0 0 0 0 0 0 0 0 0 0 0 0 0 0 0 0 0 0 0 0 0 0 0 0 0 0 0 0 0 0 0 0 0 0 0 0 0 0 0 0 0 0 0 0 0 0 0 0 0 0 0 0 0 0 0 0 0 0 0 0 0 0 0 0 0 0 0 0 0 0 0 0 0 0 0 0 0 0 0 0 0 0 0 0 0 0 0.014367595314979553223 0.083566971123218536377 0.13832804560661315918 0.064908675849437713623 0.0079301651567220687866 0.010477237403392791748 0.013970588333904743195 0.018179807811975479126 0.026582472026348114014 0.014590572565793991089 0.006503222975879907608 0.0077058272436261177063 0.033154517412185668945 0.0078257312998175621033 0.023827042430639266968 0.034100316464900970459 0.0065340204164385795593 0.0070987949147820472717 0.029265241697430610657 0.0070343641564249992371 0.0046512070111930370331 0.016964722424745559692 0.0073609282262623310089 0.0075542801059782505035 0.039149999618530273438 0.026489816606044769287 0.0139065571129322052 0.01230135839432477951 0.027903161942958831787 0.020624021068215370178 0.04423602670431137085 0.010018250904977321625 0.0095609370619058609009 0.054615572094917297363 0.050178784877061843872 0.011724092997610569 0.0064271837472915649414 0.0042236363515257835388 0.0091433404013514518738 0.012630553916096687317 0.0095615824684500694275 0.010323325172066688538 0.079557433724403381348 0.1244694143533706665 0.11008054763078689575 0.074379988014698028564 0.059273175895214080811 0.0046700560487806797028 0.012433534488081932068 0.013005522079765796661 0.02287777140736579895 0.0052412943914532661438 0.0013313821982592344284 0.00089753384236246347427 0.00066182797309011220932 0.00094282499048858880997 0.001067331177182495594 0.00096253375522792339325 0.0011981844436377286911 0.0017262252513319253922 0.0035304350312799215317 0.015373906120657920837 0.031354464590549468994 0.039487920701503753662 0.0040327943861484527588 0.0054210121743381023407 0.049400180578231811523 0.020265681669116020203 0.0036331966985017061234 0.04321991652250289917 0.12153152376413345337 0.010402662679553031921 0.0038925793487578630447 0.0035814906004816293716 0.0047021070495247840881 0.043586518615484237671 0.02759997732937335968 0.008589657023549079895 0.0032392756547778844833 0.0026662079617381095886 0.0068342369049787521362 -0.00020196776313241571188 -0.00016107226838357746601 -0.00024211358686443418264 -0.00016706270980648696423 0.013659072108566761017 -0.00061849714256823062897 -0.00038708630017936229706 -0.00074350036447867751122 -0.00054551003267988562584 -0.00046838162234053015709 -0.00046738571836613118649 -0.0010374269913882017136 -0.00060192419914528727531 -0.00036517027183435857296 -0.00045467072050087153912 0 0 0 0 0 0 0 0 0 0 0 0 0 0 0 0 0 0 0 0 0 0 0 0 0 0 0 0 0 0 0 0 0 0 0 0 0 0 0 0 0 0 0 0 0 0 0 0 0 0 0 0 0 0 0 0 0 0 0 0 0 0 0 0 0 0 0 0 0 0 0 0 0 0 0 0 0 0 0 0 0 0 0 0 0 0 0 0 0 0 0 0 0 0 0 0 0 0 0 
0 0 0 0 0 0 0 0 0 0 0 0 0 0 0 0 0 0 0 0 0 0 0 0 0 0 0 0 0 0 0 0 0 0 0 0 0 0 0 0 0 0 0 0 0 0 0 0 0 0 0 0 0 0 0 0 0 0 0 0 0 0 0 0 0 0 0 0 0 0 0 0 0 0 0 0 0 0 0 0 0 0 0 0 0 0 0 0 0 0 0 0 0 0 0.056458078324794769287 0.08856426924467086792 0.10573232918977737427 0.16241258382797241211 0.093968324363231658936 0.026456646621227264404 0.025104552507400512695 0.0067499973811209201813 0.025281719863414764404 0.026582472026348114014 0.036637041717767715454 0.063465103507041931152 0.0089673157781362533569 0.019584415480494499207 0.010761341080069541931 0.055076830089092254639 0.034100316464900970459 0.0035815981682389974594 0.0039646918885409832001 0.0090890023857355117798 0.0099827237427234649658 0.0031953642610460519791 0.013756551779806613922 0.0073609282262623310089 0.019877769052982330322 0.015426112338900566101 0.010360240936279296875 0.025507509708404541016 0.02982684597373008728 0.027903161942958831787 0.020624021068215370178 0.01401909906417131424 0.042541045695543289185 0.044521015137434005737 0.082708872854709625244 0.054610285907983779907 0.011724092997610569 0.0064271837472915649414 0.0073879514820873737335 0.049280587583780288696 0.043716978281736373901 0.12774908542633056641 0.097414396703243255615 0.079557433724403381348 0.0069257952272891998291 0.067623682320117950439 0.03627923130989074707 0.1238358914852142334 0.0044074980542063713074 0.0054029384627938270569 0.007437857799232006073 0.038487322628498077393 0.014188078232109546661 0.0016391773242503404617 0.0014776746975257992744 0.00078429619316011667252 0.00079017464304342865944 0.0019054673612117767334 0.00615962175652384758 0.0023482975084334611893 0.0069911521859467029572 0.022014798596501350403 0.015373906120657920837 0.0071038049645721912384 0.0091682206839323043823 0.011570584960281848907 0.02221411094069480896 0.0089709293097257614136 0.0090245380997657775879 0.0042176297865808010101 0.0032669648062437772751 0.0046149641275405883789 0.0062590423040091991425 0.0054501062259078025818 0.0050863623619079589844 0.0047021070495247840881 0.064769528806209564209 0.064098753035068511963 0.012019333429634571075 0.0062662516720592975616 0.0047341668978333473206 0.0068342369049787521362 0.0053156334906816482544 -0.00016682394198141992092 -0.00042370532173663377762 -0.00014819492935203015804 -7.4907271482516080141e-05 -0.00048387484275735914707 -0.00038708630017936229706 -0.01052860356867313385 -0.00077093619620427489281 -0.0010002645431086421013 -0.00076453527435660362244 -0.00056130060693249106407 -0.00060192419914528727531 -0.00093946990091353654861 0.54855388402938842773 0 0 0 0 0 0 0 0 0 0 0 0 0 0 0 0 0 0 0 0 0 0 0 0 0 0 0 0 0 0 0 0 0 0 0 0 0 0 0 0 0 0 0 0 0 0 0 0 0 0 0 0 0 0 0 0 0 0 0 0 0 0 0 0 0 0 0 0 0 0 0 0 0 0 0 0 0 0 0 0 0 0 0 0 0 0 0 0 0 0 0 0 0 0 0 0 0 0 0 
0 0 0 0 0 0 0 0 0 0 0 0 0 0 0 0 0 0 0 0 0 0 0 0 0 0 0 0 0 0 0 0 0 0 0 0 0 0 0 0 0 0 0 0 0 0 0 0 0 0 0 0 0 0 0 0 0 0 0 0 0 0 0 0 0 0 0 0 0 0 0 0 0 0 0 0 0 0 0 0 0 0 0 0 0 0 0 0 0 0 0 0 0 -0.0014276762958616018295 0.010704703629016876221 0.026388429105281829834 0.056760244071483612061 0.12520016729831695557 0.093968324363231658936 0.095550172030925750732 0.14717568457126617432 0.026670070365071296692 0.0047565116547048091888 0.0040775807574391365051 0.036637041717767715454 0.063465103507041931152 0.017722757533192634583 0.014003895223140716553 0.021700730547308921814 0.0075861271470785140991 0.0075180381536483764648 0.0035815981682389974594 0.0039646918885409832001 0.0036883910652250051498 0.022445673123002052307 0.042680807411670684814 0.0085406396538019180298 0.0069674439728260040283 0.019877769052982330322 0.02695916593074798584 0.012703444808721542358 0.016089824959635734558 0.025585839524865150452 0.02963216044008731842 0.031245039775967597961 0.01401909906417131424 0.015692105516791343689 0.031125713139772415161 0.064695343375205993652 0.035049803555011749268 0.016733827069401741028 0.012118044309318065643 0.0073879514820873737335 0.005148575175553560257 0.0048048095777630805969 0.031280118972063064575 0.0058996393345296382904 0.038294624537229537964 0.0069257952272891998291 0.0075464625842869281769 0.0097702257335186004639 0.086028032004833221436 0.0068189008161425590515 0.0080446163192391395569 0.018793731927871704102 0.038487322628498077393 0.023584838956594467163 0.0028646118007600307465 0.0015249176649376749992 0.0039382311515510082245 0.0040217367932200431824 0.0019054673612117767334 0.015758628025650978088 0.0026389339473098516464 0.014273121021687984467 0.017310611903667449951 0.013662269338965415955 0.016589779406785964966 0.12472267448902130127 0.053075443953275680542 0.01073263213038444519 0.0084380367770791053772 0.0067877578549087047577 0.0052528977394104003906 0.0032669648062437772751 -0.00033112551318481564522 0.0086519261822104454041 0.0097537320107221603394 0.015894502401351928711 0.020923411473631858826 0.064769528806209564209 0.076348349452018737793 0.079111665487289428711 0.008534192107617855072 0.0056771365925669670105 0.0046347724273800849915 -0.00030428939498960971832 -0.00016682394198141992092 -0.00017100000695791095495 -0.00060879893135279417038 -0.0011576090473681688309 -0.00084847019752487540245 -0.0020087563898414373398 -0.01052860356867313385 -0.0036947291810065507889 -0.0003846061299555003643 0 0 0.54855388402938842773 -0.00093946990091353654861 0 0 0 0 0 0 0 0 0 0 0 0 0 0 0 0 0 0 0 0 0 0 0 0 0 0 0 0 0 0 0 0 0 0 0 0 0 0 0 0 0 0 0 0 0 0 0 0 0 0 0 0 0 0 0 0 0 0 0 0 0 0 0 0 0 0 0 0 0 0 0 0 0 0 0 0 0 0 0 0 0 0 0 0 0 0 0 0 0 0 0 0 0 0 0 0 0 0 0 0 
0 0 0 0 0 0 0 0 0 0 0 0 0 0 0 0 0 0 0 0 0 0 0 0 0 0 0 0 0 0 0 0 0 0 0 0 0 0 0 0 0 0 0 0 0 0 0 0 0 0 0 0 0 0 0 0 0 0 0 0 0 0 0 0 0 0 0 0 0 0 0 0 0 0 0 0 0 0 0 0 0 0 0 0 0 0 0 0 0 0 0 0 0 -0.0020322988275438547134 -0.011496580205857753754 -0.012176516465842723846 0.11320144683122634888 0.077409304678440093994 0.086617343127727508545 0.095550172030925750732 0.094322815537452697754 0.026210632175207138062 0.0077345864847302436829 0.0096480166539549827576 0.019325628876686096191 0.085975781083106994629 0.017722757533192634583 0.022992856800556182861 0.01699402928352355957 0.0082613015547394752502 0.0052862889133393764496 0.0121343955397605896 0.026385661214590072632 0.0036883910652250051498 0.011885919608175754547 0.021315244957804679871 0.018317675217986106873 0.020675297826528549194 0.0070209335535764694214 0.02695916593074798584 0.012703444808721542358 0.020377090200781822205 0.014385458081960678101 0.029444871470332145691 0.027073798701167106628 0.027554349973797798157 0.015692105516791343689 0.021071774885058403015 0.038738798350095748901 0.030082516372203826904 0.048762921243906021118 0.013791197910904884338 0.0074914991855621337891 0.005148575175553560257 0.004015447571873664856 0.004145288374274969101 0.0041737332940101623535 0.0059750662185251712799 0.0061971684917807579041 0.0071405987255275249481 0.0097702257335186004639 0.11999832838773727417 0.030446136370301246643 0.0059451851993799209595 0.014757968485355377197 0.034443415701389312744 0.023584838956594467163 0.006959556136280298233 0.0015300551895052194595 0.0063428482972085475922 0.011043136939406394958 0.020837487652897834778 0.012972893193364143372 0.0093424161896109580994 0.067013457417488098145 0.032752409577369689941 0.048878815025091171265 0.039263434708118438721 0.03873694688081741333 0.053075443953275680542 0.056968461722135543823 0.011578766629099845886 0.0047370810061693191528 -0.00048481434350833296776 0.0047416468150913715363 -0.00033112551318481564522 -0.00049820006825029850006 0.006359459366649389267 0.026823388412594795227 0.010584600269794464111 0.053767066448926925659 0.053508821874856948853 0.079111665487289428711 -0.00043369183549657464027 -0.0017240149900317192078 -0.00026342296041548252106 -0.00019824242917820811272 -0.00015121919568628072739 -0.00017100000695791095495 -0.00013154564658179879189 -0.00083548965631052851677 -0.00079825770808383822441 -0.00058483157772570848465 -0.0043408311903476715088 -0.0036947291810065507889 0 0 0 0 0 0 0 0 0 0 0 0 0 0 0 0 0 0 0 0 0 0 0 0 0 0 0 0 0 0 0 0 0 0 0 0 0 0 0 0 0 0 0 0 0 0 0 0 0 0 0 0 0 0 0 0 0 0 0 0 0 0 0 0 0 0 0 0 0 0 0 0 0 0 0 0 0 0 0 0 0 0 0 0 0 0 0 0 0 0 0 0 0 0 0 0 0 0 0 0 0 0 0 0 0 
0 0 0 0 0 0 0 0 0 0 0 0 0 0 0 0 0 0 0 0 0 0 0 0 0 0 0 0 0 0 0 0 0 0 0 0 0 0 0 0 0 0 0 0 0 0 0 0 0 0 0 0 0 0 0 0 0 0 0 0 0 0 0 0 0 0 0 0 0 0 0 0 0 0 0 0 0 0 0 0 0 0 0 0 0 0 0 0 0 0 0 0 0 -0.0018137990264222025871 -0.0021664609666913747787 -0.02821628376841545105 0.031339816749095916748 0.28007403016090393066 0.10209662467241287231 0.06207368895411491394 0.094322815537452697754 0.009967155754566192627 0.0687715187668800354 0.020859351381659507751 0.01271429751068353653 0.023716429248452186584 0.026014348492026329041 0.022992856800556182861 0.01699402928352355957 0.0093229208141565322876 0.0028203539550304412842 0.0022029946558177471161 0.004514953121542930603 0.0062932055443525314331 0.011885919608175754547 0.065698891878128051758 0.0089855026453733444214 0.010049750097095966339 0.039764378219842910767 0.01705204695463180542 0.016251478344202041626 0.020377090200781822205 0.083648338913917541504 0.066388607025146484375 0.093209974467754364014 0.0053148427978157997131 0.018331039696931838989 0.021071774885058403015 0.038738798350095748901 0.032179798930883407593 0.015580280683934688568 0.019142379984259605408 0.017948431894183158875 0.029945885762572288513 0.004015447571873664856 0.004145288374274969101 0.0046829613856971263885 0.0030089253559708595276 0.0035082825925201177597 0.005341638810932636261 0.0064003677107393741608 0.11999832838773727417 0.14873050153255462646 0.0054776179604232311249 0.0063089733012020587921 0.010986265726387500763 0.014644705690443515778 0.0087199881672859191895 0.0016457530437037348747 0.10430655628442764282 0.043329976499080657959 0.037536460906267166138 0.031970910727977752686 0.03376933559775352478 0.067013457417488098145 0.0094833029434084892273 0.030734788626432418823 0.036049403250217437744 0.1765327155590057373 0.14299693703651428223 0.056968461722135543823 0.05375254899263381958 0.015637587755918502808 0.0073211644776165485382 -0.0002974469098262488842 -0.00080921407788991928101 -0.00078696128912270069122 0.006359459366649389267 -0.00070629664696753025055 -0.00048709896509535610676 -0.0010290659265592694283 -0.00036874998477287590504 -0.00015619937039446085691 -0.00043369183549657464027 -0.00074563035741448402405 -0.00050597562221810221672 -0.00037956779124215245247 -0.0001433474244549870491 -0.00015448007616214454174 -0.00013154564658179879189 -0.0012786032166332006454 -0.0006245936383493244648 -0.00070445728488266468048 0.54614633321762084961 0 0 0 0 0 0 0 0 0 0 0 0 0 0 0 0 0 0 0 0 0 0 0 0 0 0 0 0 0 0 0 0 0 0 0 0 0 0 0 0 0 0 0 0 0 0 0 0 0 0 0 0 0 0 0 0 0 0 0 0 0 0 0 0 0 0 0 0 0 0 0 0 0 0 0 0 0 0 0 0 0 0 0 0 0 0 0 0 0 0 0 0 0 0 0 0 0 0 0 0 0 0 0 0 0 0 
0 0 0 0 0 0 0 0 0 0 0 0 0 0 0 0 0 0 0 0 0 0 0 0 0 0 0 0 0 0 0 0 0 0 0 0 0 0 0 0 0 0 0 0 0 0 0 0 0 0 0 0 0 0 0 0 0 0 0 0 0 0 0 0 0 0 0 0 0 0 0 0 0 0 0 0 0 0 0 0 0 0 0 0 0 0 0 0 0 0 0 0 0 -0.0016723566222935914993 -0.0021664609666913747787 -0.0240270271897315979 0.094982236623764038086 0.014281966723501682281 0.010262549854815006256 0.17119234800338745117 0.072145789861679077148 0.018788488581776618958 0.0687715187668800354 0.034208923578262329102 0.040734402835369110107 0.054189212620258331299 0.081222958862781524658 0.0093846116214990615845 0.074219346046447753906 0.0093229208141565322876 0.012836872600018978119 0.013040555641055107117 0.010117527097463607788 0.010464781895279884338 0.074631430208683013916 0.065698891878128051758 0.0089855026453733444214 0.052362427115440368652 0.052976254373788833618 0.050449807196855545044 0.0028323116712272167206 0.0070845591835677623749 0.083648338913917541504 0.081191390752792358398 0.042260020971298217773 0.037434864789247512817 0.042912401258945465088 0.019572092220187187195 0.021308522671461105347 0.032179798930883407593 0.01696066930890083313 0.0054782442748546600342 0.01073299068957567215 0.010757482610642910004 0.0058606970123946666718 0.0044860537163913249969 0.0046829613856971263885 0.011087215505540370941 0.0071167265996336936951 0.0025260047987103462219 0.0083030546084046363831 0.053946055471897125244 0.14873050153255462646 0.031465418636798858643 0.026499979197978973389 0.075483180582523345947 0.13081945478916168213 0.036595415323972702026 0.024525141343474388123 0.10430655628442764282 0.024576783180236816406 0.019790789112448692322 0.014280712231993675232 0.0084894327446818351746 0.0083310417830944061279 0.0094833029434084892273 0.048305682837963104248 0.039064846932888031006 0.1214828789234161377 0.50024282932281494141 0.10987789928913116455 0.093633465468883514404 0.015637587755918502808 0.098390601575374603271 0.047166232019662857056 -0.0022644100245088338852 -0.0013900381745770573616 -0.0012898454442620277405 -0.00070629664696753025055 -0.00041429389966651797295 -0.000296163198072463274 -0.00028331505018286406994 -0.00042682589264586567879 -0.00035385630326345562935 -0.00074563035741448402405 -0.00054460490355268120766 -0.0010620977263897657394 -0.00012094502017134800553 -0.0001709591597318649292 -0.00010306939657311886549 -0.0012786032166332006454 -0.0006245936383493244648 -0.00047399519826285541058 0 0 0 0 0 0 0 0 0 0 0 0 0 0 0 0 0 0 0 0 0 0 0 0 0 0 0 0 0 0 0 0 0 0 0 0 0 0 0 0 0 0 0 0 0 0 0 0 0 0 0 0 0 0 0 0 0 0 0 0 0 0 0 0 0 0 0 0 0 0 0 0 0 0 0 0 0 0 0 0 0 0 0 0 0 0 0 0 0 0 0 0 0 0 0 0 0 0 0 0 0 0 0 0 0 0 0 
0 0 0 0 0 0 0 0 0 0 0 0 0 0 0 0 0 0 0 0 0 0 0 0 0 0 0 0 0 0 0 0 0 0 0 0 0 0 0 0 0 0 0 0 0 0 0 0 0 0 0 0 0 0 0 0 0 0 0 0 0 0 0 0 0 0 0 0 0 0 0 0 0 0 0 0 0 0 0 0 0 0 0 0 0 0 0 0 0 0 0 0.0074056256562471389771 -0.01916830800473690033 -0.015130021609365940094 -0.013971210457384586334 -0.0022830013185739517212 0.05799466744065284729 0.016650702804327011108 0.018366167321801185608 0.086293675005435943604 0.050849217921495437622 0.04210964590311050415 0.020824223756790161133 0.034208923578262329102 0.073036022484302520752 0.091445982456207275391 0.090210013091564178467 0.070467337965965270996 0.075644440948963165283 0.055449727922677993774 0.012836872600018978119 0.0046079857274889945984 0.0061911991797387599945 0.0042379908263683319092 0.058512188494205474854 0.015946395695209503174 0.032877266407012939453 0.052362427115440368652 0.024566302075982093811 0.019976967945694923401 0.017516199499368667603 0.0083387671038508415222 0.088785134255886077881 0.081191390752792358398 0.042260020971298217773 0.033971108496189117432 0.060835342854261398315 0.10185891389846801758 0.011661264114081859589 0.019603524357080459595 0.01696066930890083313 0.0079687125980854034424 0.012321077287197113037 0.042360901832580566406 0.008034079335629940033 0.0059184799902141094208 0.0068887420929968357086 0.011087215505540370941 0.013008910231292247772 0.0058824252337217330933 0.041783578693866729736 0.034558832645416259766 0.025611976161599159241 0.028136441484093666077 0.026499979197978973389 0.011922884732484817505 0.16957791149616241455 0.078662641346454620361 0.024813942611217498779 0.060689713805913925171 0.024576783180236816406 0.014262992888689041138 0.0054947389289736747742 0.02045193500816822052 0.031557664275169372559 0.034475918859243392944 0.048305682837963104248 0.039064846932888031006 0.065286837518215179443 0.02747757546603679657 0.039346318691968917847 0.041312716901302337646 0.078128978610038757324 0.098390601575374603271 0.019524773582816123962 0.020901456475257873535 0.02258302643895149231 -0.001088219229131937027 -0.00046738778473809361458 -0.00041429389966651797295 -0.00035203076549805700779 -0.0013782338937744498253 -0.0010420246981084346771 -0.00015038794663269072771 -0.00020875222980976104736 -0.00054460490355268120766 -0.0010620977263897657394 0.12926177680492401123 -0.00015856062236707657576 -0.00056116719497367739677 -0.00069211883237585425377 -0.00053856620797887444496 -0.00047399519826285541058 0 0 0 0 0 0 0 0 0 0 0 0 0 0 0 0 0 0 0 0 0 0 0 0 0 0 0 0 0 0 0 0 0 0 0 0 0 0 0 0 0 0 0 0 0 0 0 0 0 0 0 0 0 0 0 0 0 0 0 0 0 0 0 0 0 0 0 0 0 0 0 0 0 0 0 0 0 0 0 0 0 0 0 0 0 0 0 0 0 0 0 0 0 0 0 0 0 0 0 0 0 0 0 0 0 0 0 
0 0 0 0 0 0 0 0 0 0 0 0 0 0 0 0 0 0 0 0 0 0 0 0 0 0 0 0 0 0 0 0 0 0 0 0 0 0 0 0 0 0 0 0 0 0 0 0 0 0 0 0 0 0 0 0 0 0 0 0 0 0 0 0 0 0 0 0 0 0 0 0 0 0 0 0 0 0 0 0 0 0 0 0 0 0 0 0 0 0 0 0.030442222952842712402 0.01218437589704990387 -0.024074694141745567322 -0.042109768837690353394 0.044810157269239425659 0.033226251602172851562 0.012833899818360805511 0.015109574422240257263 0.0073745860718190670013 0.0099831325933337211609 0.015628393739461898804 0.017258491367101669312 0.017473937943577766418 0.073036022484302520752 0.091445982456207275391 0.10792226344347000122 0.034041110426187515259 0.012983927503228187561 0.047693461179733276367 0.0042786942794919013977 0.0046079857274889945984 0.0061911991797387599945 0.019575456157326698303 0.052206572145223617554 0.028174187988042831421 0.017199762165546417236 0.14102302491664886475 0.024566302075982093811 0.0085516124963760375977 0.0056287604384124279022 0.11690209805965423584 0.11125100404024124146 0.039445903152227401733 0.026601852849125862122 0.033971108496189117432 0.025791171938180923462 0.058146592229604721069 0.023107573390007019043 0.010321465320885181427 0.011466320604085922241 0.0079687125980854034424 0.012321077287197113037 0.043359644711017608643 0.14986279606819152832 0.0052675623446702957153 0.0065597677603363990784 0.0078483372926712036133 0.013008910231292247772 0.0058824252337217330933 0.0065932949073612689972 0.085323952138423919678 0.038233980536460876465 0.057401299476623535156 0.03737233579158782959 0.011922884732484817505 0.036224242299795150757 0.0074387229979038238525 0.01609216444194316864 0.0050791446119546890259 0.030997086316347122192 0.014262992888689041138 0.0054947389289736747742 0.0051446766592562198639 0.029761759564280509949 0.013345429673790931702 0.01681281067430973053 0.016771642491221427917 0.065286837518215179443 0.024391110986471176147 0.010087766684591770172 -0.00022877135779708623886 -0.00031376248807646334171 -0.00039106814074330031872 0.019524773582816123962 0 0 0 -0.00026863234234042465687 -0.00022701798297930508852 -0.00035203076549805700779 -0.0013782338937744498253 0.26539924740791320801 -0.00055468082427978515625 -0.00021619709150400012732 -0.00023347917885985225439 -0.0010747872292995452881 0.12926177680492401123 0 0 0 0 0 0 0 0 0 0 0 0 0 0 0 0 0 0 0 0 0 0 0 0 0 0 0 0 0 0 0 0 0 0 0 0 0 0 0 0 0 0 0 0 0 0 0 0 0 0 0 0 0 0 0 0 0 0 0 0 0 0 0 0 0 0 0 0 0 0 0 0 0 0 0 0 0 0 0 0 0 0 0 0 0 0 0 0 0 0 0 0 0 0 0 0 0 0 0 0 0 0 0 0 0 0 0 0 0 0 0 0 
0 0 0 0 0 0 0 0 0 0 0 0 0 0 0 0 0 0 0 0 0 0 0 0 0 0 0 0 0 0 0 0 0 0 0 0 0 0 0 0 0 0 0 0 0 0 0 0 0 0 0 0 0 0 0 0 0 0 0 0 0 0 0 0 0 0 0 0 0 0 0 0 0 0 0 0 0 0 0 0 0 0 0 0 0 0 0 0 0 0 0.022687967866659164429 0.030442222952842712402 0.021738158538937568665 0.15069687366485595703 0.12353201210498809814 0.11553774029016494751 0.029597414657473564148 0.0070286630652844905853 0.0086878407746553421021 0.0073745860718190670013 0.042705241590738296509 0.030820244923233985901 0.0069002830423414707184 0.0059144338592886924744 0.0046178582124412059784 0.13269716501235961914 0.10792226344347000122 0.016078302636742591858 0.0093271173536777496338 0.061048805713653564453 0.00039729269337840378284 0.0051725697703659534454 0.0030907508917152881622 0.019575456157326698303 0.15474006533622741699 0.10926948487758636475 0.053234208375215530396 0.016805138438940048218 0.0097569711506366729736 0.0085516124963760375977 0.0056287604384124279022 0.057093411684036254883 0.13188406825065612793 0.038334798067808151245 0.025426337495446205139 0.011496260762214660645 0.025791171938180923462 0.010591458529233932495 0.0069914623163640499115 0.025167325511574745178 0.0093301087617874145508 0.0062619182281196117401 0.034254435449838638306 0.043359644711017608643 0.084860205650329589844 0.01362082362174987793 0.004699326585978269577 0.014301097020506858826 0.030586568638682365417 0.0061459424905478954315 0.0065932949073612689972 0.019236162304878234863 0.0058912378735840320587 0.053037989884614944458 0.030183821916580200195 0.024768115952610969543 0.036224242299795150757 0.0074387229979038238525 0.0035922247916460037231 0.0071454104036092758179 0.0040958644822239875793 0.017459928989410400391 0.0054853730835020542145 0.0051446766592562198639 0.029578544199466705322 0.028833938762545585632 0.012639670632779598236 0.030791819095611572266 0.017863243818283081055 0.024391110986471176147 0.011751553975045681 0.011276544071733951569 -0.00025391133385710418224 -0.0002422597026452422142 -0.00034305581357330083847 0 0 0 0 -0.00069526029983535408974 -0.0034309404436498880386 -0.0052700955420732498169 0.26539924740791320801 0.12926177680492401123 0 0.12926177680492401123 -0.00035265434416942298412 -0.0001799899619072675705 0 0 0 0 0 0 0 0 0 0 0 0 0 0 0 0 0 0 0 0 0 0 0 0 0 0 0 0 0 0 0 0 0 0 0 0 0 0 0 0 0 0 0 0 0 0 0 0 0 0 0 0 0 0 0 0 0 0 0 0 0 0 0 0 0 0 0 0 0 0 0 0 0 0 0 0 0 0 0 0 0 0 0 0 0 0 0 0 0 0 0 0 0 0 0 0 0 0 0 0 0 0 0 0 0 0 0 0 0 0 0 0 
0 0 0 0 0 0 0 0 0 0 0 0 0 0 0 0 0 0 0 0 0 0 0 0 0 0 0 0 0 0 0 0 0 0 0 0 0 0 0 0 0 0 0 0 0 0 0 0 0 0 0 0 0 0 0 0 0 0 0 0 0 0 0 0 0 0 0 0 0 0 0 0 0 0 0 0 0 0 0 0 0 0 0 0 0 0 0 0 0 0 0.025156788527965545654 0.031203143298625946045 0.022069001570343971252 0.016927517950534820557 0.0092767588794231414795 0.018541799858212471008 0.008296987973153591156 0.013810770586133003235 0.063105948269367218018 0.07259359210729598999 0.080457471311092376709 0.035781409591436386108 0.015762625262141227722 0.029186427593231201172 0.014231951907277107239 0.05470561981201171875 0.11931327730417251587 0.016078302636742591858 0.11987815052270889282 0.12169911712408065796 0.0057295570150017738342 0.0052569825202226638794 0.0059107616543769836426 0.036551147699356079102 0.15474006533622741699 0.035539969801902770996 0.017798157408833503723 0.007079004775732755661 0.0076227481476962566376 0.036719832569360733032 0.032989051192998886108 0.057093411684036254883 0.020765749737620353699 0.079610623419284820557 0.097312249243259429932 0.011520355939865112305 0.012339917942881584167 0.010591458529233932495 0.0069914623163640499115 0.017571134492754936218 0.0092243282124400138855 0.0084795625880360603333 0.067222908139228820801 0.11464443802833557129 0.084860205650329589844 0.01362082362174987793 0.0069189188070595264435 0.0089501794427633285522 0.012870504520833492279 0.011204653419554233551 0.0070205363444983959198 0.019236162304878234863 0.0068067912943661212921 0.032147362828254699707 0.02831560187041759491 0.048349697142839431763 0.02703501284122467041 0.0095718819648027420044 0.0035922247916460037231 0.017289429903030395508 0.033892065286636352539 0.01520045846700668335 0.023308459669351577759 0.0095745148137211799622 0.029578544199466705322 0.023284288123250007629 0.03169301152229309082 0.042831808328628540039 0.0067257746122777462006 0.0049509620293974876404 0.011751553975045681 0.011276544071733951569 0.0055400114506483078003 -0.00030704282107762992382 -0.00046090810792520642281 -0.00064127467339858412743 -0.00014659510634373873472 0 0 0 0 0 0 0.12926177680492401123 0 0 0 0.12926177680492401123 0 0 0 0 0 0 0 0 0 0 0 0 0 0 0 0 0 0 0 0 0 0 0 0 0 0 0 0 0 0 0 0 0 0 0 0 0 0 0 0 0 0 0 0 0 0 0 0 0 0 0 0 0 0 0 0 0 0 0 0 0 0 0 0 0 0 0 0 0 0 0 0 0 0 0 0 0 0 0 0 0 0 0 0 0 0 0 0 0 0 0 0 0 0 0 0 0 0 0 0 0 0 0 0 0 0 0 0 0 0 0 0 
0 0 0 0 0 0 0 0 0 0 0 0 0 0 0 0 0 0 0 0 0 0 0 0 0 0 0 0 0 0 0 0 0 0 0 0 0 0 0 0 0 0 0 0 0 0 0 0 0 0 0 0 0 0 0 0 0 0 0 0 0 0 0 0 0 0 0 0 0 0 0 0 0 0 0 0 0 0 0 0 0 0 0 0 0 0 0 0 0.0079704700037837028503 0.011665995232760906219 0.030177379027009010315 0.021180275827646255493 0.019752504304051399231 0.11375305056571960449 0.0092767588794231414795 0.017037618905305862427 0.062228098511695861816 0.012156714685261249542 0.037147574126720428467 0.062197457998991012573 0.055243913084268569946 0.029939511790871620178 0.015762625262141227722 0.02311352267861366272 0.023774374276399612427 0.046367920935153961182 0.041553694754838943481 0.054756753146648406982 0.11987815052270889282 0.12169911712408065796 0.036727111786603927612 0.0085011962801218032837 0.009602523408830165863 0.0066245417110621929169 0.026209620758891105652 0.035539969801902770996 0.017798157408833503723 0.018263269215822219849 0.020709205418825149536 0.0484923534095287323 0.018787609413266181946 0.01164731290191411972 0.020765749737620353699 0.020163588225841522217 0.040894675999879837036 0.024059204384684562683 0.0096792075783014297485 0.0082888165488839149475 0.0081841610372066497803 0.017571134492754936218 0.093541964888572692871 0.012852244079113006592 0.035445481538772583008 0.0073606669902801513672 0.0063790599815547466278 0.014074897393584251404 0.0069189188070595264435 0.0040103700011968612671 0.0093650501221418380737 0.0087858773767948150635 0.0083363158628344535828 0.0077759507112205028534 0.0068067912943661212921 0.032147362828254699707 0.020533423870801925659 0.0063237883150577545166 0.026445502415299415588 0.018207473680377006531 0.0092335678637027740479 0.017289429903030395508 0.0049358848482370376587 0.010636547580361366272 0.0064043346792459487915 0.0063231973908841609955 0.0036138349678367376328 0.023284288123250007629 0.0097453482449054718018 0.007511606905609369278 0.0080583002418279647827 0.037109870463609695435 0.033952638506889343262 -0.00052747968584299087524 0.0055400114506483078003 0 0 0.20193579792976379395 0.20193579792976379395 0.20193579792976379395 0 0 0 0 0 0 0 0 0 0 0 0 0 0 0 0 0 0 0 0 0 0 0 0 0 0 0 0 0 0 0 0 0 0 0 0 0 0 0 0 0 0 0 0 0 0 0 0 0 0 0 0 0 0 0 0 0 0 0 0 0 0 0 0 0 0 0 0 0 0 0 0 0 0 0 0 0 0 0 0 0 0 0 0 0 0 0 0 0 0 0 0 0 0 0 0 0 0 0 0 0 0 0 0 0 0 0 0 0 0 0 0 0 0 0 0 0 0 0 0 0 0 
0 0 0 0 0 0 0 0 0 0 0 0 0 0 0 0 0 0 0 0 0 0 0 0 0 0 0 0 0 0 0 0 0 0 0 0 0 0 0 0 0 0 0 0 0 0 0 0 0 0 0 0 0 0 0 0 0 0 0 0 0 0 0 0 0 0 0 0 0 0 0 0 0 0 0 0 0 0 0 0 0 0 0 0 0 0 0 0 0.0079704700037837028503 0.011665995232760906219 0.018709892407059669495 0.02733668498694896698 0.074962690472602844238 0.11227508634328842163 0.013123414479196071625 0.017037618905305862427 0.095763593912124633789 0.044547419995069503784 0.025556556880474090576 0.0199546031653881073 0.016628315672278404236 0.022985527291893959045 0.02790386788547039032 0.02311352267861366272 0.013994519598782062531 0.07549015432596206665 0.019945831969380378723 0.020364068448543548584 0.11450909823179244995 0.095020681619644165039 0.036727111786603927612 0.018142240121960639954 0.009970318526029586792 0.015697486698627471924 0.0078728981316089630127 0.0071036834269762039185 0.0053198640234768390656 0.018263269215822219849 0.04602449759840965271 0.019079554826021194458 0.026383273303508758545 0.016092017292976379395 0.023857941851019859314 0.020163588225841522217 0.040894675999879837036 0.010244823992252349854 0.010790200904011726379 0.010517438873648643494 0.086316667497158050537 0.15865303575992584229 0.093541964888572692871 0.0046288305893540382385 0.0057382131926715373993 0.01111324504017829895 0.0026524162385612726212 0.0033708033151924610138 0.0032301833853125572205 0.0040103700011968612671 0.052627418190240859985 0.061009459197521209717 0.025692654773592948914 0.014047686010599136353 0.025029098615050315857 0.032024122774600982666 0.020533423870801925659 0.062840901315212249756 0.0117826852947473526 0.017011379823088645935 0.007415360771119594574 0.005436627659946680069 0.0049358848482370376587 0.013869679532945156097 0.0031399293802678585052 0.020751541480422019958 0.032863281667232513428 0.01528249494731426239 0.0097453482449054718018 0.007511606905609369278 0.02252789027988910675 0.023057838901877403259 0.026139169931411743164 0.024222359061241149902 0.024576697498559951782 0 0 0 0 0 0 0 0 0 0 0 0 0 0 0 0 0 0 0 0 0 0 0 0 0 0 0 0 0 0 0 0 0 0 0 0 0 0 0 0 0 0 0 0 0 0 0 0 0 0 0 0 0 0 0 0 0 0 0 0 0 0 0 0 0 0 0 0 0 0 0 0 0 0 0 0 0 0 0 0 0 0 0 0 0 0 0 0 0 0 0 0 0 0 0 0 0 0 0 0 0 0 0 0 0 0 0 0 0 0 0 0 0 0 0 0 0 0 0 0 0 0 0 0 0 0 0 
0 0 0 0 0 0 0 0 0 0 0 0 0 0 0 0 0 0 0 0 0 0 0 0 0 0 0 0 0 0 0 0 0 0 0 0 0 0 0 0 0 0 0 0 0 0 0 0 0 0 0 0 0 0 0 0 0 0 0 0 0 0 0 0 0 0 0 0 0 0 0 0 0 0 0 0 0 0 0 0 0 0 0 0 0 0 0 0 0.011217864230275154114 0.011747792363166809082 0.018709892407059669495 0.025889847427606582642 0.05789028853178024292 0.069346010684967041016 0.088637851178646087646 0.076369650661945343018 0.023765249177813529968 0.029969867318868637085 0.021692886948585510254 0.027777070179581642151 0.018634229898452758789 0.022335955873131752014 0.066156342625617980957 0.01544657628983259201 0.013994519598782062531 0.013430424965918064117 0.012635735794901847839 0.023119341582059860229 0.0075955572538077831268 0.011103121563792228699 0.011311991140246391296 0.018142240121960639954 0.011386908590793609619 0.051931813359260559082 0.058130368590354919434 0.00711827864870429039 0.0065517937764525413513 0.025764441117644309998 0.04602449759840965271 0.060553755611181259155 0.028947217389941215515 0.016590375453233718872 0.069907777011394500732 0.009444929659366607666 0.00710162334144115448 0.010244823992252349854 0.018981760367751121521 0.010159738361835479736 0.029942408204078674316 0.01847411133348941803 0.00570088997483253479 0.0046288305893540382385 0.0057382131926715373993 0.0056991726160049438477 0.0091897398233413696289 0.017321670427918434143 0.0080905715003609657288 0.021765172481536865234 0.052627418190240859985 0.061009459197521209717 0.0084522301331162452698 0.0067908046767115592957 0.011555330827832221985 0.030294520780444145203 0.042477775365114212036 0.062840901315212249756 0.063513338565826416016 0.036872807890176773071 0.013731542974710464478 0.056966949254274368286 0.035074640065431594849 0.013869679532945156097 0.0031399293802678585052 0.046429023146629333496 0.030552064999938011169 0.045784562826156616211 0.030868506059050559998 0.020117107778787612915 0.02252789027988910675 0.030611742287874221802 0.020529115572571754456 0.50278794765472412109 0 0 0 0 0 0 0 0 0 0 0 0 0 0 0 0 0 0 0 0 0 0 0 0 0 0 0 0 0 0 0 0 0 0 0 0 0 0 0 0 0 0 0 0 0 0 0 0 0 0 0 0 0 0 0 0 0 0 0 0 0 0 0 0 0 0 0 0 0 0 0 0 0 0 0 0 0 0 0 0 0 0 0 0 0 0 0 0 0 0 0 0 0 0 0 0 0 0 0 0 0 0 0 0 0 0 0 0 0 0 0 0 0 0 0 0 0 0 0 0 0 0 0 0 0 0 0 0 
0 0 0 0 0 0 0 0 0 0 0 0 0 0 0 0 0 0 0 0 0 0 0 0 0 0 0 0 0 0 0 0 0 0 0 0 0 0 0 0 0 0 0 0 0 0 0 0 0 0 0 0 0 0 0 0 0 0 0 0 0 0 0 0 0 0 0 0 0 0 0 0 0 0 0 0 0 0 0 0 0 0 0 0 0 0 0 0.032847687602043151855 0.03165731579065322876 0.030023746192455291748 0.021874509751796722412 0.025889847427606582642 0.015113970264792442322 0.07054027169942855835 0.10542767494916915894 0.094861209392547607422 0.069801717996597290039 0.04028581082820892334 0.094707265496253967285 0.027777070179581642151 0.051661536097526550293 0.018544672057032585144 0.015894137322902679443 0.0047235568054020404816 0.0072387689724564552307 0.027216127142310142517 0.012635735794901847839 0.018550368025898933411 0.01507691945880651474 0.016053449362516403198 0.0045040436089038848877 0.02075553499162197113 0.011386908590793609619 0.051931813359260559082 0.58723926544189453125 0.35463038086891174316 0.0073603950440883636475 0.0076681929640471935272 0.023534769192337989807 0.060553755611181259155 0.028947217389941215515 0.021502446383237838745 0.015301004983484745026 0.0060202991589903831482 0.0096404841169714927673 0.024699553847312927246 0.018981760367751121521 0.0033038968686014413834 0.014997794292867183685 0.0050848359242081642151 0.0047330451197922229767 0.004100844264030456543 0.0039851176552474498749 0.0056991726160049438477 0.0099355001002550125122 0.006916578393429517746 0.010366046801209449768 0.063789077103137969971 0.11090474575757980347 0.043994318693876266479 0.0084522301331162452698 0.051604975014925003052 0.086522631347179412842 0.019497087225317955017 0.10226406902074813843 0.13471677899360656738 0.063513338565826416016 0.0098766367882490158081 0.020563995465636253357 0.019283009693026542664 0.014946378767490386963 0.038931228220462799072 0.057286422699689865112 0.046429023146629333496 0.037599813193082809448 0.045039147138595581055 0.045487467199563980103 0.075540140271186828613 0.050704043358564376831 0.030611742287874221802 0 0 0 0 0 0 0 0 0 0 0 0 0 0 0 0 0 0 0 0 0 0 0 0 0 0 0 0 0 0 0 0 0 0 0 0 0 0 0 0 0 0 0 0 0 0 0 0 0 0 0 0 0 0 0 0 0 0 0 0 0 0 0 0 0 0 0 0 0 0 0 0 0 0 0 0 0 0 0 0 0 0 0 0 0 0 0 0 0 0 0 0 0 0 0 0 0 0 0 0 0 0 0 0 0 0 0 0 0 0 0 0 0 0 0 0 0 0 0 0 0 0 0 0 0 0 0 0 0 0 
0 0 0 0 0 0 0 0 0 0 0 0 0 0 0 0 0 0 0 0 0 0 0 0 0 0 0 0 0 0 0 0 0 0 0 0 0 0 0 0 0 0 0 0 0 0 0 0 0 0 0 0 0 0 0 0 0 0 0 0 0 0 0 0 0 0 0 0 0 0 0 0 0 0 0 0 0 0 0 0 0 0 0 0 0 0 0 0.018715964630246162415 0.020896179601550102234 0.021089537069201469421 0.02108521386981010437 0.012997158803045749664 0.015113970264792442322 0.059068519622087478638 0.019995152950286865234 0.027916347607970237732 0.03598168492317199707 0.01305657997727394104 0.028379434719681739807 0.06455291062593460083 0.0032986619044095277786 0.021121542900800704956 0.0045603550970554351807 0.0048560206778347492218 0.075532287359237670898 0.047938529402017593384 0.021109005436301231384 0.018550368025898933411 0.017581207677721977234 0.021909490227699279785 0.0092767560854554176331 0.006448386702686548233 0.0091077312827110290527 0.044663045555353164673 0.58723926544189453125 0.017218174412846565247 0.0073753027245402336121 0.0040617352351546287537 0.0048644091002643108368 0.011171081103384494781 0.010994735173881053925 0.021502446383237838745 0.0170488748699426651 0.035394713282585144043 0.010681321844458580017 0.019109508022665977478 0.0082451608031988143921 0.0033038968686014413834 0.014997794292867183685 0.021178804337978363037 0.0058095292188227176666 0.012402188032865524292 0.014569867402315139771 0.017102900892496109009 0.0099355001002550125122 0.012214319780468940735 0.015948988497257232666 0.039036482572555541992 0.0065399943850934505463 0.024059422314167022705 0.047565955668687820435 0.051604975014925003052 0.0083804782480001449585 0.0067145414650440216064 0.024316258728504180908 0.01258261408656835556 0.012693310156464576721 0.0098766367882490158081 0.020563995465636253357 0.029598968103528022766 0.007432732265442609787 0.030529627576470375061 0.0090015539899468421936 0.030381834134459495544 0.037599813193082809448 0.039081566035747528076 0.048157066106796264648 0.25465145707130432129 0.13386550545692443848 0.088297449052333831787 0 0 0 0 0 0 0 0 0 0 0 0 0 0 0 0 0 0 0 0 0 0 0 0 0 0 0 0 0 0 0 0 0 0 0 0 0 0 0 0 0 0 0 0 0 0 0 0 0 0 0 0 0 0 0 0 0 0 0 0 0 0 0 0 0 0 0 0 0 0 0 0 0 0 0 0 0 0 0 0 0 0 0 0 0 0 0 0 0 0 0 0 0 0 0 0 0 0 0 0 0 0 0 0 0 0 0 0 0 0 0 0 0 0 0 0 0 0 0 0 0 0 0 0 0 0 0 0 0 0 
0 0 0 0 0 0 0 0 0 0 0 0 0 0 0 0 0 0 0 0 0 0 0 0 0 0 0 0 0 0 0 0 0 0 0 0 0 0 0 0 0 0 0 0 0 0 0 0 0 0 0 0 0 0 0 0 0 0 0 0 0 0 0 0 0 0 0 0 0 0 0 0 0 0 0 0 0 0 0 0 0 0 0 0 0 0 0 0.018715964630246162415 0.0099196694791316986084 0.021633826196193695068 0.018267177045345306396 0.017048802226781845093 0.011943700723350048065 0.051731824874877929688 0.019995152950286865234 0.011669471859931945801 0.015570653602480888367 0.010692668147385120392 0.0016816786956042051315 0.004837275482714176178 0.0042793876491487026215 0.033583533018827438354 0.011426300741732120514 0.014118159189820289612 0.11681492626667022705 0.022806230932474136353 0.016514748334884643555 0.019156081601977348328 0.017581207677721977234 0.021909490227699279785 0.01033966895192861557 0.0097975665703415870667 0.081035934388637542725 0.13737224042415618896 0.018850380554795265198 0.017218174412846565247 0.0037608838174492120743 0.0031410104129463434219 0.012445932254195213318 0.010509396903216838837 0.0086935972794890403748 0.032750230282545089722 0.0170488748699426651 0.037106040865182876587 0.13103076815605163574 0.24470666050910949707 0.060977887362241744995 0.0094711016863584518433 0.010908154770731925964 0.021178804337978363037 0.02177384495735168457 0.021014841273427009583 0.022699335590004920959 0.032546311616897583008 0.022135982289910316467 0.012214319780468940735 0.015948988497257232666 0.035272236913442611694 0.017487546429038047791 0.014987980015575885773 0.0076586822979152202606 0.0076758689247071743011 0.0083804782480001449585 0.0067145414650440216064 0.007851320318877696991 0.022250190377235412598 0.0048867277801036834717 0.0093645909801125526428 0.010218661278486251831 0.029598968103528022766 0.0088344011455774307251 0.032127086073160171509 0.053808160126209259033 0.040200162678956985474 0.049757394939661026001 0.039081566035747528076 0.044654812663793563843 0.01105253957211971283 0.024663612246513366699 0.01450986228883266449 0.011702550575137138367 0 0 0 0 0 0 0 0 0 0 0 0 0 0 0 0 0 0 0 0 0 0 0 0 0 0 0 0 0 0 0 0 0 0 0 0 0 0 0 0 0 0 0 0 0 0 0 0 0 0 0 0 0 0 0 0 0 0 0 0 0 0 0 0 0 0 0 0 0 0 0 0 0 0 0 0 0 0 0 0 0 0 0 0 0 0 0 0 0 0 0 0 0 0 0 0 0 0 0 0 0 0 0 0 0 0 0 0 0 0 0 0 0 0 0 0 0 0 0 0 0 0 0 0 0 0 0 0 0 
0 0 0 0 0 0 0 0 0 0 0 0 0 0 0 0 0 0 0 0 0 0 0 0 0 0 0 0 0 0 0 0 0 0 0 0 0 0 0 0 0 0 0 0 0 0 0 0 0 0 0 0 0 0 0 0 0 0 0 0 0 0 0 0 0 0 0 0 0 0 0 0 0 0 0 0 0 0 0 0 0 0 0.004740368574857711792 0.006454639136791229248 0 0.0023806726094335317612 0.011115868575870990753 0.010708153247833251953 0.0099196694791316986084 0.021274892613291740417 0.02597849629819393158 0.010800666175782680511 0.024293029680848121643 0.033890981227159500122 0.012590882368385791779 0.011669471859931945801 0.025314714759588241577 0.0051663541235029697418 0.0041783591732382774353 0.0084568746387958526611 0.012773527763783931732 0.0067113107070326805115 0.0091503690928220748901 0.014118159189820289612 0.13596574962139129639 0.157556191086769104 0.040943510830402374268 0.067851908504962921143 0.008565947413444519043 0.012881905771791934967 0.01033966895192861557 0.015618755482137203217 0.0069988011382520198822 0.010449077002704143524 0.0073340176604688167572 0.0059636780060827732086 0.0037608838174492120743 0.0031410104129463434219 0.010831883177161216736 0.0096351923421025276184 0.012168469838798046112 0.022754704579710960388 0.010491486638784408569 0.037106040865182876587 0.13103076815605163574 0.064040921628475189209 0.055147659033536911011 0.022222237661480903625 0.011270254850387573242 0.024122746661305427551 0.02177384495735168457 0.013855637051165103912 0.017482258379459381104 0.0084378104656934738159 0.020428759977221488953 0.0052156290039420127869 0.0095304902642965316772 0.035272236913442611694 0.0030542351305484771729 0.0071123377420008182526 0.011389052495360374451 0.01086113322526216507 0.0054083555005490779877 0.012001415714621543884 0.007851320318877696991 0.0058039585128426551819 0.0028987743426114320755 0.018186243250966072083 0.0076760975643992424011 0.022400893270969390869 0.0088344011455774307251 0.053019486367702484131 0.029116060584783554077 0.023119697347283363342 0.050819542258977890015 0.034330274909734725952 0.044654812663793563843 0.01105253957211971283 0.012804308906197547913 0.030867222696542739868 0.055257279425859451294 0.014345707371830940247 0 0 0 0 0 0 0 0 0 0 0 0 0 0 0 0 0 0 0 0 0 0 0 0 0 0 0 0 0 0 0 0 0 0 0 0 0 0 0 0 0 0 0 0 0 0 0 0 0 0 0 0 0 0 0 0 0 0 0 0 0 0 0 0 0 0 0 0 0 0 0 0 0 0 0 0 0 0 0 0 0 0 0 0 0 0 0 0 0 0 0 0 0 0 0 0 0 0 0 0 0 0 0 0 0 0 0 0 0 0 0 0 0 0 0 0 0 0 0 0 0 0 0 0 0 0 0 0 
0 0 0 0 0 0 0 0 0 0 0 0 0 0 0 0 0 0 0 0 0 0 0 0 0 0 0 0 0 0 0 0 0 0 0 0 0 0 0 0 0 0 0 0 0 0 0 0 0 0 0 0 0 0 0 0 0 0 0 0 0 0 0 0 0 0 0 0 0 0 0 0 0 0 0 0 0 0 0 0 0 0 0.004740368574857711792 0.0035339714959263801575 0.0024298401549458503723 0 0.0034013797994703054428 0.0036137865390628576279 0.0016266470775008201599 0.021274892613291740417 0.02597849629819393158 0.064484350383281707764 0.019126368686556816101 0.010903995484113693237 0.0078312084078788757324 0.0076925819739699363708 0.013994053937494754791 0.0021464305464178323746 0.007868745364248752594 0.015153299085795879364 0.015009408816695213318 0.014804548583924770355 0.0057913004420697689056 0.0092658717185258865356 0.13596574962139129639 0.3777504265308380127 0.061039291322231292725 0.032172206789255142212 0.01506629306823015213 0.022071918472647666931 0.014679059386253356934 0.015618755482137203217 0.0055520683526992797852 0.011628940701484680176 0.0056508677080273628235 0.005491213873028755188 0.0081008682027459144592 0.0050782989710569381714 0.010831883177161216736 0.055193159729242324829 0.033821258693933486938 0.026513578370213508606 0.00617677345871925354 0.023707110434770584106 0.079892940819263458252 0.064040921628475189209 0.011761195026338100433 0.0081768436357378959656 0.0067503973841667175293 0.0071271155029535293579 0.0047275321558117866516 0.013855637051165103912 0.017482258379459381104 0.016560966148972511292 0.0084019806236028671265 0.0093155652284622192383 0.014229148626327514648 0.0063326572999358177185 0.0030542351305484771729 0.0071123377420008182526 0.0055504366755485534668 0.0063266051001846790314 0.0036648537497967481613 0.031497094780206680298 0.0060150809586048126221 0.0058039585128426551819 0.0048479228280484676361 0.0084187882021069526672 0.026842813938856124878 0.014950400218367576599 0.022150976583361625671 0.053019486367702484131 0.029116060584783554077 0.020420139655470848083 0.015162594616413116455 0.015692181885242462158 0.17097318172454833984 0.032614916563034057617 0.012804308906197547913 0.013292240910232067108 0.059503272175788879395 0.010388056747615337372 0 0 0 0 0 0 0 0 0 0 0 0 0 0 0 0 0 0 0 0 0 0 0 0 0 0 0 0 0 0 0 0 0 0 0 0 0 0 0 0 0 0 0 0 0 0 0 0 0 0 0 0 0 0 0 0 0 0 0 0 0 0 0 0 0 0 0 0 0 0 0 0 0 0 0 0 0 0 0 0 0 0 0 0 0 0 0 0 0 0 0 0 0 0 0 0 0 0 0 0 0 0 0 0 0 0 0 0 0 0 0 0 0 0 0 0 0 0 0 0 0 0 0 0 0 0 0 0 
0 0 0 0 0 0 0 0 0 0 0 0 0 0 0 0 0 0 0 0 0 0 0 0 0 0 0 0 0 0 0 0 0 0 0 0 0 0 0 0 0 0 0 0 0 0 0 0 0 0 0 0 0 0 0 0 0 0 0 0 0 0 0 0 0 0 0 0 0 0 0 0 0 0 0 0 0 0 0 0 0 0.0052517121657729148865 0.0050525045953691005707 0.0035339714959263801575 0.0024298401549458503723 0 0.0042878654785454273224 0.0013018508907407522202 0 0.020639058202505111694 0.020248599350452423096 0.064484350383281707764 0.079352706670761108398 0.01789153367280960083 0.023255240172147750854 0.13193695247173309326 0.081087343394756317139 0.094220429658889770508 0.016112234443426132202 0.01388777606189250946 0.012939612381160259247 0.011521618813276290894 0 0.12872201204299926758 0.1064141392707824707 0.23655806481838226318 0.061039291322231292725 0.065900839865207672119 0.030951995402574539185 0.070104591548442840576 0.025586197152733802795 0.01247555948793888092 0.0055520683526992797852 0.011628940701484680176 0.019569264724850654602 0.011129907332360744476 0.0050734612159430980682 0.0036312853917479515076 0.01011584792286157608 0.055193159729242324829 0.11779902875423431396 0.089610144495964050293 0.0554351806640625 0.01722392253577709198 0.010167163796722888947 0.031006636098027229309 0.011761195026338100433 0.010436508804559707642 0.0094187827780842781067 0.014060247689485549927 0.022303361445665359497 0.059752885252237319946 0.039119523018598556519 0.016560966148972511292 0.013465183787047863007 0.016831908375024795532 0.0056100883521139621735 0.0069287917576730251312 0.013470329344272613525 0.0062714000232517719269 0.0055504366755485534668 0.0061678378842771053314 0.0036847495939582586288 0.0034616042394191026688 0.0049455934204161167145 0.009220187552273273468 0.0048479228280484676361 0.0042879586108028888702 0.013947980478405952454 0.0078018005006015300751 0.012432071380317211151 0.021048167720437049866 0.022915689274668693542 0.020420139655470848083 0.087179042398929595947 0.017790185287594795227 0.023115767166018486023 0.25955095887184143066 0.046433322131633758545 0.013292240910232067108 0.026312841102480888367 0.012470570392906665802 0.0065702851861715316772 0 0 0 0 0 0 0 0 0 0 0 0 0 0 0 0 0 0 0 0 0 0 0 0 0 0 0 0 0 0 0 0 0 0 0 0 0 0 0 0 0 0 0 0 0 0 0 0 0 0 0 0 0 0 0 0 0 0 0 0 0 0 0 0 0 0 0 0 0 0 0 0 0 0 0 0 0 0 0 0 0 0 0 0 0 0 0 0 0 0 0 0 0 0 0 0 0 0 0 0 0 0 0 0 0 0 0 0 0 0 0 0 0 0 0 0 0 0 0 0 0 0 0 0 0 0 0 
0 0 0 0 0 0 0 0 0 0 0 0 0 0 0 0 0 0 0 0 0 0 0 0 0 0 0 0 0 0 0 0 0 0 0 0 0 0 0 0 0 0 0 0 0 0 0 0 0 0 0 0 0 0 0 0 0 0 0 0 0 0 0 0 0 0 0 0 0 0 0 0 0 0 0 0 0 0 0 0 0 0 0.0073870108462870121002 0.0075885159894824028015 0 0 -0.0014554762747138738632 -0.001729070441797375679 0.0021398731041699647903 0 0 0.24235887825489044189 0.079352706670761108398 0.038360480219125747681 0.11839892715215682983 0.11683561652898788452 0.095424257218837738037 0.14225728809833526611 0.12483882158994674683 0.01388777606189250946 0.014808631502091884613 0.013397842645645141602 0.010950808413326740265 0.0093298302963376045227 0.0076997173018753528595 0.034419264644384384155 0.07554174959659576416 0.065900839865207672119 0.024961661547422409058 0.016900001093745231628 0.010551942512392997742 0.0062312227673828601837 0.0032796000596135854721 0.0091440798714756965637 0.019569264724850654602 0.016425082460045814514 0.029377199709415435791 0.026516688987612724304 0.04696005210280418396 0.058821588754653930664 0.11779902875423431396 0.089610144495964050293 0.048359613865613937378 0.049501288682222366333 0.017200428992509841919 0.03655816987156867981 0.009836979210376739502 0.010436508804559707642 0.0094187827780842781067 0.030020747333765029907 0.048416890203952789307 0.022969948127865791321 0.050648536533117294312 0.0084506245329976081848 0.013465183787047863007 0.024121111258864402771 0.014618243090808391571 0.0096775302663445472717 0.019360583275556564331 0.0041941502131521701813 0.0049003851599991321564 0.0061678378842771053314 0.0053407107479870319366 0.0068216202780604362488 0.019776703789830207825 0.002963503589853644371 0.0023021257948130369186 0.0042879586108028888702 0.013947980478405952454 0.015275927260518074036 0.0026934472844004631042 0.042873073369264602661 0.021176287904381752014 0.020505992695689201355 0.087179042398929595947 0.0098303733393549919128 0.0045131240040063858032 0.049142323434352874756 0.088779263198375701904 0.081908524036407470703 0.026312841102480888367 0.012470570392906665802 0.014933340251445770264 0.020560758188366889954 0.022634044289588928223 0 0 0 0 0 0 0 0 0 0 0 0 0 0 0 0 0 0 0 0 0 0 0 0 0 0 0 0 0 0 0 0 0 0 0 0 0 0 0 0 0 0 0 0 0 0 0 0 0 0 0 0 0 0 0 0 0 0 0 0 0 0 0 0 0 0 0 0 0 0 0 0 0 0 0 0 0 0 0 0 0 0 0 0 0 0 0 0 0 0 0 0 0 0 0 0 0 0 0 0 0 0 0 0 0 0 0 0 0 0 0 0 0 0 0 0 0 0 0 0 0 0 0 0 0 
0 0 0 0 0 0 0 0 0 0 0 0 0 0 0 0 0 0 0 0 0 0 0 0 0 0 0 0 0 0 0 0 0 0 0 0 0 0 0 0 0 0 0 0 0 0 0 0 0 0 0 0 0 0 0 0 0 0 0 0 0 0 0 0 0 0 0 0 0 0 0 0 0 0 0 0 0 0 0 0 0 0 0.003681332804262638092 0.0047873063012957572937 -0.00082707247929647564888 -0.0034788581542670726776 -0.0014554762747138738632 -0.001729070441797375679 0.036898851394653320312 0.040245644748210906982 0.0046904911287128925323 0.005909746512770652771 0.083317197859287261963 0.028932645916938781738 0.11839892715215682983 0 0 0.0017220417503267526627 0 0.0027721861843019723892 0.0085993958637118339539 0.0084909601137042045593 0.011978836730122566223 0.011487346142530441284 0.055413920432329177856 0.047053553164005279541 0.096337936818599700928 0.1306406557559967041 0.024961661547422409058 0.078891873359680175781 0.024084361270070075989 0.016938317567110061646 0.012765980325639247894 0.012223048135638237 0.016086786985397338867 0.016425082460045814514 0.030809760093688964844 0.029496956616640090942 0.024932855740189552307 0.055739134550094604492 0.087800294160842895508 0.12185014784336090088 0.048359613865613937378 0.042053330689668655396 0.042041860520839691162 0.0091330846771597862244 0.018066836521029472351 0.041354954242706298828 0.02116995491087436676 0.030020747333765029907 0.03292544931173324585 0.013956218026578426361 0.029804565012454986572 0.033749416470527648926 0.011873959563672542572 0.024121111258864402771 0.014618243090808391571 0.010797858238220214844 0.005590126384049654007 0.0044269380159676074982 0.003661723574623465538 0.0036564231850206851959 0.0053407107479870319366 0.0068216202780604362488 0.045737590640783309937 0.03940220177173614502 0.0085342517122626304626 0.0070302705280482769012 0.026173288002610206604 0.015275927260518074036 0.026856726035475730896 0.034654952585697174072 0.044667415320873260498 0.050089720636606216431 0.081319689750671386719 0.0098303733393549919128 0.034482967108488082886 0.038470178842544555664 0.10302964597940444946 0.040188740938901901245 0.031527053564786911011 0.063013464212417602539 0.014933340251445770264 0.010357172228395938873 0.017907597124576568604 0 0 0 0 0 0 0 0 0 0 0 0 0 0 0 0 0 0 0 0 0 0 0 0 0 0 0 0 0 0 0 0 0 0 0 0 0 0 0 0 0 0 0 0 0 0 0 0 0 0 0 0 0 0 0 0 0 0 0 0 0 0 0 0 0 0 0 0 0 0 0 0 0 0 0 0 0 0 0 0 0 0 0 0 0 0 0 0 0 0 0 0 0 0 0 0 0 0 0 0 0 0 0 0 0 0 0 0 0 0 0 0 0 0 0 0 0 0 0 0 0 0 0 0 0 
0 0 0 0 0 0 0 0 0 0 0 0 0 0 0 0 0 0 0 0 0 0 0 0 0 0 0 0 0 0 0 0 0 0 0 0 0 0 0 0 0 0 0 0 0 0 0 0 0 0 0 0 0 0 0 0 0 0 0 0 0 0 0 0 0 0 0 0 0 0 0 0 0 0 0 0 0 0 0 0 0 0 0 0 1.1075588464736938477 -0.0078728711232542991638 -0.0065800426527857780457 -0.0030204961076378822327 0.036898851394653320312 0.1050708964467048645 0.015707159414887428284 0.0073097245767712593079 0.0081615718081593513489 0 0 0 0.0105700688436627388 0.007167969830334186554 0.0038354890421032905579 0 0.0097513049840927124023 0.010966370813548564911 0.0096507398411631584167 0.011487346142530441284 0.054894331842660903931 0.023985261097550392151 0.05170413479208946228 0.099618747830390930176 0.28603062033653259277 0.091090880334377288818 0.024084361270070075989 0.092734329402446746826 0.057848460972309112549 0.023037198930978775024 0.039315372705459594727 0.017008909955620765686 0.030809760093688964844 0.029496956616640090942 0.047878034412860870361 0.014348505064845085144 0.057606808841228485107 0.15853580832481384277 0.081815935671329498291 0.042053330689668655396 0.013038832694292068481 0.017321662977337837219 0.01277361065149307251 0.01233669184148311615 0.013254810124635696411 0.01067293994128704071 0.03292544931173324585 0.0096509093418717384338 0.015006373636424541473 0.016260636970400810242 0.0066636418923735618591 0.031086022034287452698 0.023437485098838806152 0.010797858238220214844 0.0032231353688985109329 0.0030150993261486291885 0.016618447378277778625 0.012342954985797405243 0.03971020132303237915 0.050736896693706512451 0.045737590640783309937 0.022661490365862846375 0.025171769782900810242 0.029157295823097229004 0.051060322672128677368 0.041537974029779434204 0.026856726035475730896 0.011797551997005939484 0.020068392157554626465 0.01057685166597366333 0.008098666556179523468 0.0224982481449842453 0.034482967108488082886 0.038470178842544555664 0.018286006525158882141 0.010837147943675518036 0.01515080966055393219 0.025536883622407913208 0.074086979031562805176 0.010357172228395938873 0.010292633436620235443 0 0 0 0 0 0 0 0 0 0 0 0 0 0 0 0 0 0 0 0 0 0 0 0 0 0 0 0 0 0 0 0 0 0 0 0 0 0 0 0 0 0 0 0 0 0 0 0 0 0 0 0 0 0 0 0 0 0 0 0 0 0 0 0 0 0 0 0 0 0 0 0 0 0 0 0 0 0 0 0 0 0 0 0 0 0 0 0 0 0 0 0 0 0 0 0 0 0 0 0 0 0 0 0 0 0 0 0 0 0 0 0 0 0 0 0 0 0 0 0 0 0 0 0 0 
0 0 0 0 0 0 0 0 0 0 0 0 0 0 0 0 0 0 0 0 0 0 0 0 0 0 0 0 0 0 0 0 0 0 0 0 0 0 0 0 0 0 0 0 0 0 0 0 0 0 0 0 0 0 0 0 0 0 0 0 0 0 0 0 0 0 0 0 0 0 0 0 0 0 0 0 0 0 0 0 0 0 0 0 -0.0011392297456040978432 -0.0020861453376710414886 -0.0027120052836835384369 -0.0025414619594812393188 0.15229687094688415527 0.1050708964467048645 0.015707159414887428284 0.070631347596645355225 0.0037420510780066251755 0 0.0091337766498327255249 0 0.0105700688436627388 0.010282455012202262878 0.037750311195850372314 0.014671248383820056915 0.016156217083334922791 0.014764365740120410919 0.092660896480083465576 0.060551334172487258911 0.097884245216846466064 0.051449492573738098145 0.075739271938800811768 0.19806599617004394531 0.21294271945953369141 0.10554762184619903564 0.25782537460327148438 0.092734329402446746826 0.19735014438629150391 0.15863615274429321289 0.097420461475849151611 0.17489075660705566406 0.20762489736080169678 0.078696161508560180664 0.047878034412860870361 0.0058290935121476650238 0.015978848561644554138 0.015981586650013923645 0.014475447125732898712 0.024753397330641746521 0.013038832694292068481 0.017321662977337837219 0.034644272178411483765 0.016669932752847671509 0.016876969486474990845 0.0083128865808248519897 0.011465248651802539825 0.0096509093418717384338 0.015006373636424541473 0.023476710543036460876 0.033626023679971694946 0.015383601188659667969 0.033299379050731658936 0.0054272823035717010498 0.0032231353688985109329 0.0060852430760860443115 0.024822628125548362732 0.050759576261043548584 0.018906522542238235474 0.060964308679103851318 0.072542704641819000244 0.022661490365862846375 0.0051861088722944259644 0.0069908271543681621552 0.0061530587263405323029 0.012931663542985916138 0.012878298759460449219 0.011797551997005939484 0.020068392157554626465 0.015007996000349521637 0.019894896075129508972 0.015923969447612762451 0.0063144457526504993439 0.022415544837713241577 0.018286006525158882141 0.011947047896683216095 0.020217932760715484619 0.016133083030581474304 0.024866538122296333313 0.017868928611278533936 0.010292633436620235443 -0.00068639760138466954231 -0.00095379038248211145401 -0.0011676989961415529251 0 0 0 0 0 0 0 0 0 0 0 0 0 0 0 0 0 0 0 0 0 0 0 0 0 0 0 0 0 0 0 0 0 0 0 0 0 0 0 0 0 0 0 0 0 0 0 0 0 0 0 0 0 0 0 0 0 0 0 0 0 0 0 0 0 0 0 0 0 0 0 0 0 0 0 0 0 0 0 0 0 0 0 0 0 0 0 0 0 0 0 0 0 0 0 0 0 0 0 0 0 0 0 0 0 0 0 0 0 0 0 0 0 0 0 0 0 0 0 0 0 0 
0 0 0 0 0 0 0 0 0 0 0 0 0 0 0 0 0 0 0 0 0 0 0 0 0 0 0 0 0 0 0 0 0 0 0 0 0 0 0 0 0 0 0 0 0 0 0 0 0 0 0 0 0 0 0 0 0 0 0 0 0 0 0 0 0 0 0 0 0 0 0 0 0 0 0 0 0 0 0 0 0 0 0 0 -0.0011392297456040978432 -0.0041013741865754127502 -0.0013174399500712752342 -0.0026078654918819665909 0.04235287010669708252 0.042020250111818313599 0.032236684113740921021 0.070631347596645355225 0.023212049156427383423 0.010084941983222961426 0.080881133675575256348 0.091762177646160125732 0.036491323262453079224 0.0033788729924708604813 0.058648500591516494751 0.0046167252585291862488 0.019687801599502563477 0.013133952394127845764 0.026685746386647224426 0.026725137606263160706 0.027079723775386810303 0.066616959869861602783 0.075739271938800811768 0.14167441427707672119 0.15597164630889892578 0.12600830197334289551 -0.21546077728271484375 -0.18807740509510040283 0.19735014438629150391 -0.010032114572823047638 0.0041530770249664783478 0.002514848019927740097 0.0040849843062460422516 0.0084952414035797119141 0.022222563624382019043 0.0058290935121476650238 0.012061048299074172974 0.01298478245735168457 0.01024763844907283783 0.027755960822105407715 0.052683819085359573364 0.053200770169496536255 0.034644272178411483765 0.068786807358264923096 0.04670758172869682312 0.012980259954929351807 0.027852261438965797424 0.013503797352313995361 0.013380044139921665192 0.023476710543036460876 0.014739145524799823761 0.008787415921688079834 0.014547638595104217529 0.0085936263203620910645 0.0075277462601661682129 0.0060852430760860443115 0.024822628125548362732 0.051079221069812774658 0.0072630615904927253723 0.010330635122954845428 0.015274504199624061584 0.01919816434383392334 0.0051861088722944259644 0.010263229720294475555 0.004229111596941947937 0.0093581778928637504578 0.051777977496385574341 0.022687535732984542847 0.10030516237020492554 0.015007996000349521637 0.084349744021892547607 0.14770215749740600586 0.015663020312786102295 0.019354511052370071411 0.026272799819707870483 0.011947047896683216095 0.034614183008670806885 0.034142773598432540894 0.016888706013560295105 0.022686073556542396545 0.021207792684435844421 -0.00068639760138466954231 -0.00095379038248211145401 -0.00087323493789881467819 0 0 0 0 0 0 0 0 0 0 0 0 0 0 0 0 0 0 0 0 0 0 0 0 0 0 0 0 0 0 0 0 0 0 0 0 0 0 0 0 0 0 0 0 0 0 0 0 0 0 0 0 0 0 0 0 0 0 0 0 0 0 0 0 0 0 0 0 0 0 0 0 0 0 0 0 0 0 0 0 0 0 0 0 0 0 0 0 0 0 0 0 0 0 0 0 0 0 0 0 0 0 0 0 0 0 0 0 0 0 0 0 0 0 0 0 0 0 0 0 0 0 
0 0 0 0 0 0 0 0 0 0 0 0 0 0 0 0 0 0 0 0 0 0 0 0 0 0 0 0 0 0 0 0 0 0 0 0 0 0 0 0 0 0 0 0 0 0 0 0 0 0 0 0 0 0 0 0 0 0 0 0 0 0 0 0 0 0 0 0 0 0 0 0 0 0 0 0 0 0 0 0 0 0 0 0 -0.0019692236091941595078 -0.0041013741865754127502 0.032291725277900695801 0.014776334166526794434 0.10400668531656265259 0.07857678830623626709 0.010380579158663749695 0.0069134715013206005096 0.023212049156427383423 0.012172906659543514252 0.010910769924521446228 0.089897871017456054688 0.057715944945812225342 0.067655630409717559814 0.022582523524761199951 0.0046167252585291862488 0.021352322772145271301 0.024194099009037017822 0.017218863591551780701 0.013267228379845619202 0.01257681380957365036 0.043386176228523254395 0.025734106078743934631 0.14167441427707672119 -0.12424922734498977661 -0.23086570203304290771 -0.15788833796977996826 -0.20928515493869781494 -0.1461572796106338501 -0.010032114572823047638 0.0041530770249664783478 0.0053252992220222949982 0.0052139144390821456909 0.0052578696049749851227 0.0094655957072973251343 0.0094341048970818519592 0.012061048299074172974 0.01298478245735168457 0.0092032700777053833008 0.0053412998095154762268 0.011324923485517501831 0.023988628759980201721 0.027830038219690322876 0.068786807358264923096 0.04670758172869682312 0.025003714486956596375 0.0079321246594190597534 0.0041314945556223392487 0.0044041969813406467438 0.0055898395366966724396 0.014739145524799823761 0.037390701472759246826 0.030649527907371520996 0.021480523049831390381 0.049929525703191757202 0.16386602818965911865 0.10221511125564575195 0.051079221069812774658 0.021184874698519706726 0.010667727328836917877 0.008080636151134967804 0.0077515677548944950104 0.0060876170173287391663 0.010263229720294475555 0.004229111596941947937 0.0057175313122570514679 0.03971220552921295166 0.017419604584574699402 0.01807203143835067749 0.045404139906167984009 0.084349744021892547607 0.013685302808880805969 0.061424706131219863892 0.032010629773139953613 0.0088915666565299034119 0.022980254143476486206 0.034614183008670806885 0.034142773598432540894 0.039554238319396972656 0.025231247767806053162 -0.0046346276067197322845 -0.0036766908597201108932 -0.00085338164353743195534 -0.00087323493789881467819 0 0 0 0 0 0 0 0 0 0 0 0 0 0 0 0 0 0 0 0 0 0 0 0 0 0 0 0 0 0 0 0 0 0 0 0 0 0 0 0 0 0 0 0 0 0 0 0 0 0 0 0 0 0 0 0 0 0 0 0 0 0 0 0 0 0 0 0 0 0 0 0 0 0 0 0 0 0 0 0 0 0 0 0 0 0 0 0 0 0 0 0 0 0 0 0 0 0 0 0 0 0 0 0 0 0 0 0 0 0 0 0 0 0 0 0 0 0 0 0 0 0 
0 0 0 0 0 0 0 0 0 0 0 0 0 0 0 0 0 0 0 0 0 0 0 0 0 0 0 0 0 0 0 0 0 0 0 0 0 0 0 0 0 0 0 0 0 0 0 0 0 0 0 0 0 0 0 0 0 0 0 0 0 0 0 0 0 0 0 0 0 0 0 0 0 0 0 0 0 0 0 0 0 0 0 0 0 -0.0046035344712436199188 0.032291725277900695801 0.014776334166526794434 0.16631560027599334717 0.098396658897399902344 0.0081362687051296234131 0.0087097715586423873901 0.0068744877353310585022 0.012172906659543514252 0.010910769924521446228 0.30391418933868408203 0.024777077138423919678 0.028694493696093559265 0.19904586672782897949 0.23910717666149139404 0.14808376133441925049 0.014437917619943618774 0.01592289656400680542 0.0070123900659382343292 0.020645838230848312378 0.04330424964427947998 0.010755560360848903656 0.0095551423728466033936 -0.12424922734498977661 -0.16718541085720062256 -0.10622552037239074707 -0.10014083981513977051 -0.041749130934476852417 0.02189385145902633667 0.0064541264437139034271 0.0053252992220222949982 0.0025097371544688940048 0.003217711346223950386 0.0056338049471378326416 0.0037116038147360086441 0.015291396528482437134 0.011862998828291893005 0.0092032700777053833008 0.030720738694071769714 0.013709944672882556915 0.036851640790700912476 0.080887764692306518555 0.12867343425750732422 0.027752919122576713562 0.025003714486956596375 0.0074251499027013778687 0.011486772447824478149 0.0089986091479659080505 0.010899618268013000488 0.030873078852891921997 0.037390701472759246826 0.030649527907371520996 0.040067359805107116699 0.029341166839003562927 0.0084541123360395431519 0.0043000243604183197021 0.065521709620952606201 0.021184874698519706726 0.010667727328836917877 0.0092584593221545219421 0.0065087126567959785461 0.010426279157400131226 0.0098766004666686058044 0.0050261006690561771393 0.0057175313122570514679 0.037820205092430114746 0.025105733424425125122 0.010454587638378143311 0.026331305503845214844 0.043886587023735046387 0.013685302808880805969 0.0068375924602150917053 0.011014347895979881287 0.01405168045312166214 0.01791159994900226593 0.0053990161977708339691 0.055631097406148910522 0.039554238319396972656 0.011134656146168708801 -0.002056768396869301796 -0.0027974487747997045517 -0.00047969224397093057632 -0.00082902121357619762421 0 0 0 0 0 0 0 0 0 0 0 0 0 0 0 0 0 0 0 0 0 0 0 0 0 0 0 0 0 0 0 0 0 0 0 0 0 0 0 0 0 0 0 0 0 0 0 0 0 0 0 0 0 0 0 0 0 0 0 0 0 0 0 0 0 0 0 0 0 0 0 0 0 0 0 0 0 0 0 0 0 0 0 0 0 0 0 0 0 0 0 0 0 0 0 0 0 0 0 0 0 0 0 0 0 0 0 0 0 0 0 0 0 0 0 0 0 0 0 0 0 0 
0 0 0 0 0 0 0 0 0 0 0 0 0 0 0 0 0 0 0 0 0 0 0 0 0 0 0 0 0 0 0 0 0 0 0 0 0 0 0 0 0 0 0 0 0 0 0 0 0 0 0 0 0 0 0 0 0 0 0 0 0 0 0 0 0 0 0 0 0 0 0 0 0 0 0 0 0 0 0 0 0 0 -0.00012153209536336362362 -0.00027766151470132172108 0 0 0 0.02505932934582233429 0.16631560027599334717 0.16685931384563446045 0.072640053927898406982 0.010298043489456176758 0.013105475343763828278 0.024812800809741020203 0.015703573822975158691 0.30391418933868408203 0.022196846082806587219 0.013645330443978309631 0.018023749813437461853 0.025054281577467918396 0.010766453109681606293 0.011650920845568180084 0.02582149021327495575 0.0070123900659382343292 0.021580297499895095825 0.048935357481241226196 0.0064446814358234405518 0.03083857707679271698 -0.11349169909954071045 -0.13363793492317199707 -0.10622552037239074707 -0.013932051137089729309 -0.0083236424252390861511 0.0031054110731929540634 -0.0011625287588685750961 0.0041892989538609981537 0.0025097371544688940048 0.003217711346223950386 0.01797224581241607666 0.048972666263580322266 0.011607594788074493408 0.010878269560635089874 0.020300740376114845276 0.030720738694071769714 0.023707712069153785706 0.032624192535877227783 0.014925158582627773285 0.0077169206924736499786 0.0075718886218965053558 0.010463349521160125732 0.0074251499027013778687 0.032554909586906433105 0.053223714232444763184 0.013807903043925762177 0.037195019423961639404 0.02444843389093875885 0.036193020641803741455 0.040067359805107116699 0.022304795682430267334 0.043281987309455871582 0.03020440228283405304 0.0096866907551884651184 0.0056494581513106822968 0.012912170030176639557 0.0092584593221545219421 0.0087819276377558708191 0.013732437975704669952 0.011635279282927513123 0.024420604109764099121 0.057025246322154998779 0.037820205092430114746 0.012630204670131206512 0.012226819060742855072 0.012154948897659778595 0.02216959930956363678 0.014155636541545391083 0.0068375924602150917053 0.011014347895979881287 0.010989626869559288025 0.10208839923143386841 0.019460754469037055969 0.0073232441209256649017 0.023499306291341781616 0.011134656146168708801 0.045617736876010894775 0.018948728218674659729 -0.0020334708970040082932 -0.00076208420796319842339 0 0 0 0 0 0 0 0 0 0 0 0 0 0 0 0 0 0 0 0 0 0 0 0 0 0 0 0 0 0 0 0 0 0 0 0 0 0 0 0 0 0 0 0 0 0 0 0 0 0 0 0 0 0 0 0 0 0 0 0 0 0 0 0 0 0 0 0 0 0 0 0 0 0 0 0 0 0 0 0 0 0 0 0 0 0 0 0 0 0 0 0 0 0 0 0 0 0 0 0 0 0 0 0 0 0 0 0 0 0 0 0 0 0 0 0 0 0 0 0 0 0 
0 0 0 0 0 0 0 0 0 0 0 0 0 0 0 0 0 0 0 0 0 0 0 0 0 0 0 0 0 0 0 0 0 0 0 0 0 0 0 0 0 0 0 0 0 0 0 0 0 0 0 0 0 0 0 0 0 0 0 0 0 0 0 0 0 0 0 0 0 0 0 0 0 0 0 0 0 0 0 0 0 -0.00013240473344922065735 -0.00012153209536336362362 -0.00018253432062920182943 -0.00042583979666233062744 0 0 0 0 0.16685931384563446045 0 0 0.0077975550666451454163 0.044624023139476776123 0.076328143477439880371 0.054777234792709350586 0.022196846082806587219 0.0083654038608074188232 0.027712415903806686401 0.023271493613719940186 0.049169212579727172852 0.037961438298225402832 0.10075185447931289673 0.0049523599445819854736 0.026060540229082107544 0.028670808300375938416 0.0044578784145414829254 0.0064534414559602737427 -0.071702428162097930908 -0.076837651431560516357 -0.021458225324749946594 -0.013932051137089729309 -0.00049487780779600143433 -0.00054327159887179732323 -0.00033101986628025770187 -0.00026452867314219474792 -0.0016410932876169681549 -0.0009684775141067802906 0.01797224581241607666 0.034362778067588806152 0.0036060998681932687759 0.0033481589052826166153 0.0050009782426059246063 0.0056063551455736160278 0.023707712069153785706 0.032624192535877227783 0.0079414471983909606934 0.010003554634749889374 0.0086882682517170906067 0.032742019742727279663 0.031169259920716285706 0.032554909586906433105 0.053223714232444763184 0.0053205494768917560577 0.0092534255236387252808 0.039558358490467071533 0.042496863752603530884 0.014846673235297203064 0.022304795682430267334 0.018934348598122596741 0.021181713789701461792 0.0074738888069987297058 0.0092091569676995277405 0.0123120136559009552 0.0093651395291090011597 0.0087819276377558708191 0.038375381380319595337 0.02769524790346622467 0.016044065356254577637 0.022446483373641967773 0.03037923760712146759 0.012630204670131206512 0.012226819060742855072 0.0061795543879270553589 0.0053509795106947422028 0.010142265819013118744 0.012949735857546329498 0.0061264671385288238525 0.010989626869559288025 0.017967484891414642334 0.012478268705308437347 0.014813059009611606598 0.007306759711354970932 0.0039973817765712738037 0.045617736876010894775 0.013157286681234836578 -0.0014505943981930613518 -0.00089874450350180268288 -0.0005587041960097849369 -0.00044796901056542992592 -0.0021441378630697727203 0 0 0 0 0 0 0 0 0 0 0 0 0 0 0 0 0 0 0 0 0 0 0 0 0 0 0 0 0 0 0 0 0 0 0 0 0 0 0 0 0 0 0 0 0 0 0 0 0 0 0 0 0 0 0 0 0 0 0 0 0 0 0 0 0 0 0 0 0 0 0 0 0 0 0 0 0 0 0 0 0 0 0 0 0 0 0 0 0 0 0 0 0 0 0 0 0 0 0 0 0 0 0 0 0 0 0 0 0 0 0 0 0 0 0 0 0 0 0 
0 0 0 0 0 0 0 0 0 0 0 0 0 0 0 0 0 0 0 0 0 0 0 0 0 0 0 0 0 0 0 0 0 0 0 0 0 0 0 0 0 0 0 0 0 0 0 0 0 0 0 0 0 0 0 0 0 0 0 0 0 0 0 0 0 0 0 0 0 0 0 0 0 0 0 0 0 0 0.17563761770725250244 -0.00011214228288736194372 -0.00056370516540482640266 -0.00013722362928092479706 -0.00013350606604944914579 -0.00018253432062920182943 -0.00034100085031241178513 -0.00015879601414781063795 -7.3749935836531221867e-05 0 0 0 0 0 0 0.01892208494246006012 0.031495030969381332397 0.02984862402081489563 0.0164564475417137146 0.0094922352582216262817 0.012046769261360168457 0.013603393919765949249 0.059549275785684585571 0.012382009066641330719 0.010658520273864269257 0.017449099570512771606 0.0099470242857933044434 0.059646494686603546143 0.015635384246706962585 0.034823637455701828003 -0.042422261089086532593 -0.01755153946578502655 -0.0057847215794026851654 -0.0067748948931694030762 -0.00049487780779600143433 -0.000839830783661454916 -0.00056606234284117817879 -0.00063070131000131368637 -0.0014543230645358562469 -0.0019957986660301685333 0.025099234655499458313 0.034362778067588806152 0.0057562119327485561371 0.025644082576036453247 0.0035444160457700490952 0.0052811498753726482391 0.0052205752581357955933 0.046433299779891967773 0.0079414471983909606934 0.067544929683208465576 0.026448527351021766663 0.11190128326416015625 0.043379615992307662964 0.023344127461314201355 0.020499357953667640686 0.0053205494768917560577 0.078371584415435791016 0.1530539393424987793 0.028481530025601387024 0.013525518588721752167 0.030267985537648200989 0.018934348598122596741 0.021181713789701461792 0.010923340916633605957 0.0079361470416188240051 0.013919210992753505707 0.014191438443958759308 0.016926290467381477356 0.038375381380319595337 0.022096212953329086304 0.012966151349246501923 0.0064572435803711414337 0.010839575901627540588 0.0163527708500623703 0.0070412554778158664703 0.0061795543879270553589 0.046895269304513931274 0.013633472844958305359 0.0088240383192896842957 0.014515985734760761261 0.0079740919172763824463 0.017967484891414642334 0.004926942288875579834 0.0039345617406070232391 0.0082064475864171981812 0.0057325926609337329865 0.015711838379502296448 0.013157286681234836578 -0.0014505943981930613518 -0.00079213199205696582794 -0.00015384992002509534359 -0.00048308799159713089466 -0.00066719367168843746185 0 0 0 0 0 0 0 0 0 0 0 0 0 0 0 0 0 0 0 0 0 0 0 0 0 0 0 0 0 0 0 0 0 0 0 0 0 0 0 0 0 0 0 0 0 0 0 0 0 0 0 0 0 0 0 0 0 0 0 0 0 0 0 0 0 0 0 0 0 0 0 0 0 0 0 0 0 0 0 0 0 0 0 0 0 0 0 0 0 0 0 0 0 0 0 0 0 0 0 0 0 0 0 0 0 0 0 0 0 0 0 0 0 0 0 0 0 0 0 
0 0 0 0 0 0 0 0 0 0 0 0 0 0 0 0 0 0 0 0 0 0 0 0 0 0 0 0 0 0 0 0 0 0 0 0 0 0 0 0 0 0 0 0 0 0 0 0 0 0 0 0 0 0 0 0 0 0 0 0 0 0 0 0 0 0 0 0 0 0 0 0 0 0 0 0 0 0 0.17563761770725250244 -0.00032924202969297766685 -0.0001079487847164273262 0 0 -0.00028574015595950186253 -0.00034100085031241178513 -0.00015879601414781063795 -0.00011579487181734293699 -0.00010891754209296777844 -6.2849721871316432953e-05 0.17563761770725250244 0 0 0 0 0.008892993442714214325 0.018410922959446907043 0.01017603650689125061 0.0095594422891736030579 0.015791330486536026001 0.013603393919765949249 0.014839896000921726227 0.017914516851305961609 0.013421974144876003265 0.018708979710936546326 0.027683246880769729614 0.11967099457979202271 0.098292708396911621094 0.034823637455701828003 0 -0 5.2412118911743164062 -0.0041858074255287647247 -0.0024346066638827323914 -0.00070520560257136821747 -0.00056606234284117817879 -0.0017364562954753637314 -0.0046073920093476772308 0.055135343223810195923 0.12876129150390625 0.12179283052682876587 0.0057562119327485561371 0.025644082576036453247 0.010343375615775585175 0.019221726804971694946 0.015432141721248626709 0.013471160084009170532 0.09218607097864151001 0.067544929683208465576 0.0029366912785917520523 0.0034700075630098581314 0.0098122209310531616211 0.003513102186843752861 0.010364996269345283508 0.068260625004768371582 0.078371584415435791016 0.11758293956518173218 0.030177215114235877991 0.01400249917060136795 0.080620519816875457764 0.059696160256862640381 0.024996733292937278748 0.010923340916633605957 0.018896814435720443726 0.011189355514943599701 0.027017001062631607056 0.039154946804046630859 0.063518948853015899658 0.022096212953329086304 0.012966151349246501923 0.018861059099435806274 0.0065472666174173355103 0.1239248812198638916 0.10552037507295608521 0.02395197749137878418 0.046895269304513931274 0.021430784836411476135 0.0092513198032975196838 0.0081748589873313903809 0.0068781413137912750244 0.016085788607597351074 0.004926942288875579834 0.0039345617406070232391 0.017429400235414505005 0.014601548202335834503 0.0092293620109558105469 0.01422478165477514267 0.010800479911267757416 -0.00079213199205696582794 -0.0039832289330661296844 -0.0018478186102584004402 -0.00038245471660047769547 -0.00083200749941170215607 0 0 0 0 0 0 0 0 0 0 0 0 0 0 0 0 0 0 0 0 0 0 0 0 0 0 0 0 0 0 0 0 0 0 0 0 0 0 0 0 0 0 0 0 0 0 0 0 0 0 0 0 0 0 0 0 0 0 0 0 0 0 0 0 0 0 0 0 0 0 0 0 0 0 0 0 0 0 0 0 0 0 0 0 0 0 0 0 0 0 0 0 0 0 0 0 0 0 0 0 0 0 0 0 0 0 0 0 0 0 0 0 0 0 0 0 0 0 
0 0 0 0 0 0 0 0 0 0 0 0 0 0 0 0 0 0 0 0 0 0 0 0 0 0 0 0 0 0 0 0 0 0 0 0 0 0 0 0 0 0 0 0 0 0 0 0 0 0 0 0 0 0 0 0 0 0 0 0 0 0 0 0 0 0 0 0 0 0 0 0 0 0 0 0 0 0 -0.00021377220400609076023 -0.00032924202969297766685 -0 -0 0 0 -0.00011039534729206934571 -0.00010940993524855002761 -0.00011579487181734293699 -0.00025103788357228040695 -0.00012290514132473617792 -0.00039531043148599565029 -0.0013433096464723348618 -0.00014809658750891685486 0 0 0.008892993442714214325 0 0.0056771384552121162415 0 0.014640893787145614624 0.016624581068754196167 0.027547696605324745178 0.1032940298318862915 0.009239523671567440033 0.0092680957168340682983 0.012664962559938430786 0.018614973872900009155 0.014570219442248344421 0.055421072989702224731 0 0.010703764855861663818 -0.0018964633345603942871 -0.0027895516250282526016 -0.0069029061123728752136 -0.0012246097903698682785 -0.00096124567789956927299 -0.0017364562954753637314 -0.0066605708561837673187 0.063453026115894317627 0.060847625136375427246 0.069782912731170654297 0.050697021186351776123 0.056031007319688796997 0.010343375615775585175 0.0083209360018372535706 0.043268922716379165649 0.1425123065710067749 0.056808914989233016968 0.019269952550530433655 0.0029366912785917520523 0.0034700075630098581314 0.0049908771179616451263 0.0088948942720890045166 0.012008714489638805389 0.026796158403158187866 0.02359275519847869873 0.11758293956518173218 0.030177215114235877991 0.0080173769965767860413 0.018643608316779136658 0.017281848937273025513 0.014929248020052909851 0.041760105639696121216 0.018896814435720443726 0.011891091242432594299 0.01774961128830909729 0.03568561747670173645 0.030369386076927185059 0.01050082128494977951 0.018021207302808761597 0.018861059099435806274 0.0061810589395463466644 0.042176283895969390869 0.059901893138885498047 0.033866152167320251465 0.029088549315929412842 0.021430784836411476135 0.010249002836644649506 0.0064433463849127292633 0.0090177012607455253601 0.01513333246111869812 0.0040178108029067516327 0.0063473689369857311249 0.017429400235414505005 0.010682085528969764709 0.015073472633957862854 0.0057766842655837535858 0.0029590257909148931503 -0.0013323981547728180885 -0.00087922124657779932022 0.017716497182846069336 0.0043912525288760662079 -0.00053707411279901862144 -0.00043795301462523639202 -0.00083481339970603585243 0 0 0 0 0 0 0 0 0 0 0 0 0 0 0 0 0 0 0 0 0 0 0 0 0 0 0 0 0 0 0 0 0 0 0 0 0 0 0 0 0 0 0 0 0 0 0 0 0 0 0 0 0 0 0 0 0 0 0 0 0 0 0 0 0 0 0 0 0 0 0 0 0 0 0 0 0 0 0 0 0 0 0 0 0 0 0 0 0 0 0 0 0 0 0 0 0 0 0 0 0 0 0 0 0 0 0 0 0 0 0 0 0 0 0 0 
0 0 0 0 0 0 0 0 0 0 0 0 0 0 0 0 0 0 0 0 0 0 0 0 0 0 0 0 0 0 0 0 0 0 0 0 0 0 0 0 0 0 0 0 0 0 0 0 0 0 0 0 0 0 0 0 0 0 0 0 0 0 0 0 0 0 0 0 0 0 0 0 0 0 0 0 0 0 0 0 -0 0 0 0 -0.00023280289315152913332 -8.2939957792405039072e-05 -0.00027229834813624620438 -0.00025103788357228040695 -0.00012290514132473617792 -0.0001443667715648189187 -0.00017730327090248465538 -0.00035101667162962257862 -0.00022894384164828807116 -0.0009971297113224864006 0 0 0 0 0 0 0.019870210438966751099 0.035134606063365936279 0.012484457343816757202 0 0 0.020453641191124916077 0.010444916784763336182 0 0 0.0090294620022177696228 -0.0018964633345603942871 -0.0017924832645803689957 -0.0013904563384130597115 -0.0014124879380688071251 -0.0048407013528048992157 -0.0027460320852696895599 -0.0066605708561837673187 0.038167361170053482056 0.069282151758670806885 0.010037559084594249725 0.0052765207365155220032 0.0048164781183004379272 0.036653757095336914062 0.0083209360018372535706 0.015760045498609542847 0.011717518791556358337 0.024364151060581207275 0.014508667401969432831 0.0087601477280259132385 0.010263172909617424011 0.0049908771179616451263 0.026201194152235984802 0.0090809473767876625061 0.042323511093854904175 0.012136374600231647491 0.010682001709938049316 0.023385776206851005554 0.0080173769965767860413 0.04407363012433052063 0.0078757610172033309937 0.010277071967720985413 0.0078852707520127296448 0.019649270921945571899 0.011891091242432594299 0.01774961128830909729 0.0084708007052540779114 0.017558027058839797974 0.0060624182224273681641 0.033523786813020706177 0.014049648307263851166 0.0061810589395463466644 0.0064241308718919754028 0.012900636531412601471 0.043028999119997024536 0.011768469586968421936 0.010901760309934616089 0.010249002836644649506 0.0064433463849127292633 0.0054252613335847854614 0.0078102392144501209259 0.00279904133640229702 0.0033128354698419570923 0.0034173128660768270493 0.010682085528969764709 0.060388635843992233276 0.035488218069076538086 0.033946551382541656494 0.0088836289942264556885 0.011878794990479946136 0.0058554569259285926819 0.0043912525288760662079 0.00707654561847448349 -0.0010880826739594340324 -0.0011030585737898945808 -0.0010723572922870516777 0 0 0 0 0 0 0 0 0 0 0 0 0 0 0 0 0 0 0 0 0 0 0 0 0 0 0 0 0 0 0 0 0 0 0 0 0 0 0 0 0 0 0 0 0 0 0 0 0 0 0 0 0 0 0 0 0 0 0 0 0 0 0 0 0 0 0 0 0 0 0 0 0 0 0 0 0 0 0 0 0 0 0 0 0 0 0 0 0 0 0 0 0 0 0 0 0 0 0 0 0 0 0 0 0 0 0 0 0 0 0 0 0 0 0 
0 0 0 0 0 0 0 0 0 0 0 0 0 0 0 0 0 0 0 0 0 0 0 0 0 0 0 0 0 0 0 0 0 0 0 0 0 0 0 0 0 0 0 0 0 0 0 0 0 0 0 0 0 0 0 0 0 0 0 0 0 0 0 0 0 0 0 0 0 0 0 0 0 0 0 0 0 0 -0.00087396975141018629074 0 0 0 0 0 0.2614377439022064209 0 -0.0001400987675879150629 -0.00016180609236471354961 -0.00031414150726050138474 -0.0001443667715648189187 -0.00054825365077704191208 -0.001277348608709871769 -0.00011480007378850132227 -0.00024131934333126991987 -0.00030328374123200774193 -0.00066015904303640127182 0 0 -0.00015045871259644627571 0 0 0 0 0 0 0 0 0 0.034350711852312088013 0.0071839224547147750854 0.0063713109120726585388 -0.0017924832645803689957 -0.0010878375032916665077 -0.0018288748105987906456 -0.0057643232867121696472 -0.002769150538370013237 0.0087018264457583427429 0.02476844005286693573 0.069282151758670806885 0.019922818988561630249 0.014509490691125392914 0.024858312681317329407 0.068947479128837585449 0.021177688613533973694 0.015760045498609542847 0.011717518791556358337 0.058888055384159088135 0.075126782059669494629 0.041293345391750335693 0.0019141074735671281815 0.0010244252625852823257 0.026201194152235984802 0.040309529751539230347 0.054360937327146530151 0.017827445641160011292 0.019291706383228302002 0.012223265133798122406 0.068302586674690246582 0.04407363012433052063 0.01503337174654006958 0.014068598859012126923 0.030238468199968338013 0.011370802298188209534 0.017289642244577407837 0.012215071357786655426 0.0084708007052540779114 0.012752022594213485718 0.0090909991413354873657 0.018299248069524765015 0.010053499601781368256 0.0057570096105337142944 0.0064241308718919754028 0.012900636531412601471 0.0266257505863904953 0.0080719254910945892334 0.0056297308765351772308 0.0040557798929512500763 0.008245878852903842926 0.0054252613335847854614 0.0078553445637226104736 0.0053782328031957149506 0.0031049198005348443985 0.0033609182573854923248 0.0078659327700734138489 0.026750093325972557068 0.012905738316476345062 0.014052988961338996887 0.0043794950470328330994 0.0056696948595345020294 0.005959707312285900116 0.0058462242595851421356 0.003107781754806637764 0.017720395699143409729 -0.0036816056817770004272 -0.0039469054900109767914 0 0 0 0 0 0 0 0 0 0 0 0 0 0 0 0 0 0 0 0 0 0 0 0 0 0 0 0 0 0 0 0 0 0 0 0 0 0 0 0 0 0 0 0 0 0 0 0 0 0 0 0 0 0 0 0 0 0 0 0 0 0 0 0 0 0 0 0 0 0 0 0 0 0 0 0 0 0 0 0 0 0 0 0 0 0 0 0 0 0 0 0 0 0 0 0 0 0 0 0 0 0 0 0 0 0 0 0 0 0 0 0 0 0 0 
0 0 0 0 0 0 0 0 0 0 0 0 0 0 0 0 0 0 0 0 0 0 0 0 0 0 0 0 0 0 0 0 0 0 0 0 0 0 0 0 0 0 0 0 0 0 0 0 0 0 0 0 0 0 0 0 0 0 0 0 0 0 0 0 0 0 0 0 0 0 0 0 0 0 0 0 0 -0.0011254993733018636703 -0.00067626714007928967476 -0.0010487360414117574692 -0.00027484778547659516335 0 0 0 0 0 -3.4773664083331823349e-05 -0.00030999598675407469273 -0.00015096720017027109861 -0.00028193328762426972389 -0.00054825365077704191208 -0.001277348608709871769 -0.00037499723839573562145 -0.0001522627717349678278 -0.00021288183052092790604 -0.00013299220881890505552 -7.0942667662166059017e-05 0 0 -0.00028855813434347510338 0.0088558914139866828918 0 0 0 0 0 0.027562482282519340515 0.013351329602301120758 0.010975874960422515869 0.003765224013477563858 0.0039290068671107292175 0.0040555079467594623566 -0.0010878375032916665077 -0.0017324349610134959221 -0.0082508251070976257324 -0.0029526848811656236649 -0.0018202291103079915047 0.011410747654736042023 0.021719438955187797546 0.019922818988561630249 0.012555862776935100555 0.099702119827270507812 0.13662977516651153564 0.018924802541732788086 0.028792474418878555298 0.03457059711217880249 0.058888055384159088135 0.01697536371648311615 0.011712793260812759399 0.0028545348905026912689 0.006914583500474691391 0.0065818722359836101532 0.040309529751539230347 0.054360937327146530151 0.0096299825236201286316 0.0088680880144238471985 0.010286703705787658691 0.087106652557849884033 0.096701927483081817627 0.01503337174654006958 0.014068598859012126923 0.032245501875877380371 0.02188147418200969696 0.052214734256267547607 0.041216880083084106445 0.010977774858474731445 0.012752022594213485718 0.0082823270931839942932 0.0069266180507838726044 0.0077899550087749958038 0.016540696844458580017 0.010137123987078666687 0.084930829703807830811 0.0266257505863904953 0.0049258205108344554901 0.0027408041059970855713 0.0037338144611567258835 0.0036149979569017887115 0.0036775621119886636734 0.0078553445637226104736 0.0035755992867052555084 0.0034800413995981216431 0.0025763502344489097595 0.0045068506151437759399 0.018452495336532592773 0.032106883823871612549 0.014052988961338996887 0.0039217150770127773285 0.0035920280497521162033 0.022987298667430877686 0.013503420166671276093 0.0091915735974907875061 0.014044733718037605286 -0.0035196405369788408279 -0.0032543882261961698532 0 0 0 0 0 0 0 0 0 0 0 0 0 0 0 0 0 0 0 0 0 0 0 0 0 0 0 0 0 0 0 0 0 0 0 0 0 0 0 0 0 0 0 0 0 0 0 0 0 0 0 0 0 0 0 0 0 0 0 0 0 0 0 0 0 0 0 0 0 0 0 0 0 0 0 0 0 0 0 0 0 0 0 0 0 0 0 0 0 0 0 0 0 0 0 0 0 0 0 0 0 0 0 0 0 0 0 0 0 0 0 0 0 0 0 
0 0 0 0 0 0 0 0 0 0 0 0 0 0 0 0 0 0 0 0 0 0 0 0 0 0 0 0 0 0 0 0 0 0 0 0 0 0 0 0 0 0 0 0 0 0 0 0 0 0 0 0 0 0 0 0 0 0 0 0 0 0 0 0 0 0 0 0 0 0 0 0 0 -0.0002628344227559864521 -0.00048840278759598731995 -0.00080771133070811629295 -0.00059043487999588251114 -0.0011254993733018636703 -0.00016334114479832351208 -0.0001416622981196269393 -0.00042071595089510083199 -0.00013955500617157667875 -0.00012631475692614912987 -2.0935171050950884819e-05 0 0 0 0 0 0 -0.000275040831184014678 -0.00022278910910245031118 -0.00037499723839573562145 -0.00083327339962124824524 -0.00026882541715167462826 -0.00066772231366485357285 -0.00011560364509932696819 -0.00018117697618436068296 -0.00049167702673003077507 -0.00028855813434347510338 0.0039697904139757156372 0.0043331016786396503448 0.002869389951229095459 0.0035167741589248180389 0.0047569386661052703857 0.012800281867384910583 0.019480796530842781067 0.013351329602301120758 0.021653391420841217041 0.0076603344641625881195 0.0072246268391609191895 0.0052883643656969070435 -0.0063882805407047271729 -0.0069190938957035541534 -0.0082508251070976257324 -0.12808184325695037842 -0.069281548261642456055 0.012340301647782325745 0.025472830981016159058 0.060614217072725296021 0.012555862776935100555 0.077992096543312072754 0.010535725392401218414 0.020879868417978286743 0.011560005135834217072 0.013115731999278068542 0.018187668174505233765 0.01697536371648311615 0.027008201926946640015 0.0089974319562315940857 0.012350200675427913666 0.013954101130366325378 0.029942598193883895874 0.074472017586231231689 0.0096299825236201286316 0.004740456119179725647 0.0055068684741854667664 0.07104924321174621582 0.072341829538345336914 0.027296558022499084473 0.0055172094143927097321 0.032245501875877380371 0.028518468141555786133 0.048575919121503829956 0.097802497446537017822 0.011567007750272750854 0.0085628805682063102722 0.0082823270931839942932 0.0069266180507838726044 0.029823651537299156189 0.082904979586601257324 0.07045901566743850708 0.011128422804176807404 0.0075615523383021354675 0.0049258205108344554901 0.010759576223790645599 0.0084830801934003829956 0.014426728710532188416 0.0045616668649017810822 0.0034271734766662120819 0.0040880348533391952515 0.0034800413995981216431 0.011411868035793304443 0.0029325135983526706696 0.0050265588797628879547 0.0056845261715352535248 0.0039971754886209964752 0.0047298162244260311127 0.0079359551891684532166 0.0092271463945508003235 0.0057076886296272277832 0.0028131196741014719009 0.0032649657223373651505 0.0067874523811042308807 -0.0053823012858629226685 0 0 0 0 0 0 0 0 0 0 0 0 0 0 0 0 0 0 0 0 0 0 0 0 0 0 0 0 0 0 0 0 0 0 0 0 0 0 0 0 0 0 0 0 0 0 0 0 0 0 0 0 0 0 0 0 0 0 0 0 0 0 0 0 0 0 0 0 0 0 0 0 0 0 0 0 0 0 0 0 0 0 0 0 0 0 0 0 0 0 0 0 0 0 0 0 0 0 0 0 0 0 0 0 0 0 0 0 0 0 0 0 0 0 0 
0 0 0 0 0 0 0 0 0 0 0 0 0 0 0 0 0 0 0 0 0 0 0 0 0 0 0 0 0 0 0 0 0 0 0 0 0 0 0 0 0 0 0 0 0 0 0 0 0 0 0 0 0 0 0 0 0 0 0 0 0 0 0 0 0 0 0 0 0 0 0 0 -0.00049684534315019845963 -0.0002828088181558996439 -0.0005813509342260658741 -0.00039661471964791417122 -0.00068165065022185444832 -0.00019788560166489332914 -0.00016334114479832351208 -0.0001416622981196269393 -8.9396911789663136005e-05 -0.00011983694275841116905 -0.00042965184547938406467 -0.00011838146019726991653 0 0 0 0 0 0 -0.00020911324827466160059 -0.00027894511003978550434 -0.001183104352094233036 -0.00083327339962124824524 -4.6880646550562232733e-05 -6.14962773397564888e-05 0 -4.1893596062436699867e-05 0 0 0.0039697904139757156372 0.0078395437449216842651 0.021968020126223564148 0.035994652658700942993 0.0051454966887831687927 0.0074605219997465610504 0.0083911819383502006531 0.0048060710541903972626 0.018741475418210029602 0.031364765018224716187 0.021392084658145904541 0.0092642353847622871399 -0.1026994660496711731 -0.23430910706520080566 -0.17214910686016082764 -0.12808184325695037842 -1.1783671379089355469 -0.72626054286956787109 0.061243053525686264038 0.02383946441113948822 0.0038942003156989812851 0.006185110192745923996 0.010535725392401218414 0.0036851393524557352066 0.01809427700936794281 0.019266448915004730225 0.020570782944560050964 0.025716608390212059021 0.027008201926946640015 0.0089974319562315940857 0.020394457504153251648 0.045175310224294662476 0.052957937121391296387 0.09374351799488067627 0.028047949075698852539 0.004740456119179725647 0.0055068684741854667664 0.0047918688505887985229 0.0063538723625242710114 0.006380666978657245636 0.014453606680035591125 0.0050639514811336994171 0.028518468141555786133 0.0090049728751182556152 0.078581340610980987549 0.021774299442768096924 0.029755966737866401672 0.012161321938037872314 0.01491823885589838028 0.029823651537299156189 0.048588968813419342041 0.093133836984634399414 0.016604738309979438782 0.0068121105432510375977 0.0086018107831478118896 0.013647708110511302948 0.013057829812169075012 0.0084512494504451751709 0.0034837352577596902847 0.0050795646384358406067 0.002702777273952960968 0.0054395194165408611298 0.011411868035793304443 0.0057697235606610774994 0.0053850808180868625641 0.0038264032918959856033 0.0037710010074079036713 0.0044493186287581920624 0.013296938501298427582 0.0068671707995235919952 0.0058266217820346355438 0.0029843566007912158966 0.01282274443656206131 0.0067531224340200424194 -0.0053823012858629226685 -0.003091985359787940979 0 0 0 0 0 0 0 0 0 0 0 0 0 0 0 0 0 0 0 0 0 0 0 0 0 0 0 0 0 0 0 0 0 0 0 0 0 0 0 0 0 0 0 0 0 0 0 0 0 0 0 0 0 0 0 0 0 0 0 0 0 0 0 0 0 0 0 0 0 0 0 0 0 0 0 0 0 0 0 0 0 0 0 0 0 0 0 0 0 0 0 0 0 0 0 0 0 0 0 0 0 0 0 0 0 0 0 0 0 0 0 0 0 0 
0 0 0 0 0 0 0 0 0 0 0 0 0 0 0 0 0 0 0 0 0 0 0 0 0 0 0 0 0 0 0 0 0 0 0 0 0 0 0 0 0 0 0 0 0 0 0 0 0 0 0 0 0 0 0 0 0 0 0 0 0 0 0 0 0 0 0 0 0 0 0 -0.00039121203008107841015 -0.00049684534315019845963 -0.0002828088181558996439 -0.00017437347560189664364 -0.00022814176918473094702 -0.00028920729528181254864 -0.00055754149798303842545 -0.00026030122535303235054 -0.00016817204596009105444 -8.9396911789663136005e-05 -0.00031372735975310206413 -0.00027707833214662969112 -0.0001600809773663058877 0 0 0 0 0 0 0 0 0 0 -4.6880646550562232733e-05 -6.14962773397564888e-05 0 0 0.0084767779335379600525 0.033461306244134902954 0.0085218669846653938293 0.0054254392161965370178 0.0036341843660920858383 0.0060548954643309116364 0.0077822664752602577209 0.007451121695339679718 0.0039363843388855457306 0.0061170700937509536743 0.009454143233597278595 0.0051986048929393291473 0.025049790740013122559 0.034157428890466690063 -0.26138222217559814453 -0.45197197794914245605 -0.41992551088333129883 -0.84841781854629516602 -1.0283491611480712891 -0.65537208318710327148 -0.38400635123252868652 0.024372851476073265076 0.0085115544497966766357 0.020716454833745956421 0.10664451867341995239 0.0036851393524557352066 0.018056593835353851318 0.023263843730092048645 0.015773197636008262634 0.027818743139505386353 0.02935022301971912384 0.028824158012866973877 0.020394457504153251648 0.007127999328076839447 0.020267216488718986511 0.0076123680919408798218 0.01491909567266702652 0.003381598740816116333 0.0042097107507288455963 0.0047918688505887985229 0.006201106589287519455 0.0048241899348795413971 0.0053824889473617076874 0.019839005544781684875 0.021137000992894172668 0.0090049728751182556152 0.078581340610980987549 0.075703725218772888184 0.06493533402681350708 0.014174871146678924561 0.0087862126529216766357 0.042330924421548843384 0.048588968813419342041 0.015510516241192817688 0.064256802201271057129 0.037630971521139144897 0.018760338425636291504 0.020132619887590408325 0.019119137898087501526 0.0084512494504451751709 0.01354544423520565033 0.0060118376277387142181 0.0057701002806425094604 0.0020477641373872756958 0.0029557642992585897446 0.003741844790056347847 0.0085663897916674613953 0.0044083376415073871613 0.0092159844934940338135 0.016459571197628974915 0.039701238274574279785 0.016981225460767745972 0.0068671707995235919952 0.0032743958290666341782 -0.0040816892869770526886 -0.0048144371248781681061 -0.002277640393003821373 -0.002518430585041642189 0 0 0 0 0 0 0 0 0 0 0 0 0 0 0 0 0 0 0 0 0 0 0 0 0 0 0 0 0 0 0 0 0 0 0 0 0 0 0 0 0 0 0 0 0 0 0 0 0 0 0 0 0 0 0 0 0 0 0 0 0 0 0 0 0 0 0 0 0 0 0 0 0 0 0 0 0 0 0 0 0 0 0 0 0 0 0 0 0 0 0 0 0 0 0 0 0 0 0 0 0 0 0 0 0 0 0 0 0 0 0 0 0 0 
0 0 0 0 0 0 0 0 0 0 0 0 0 0 0 0 0 0 0 0 0 0 0 0 0 0 0 0 0 0 0 0 0 0 0 0 0 0 0 0 0 0 0 0 0 0 0 0 0 0 0 0 0 0 0 0 0 0 0 0 0 0 0 0 0 0 0 0 0 0 0 0 -0.00020908824808429926634 -0.0009159259498119354248 -0.00017437347560189664364 0 0 0 -0.00026225979672744870186 -0.00023029459407553076744 -0.00077898165909573435783 -0.00031372735975310206413 -0.00027707833214662969112 -8.7739732407499104738e-05 -0.00016831667744554579258 -0.00031270564068108797073 -0.00028883171034976840019 -0.00075036124326288700104 -0.0019667337182909250259 0 -0.00060597178526222705841 0 -0.00036161139723844826221 0 0 0 0 0.0030372980982065200806 0.0064635537564754486084 0.025988688692450523376 0.0099137956276535987854 0.010413586162030696869 0.0045760408975183963776 0.0059093669988214969635 0.0060548954643309116364 0.038326214998960494995 0.028368223458528518677 0.013158733956515789032 0.0073718368075788021088 0.006092557217925786972 0.011776689440011978149 0.034157428890466690063 -0.18533088266849517822 -0.20356197655200958252 -0.70406866073608398438 -0.933628082275390625 -1.168308258056640625 -1.020465850830078125 -0.38400635123252868652 -0.071842581033706665039 0.028494607657194137573 0.039235837757587432861 0.041469980031251907349 0.039361547678709030151 0.0059160226956009864807 0.023263843730092048645 0.003722169436514377594 0.031637217849493026733 0.028102792799472808838 0.026890369132161140442 0.018387660384178161621 0.007127999328076839447 0.017137106508016586304 0.009594006463885307312 0.0066622737795114517212 0.004738654009997844696 0.009797098115086555481 0.0087909689173102378845 0.006201106589287519455 0.0078454976901412010193 0.025898052379488945007 0.1519695967435836792 0.088459797203540802002 0.025969861075282096863 0.01433663535863161087 0.075703725218772888184 0.042542122304439544678 0.028922749683260917664 0.035713531076908111572 0.0033039685804396867752 0.013845915906131267548 0.024521315470337867737 0.064256802201271057129 0.053762115538120269775 0.04404087364673614502 0.012475740164518356323 0.0084030069410800933838 0.020322112366557121277 0.037595085799694061279 0.023925581946969032288 0.0058035012334585189819 0.0022794599644839763641 0.002006266498938202858 0.0023530786857008934021 0.0045793061144649982452 0.0084162978455424308777 0.0082358969375491142273 0.010211683809757232666 0.031569175422191619873 0.021383598446846008301 0.0047696079127490520477 0.003068182850256562233 -0.023177446797490119934 -0.021924670785665512085 -0.002419452182948589325 0 0 0 0 0 0 0 0 0 0 0 0 0 0 0 0 0 0 0 0 0 0 0 0 0 0 0 0 0 0 0 0 0 0 0 0 0 0 0 0 0 0 0 0 0 0 0 0 0 0 0 0 0 0 0 0 0 0 0 0 0 0 0 0 0 0 0 0 0 0 0 0 0 0 0 0 0 0 0 0 0 0 0 0 0 0 0 0 0 0 0 0 0 0 0 0 0 0 0 0 0 0 0 0 0 0 0 0 0 0 0 0 0 0 0 
0 0 0 0 0 0 0 0 0 0 0 0 0 0 0 0 0 0 0 0 0 0 0 0 0 0 0 0 0 0 0 0 0 0 0 0 0 0 0 0 0 0 0 0 0 0 0 0 0 0 0 0 0 0 0 0 0 0 0 0 0 0 0 0 0 0 0 0 0 0 0 0 -0.00021201977506279945374 -0.00027381037943996489048 -0.00017674373521003872156 0 0 0 0 0 -0.00035357955493964254856 -0.00061114120762795209885 -0.00019714429799932986498 -8.7739732407499104738e-05 -0.00022099909256212413311 -0.00012391382188070565462 -0.00016439291357528418303 -0.00010561617091298103333 0.2614377439022064209 -0.00049800815759226679802 -0.00060597178526222705841 -0.00053139368537813425064 -0.00057428266154602169991 -0.00028073083376511931419 0.0035269791260361671448 0 0.0029873405583202838898 0.0030372980982065200806 0.0037642896641045808792 0.0085649769753217697144 0.0063020931556820869446 0.0055247615091502666473 0.0058456496335566043854 0.031468752771615982056 0.023300692439079284668 0.0082203280180692672729 0.049339849501848220825 0.020760573446750640869 0.025520088151097297668 0.011548289097845554352 0.049154244363307952881 0.070933923125267028809 0.086129248142242431641 -0.15328134596347808838 -0.71066421270370483398 -1.1131031513214111328 -1.1814377307891845703 -1.1130712032318115234 -0.28592011332511901855 -0.071842581033706665039 0.012193650007247924805 0.013973531313240528107 0.025115277618169784546 0.051715154200792312622 0.0030514569953083992004 0.0026160632260143756866 0.003722169436514377594 -0.022545129060745239258 -0.020893476903438568115 -0.012312980368733406067 -0.0012505957856774330139 0.0090265478938817977905 0.0059187300503253936768 0.009594006463885307312 0.0037822963204234838486 -0.00067976210266351699829 0.017309261485934257507 0.016190186142921447754 0.05306086316704750061 0.0078454976901412010193 0.025898052379488945007 0.12073004990816116333 0.099198527634143829346 0.07303664088249206543 0.14444811642169952393 0.1524114459753036499 0.042542122304439544678 0.11256214231252670288 0.14349782466888427734 0.017765080556273460388 0.025979841127991676331 0.03938414156436920166 0.052255485206842422485 0.053762115538120269775 0.028724234551191329956 0.01520527619868516922 0.010283848270773887634 0.023590859025716781616 0.081796690821647644043 0.038324613124132156372 0.0044752126559615135193 0.0085504967719316482544 0.0020787960384041070938 0.0019725374877452850342 0.0032599496189504861832 0.0084162978455424308777 0.0081368554383516311646 0.008329652249813079834 0.010652143508195877075 0.0067571196705102920532 -0.0087681571021676063538 -0.0079724676907062530518 -0.023177446797490119934 -0.0068397363647818565369 -0.0055855652317404747009 -0.0086155673488974571228 0 0 0 0 0 0 0 0 0 0 0 0 0 0 0 0 0 0 0 0 0 0 0 0 0 0 0 0 0 0 0 0 0 0 0 0 0 0 0 0 0 0 0 0 0 0 0 0 0 0 0 0 0 0 0 0 0 0 0 0 0 0 0 0 0 0 0 0 0 0 0 0 0 0 0 0 0 0 0 0 0 0 0 0 0 0 0 0 0 0 0 0 0 0 0 0 0 0 0 0 0 0 0 0 0 0 0 0 0 0 0 0 0 0 
0 0 0 0 0 0 0 0 0 0 0 0 0 0 0 0 0 0 0 0 0 0 0 0 0 0 0 0 0 0 0 0 0 0 0 0 0 0 0 0 0 0 0 0 0 0 0 0 0 0 0 0 0 0 0 0 0 0 0 0 0 0 0 0 0 0 0 0 0 0 0 0 0 0 0 0 0 0 0 0 0 -0.00042646299698390066624 -0.0001432164281141012907 -0.00019374320982024073601 -0.00022099909256212413311 -0.00016337675333488732576 -0.00017886882415041327477 -0.00015204993542283773422 0 -0.00027975693228654563427 -0.00059848104137927293777 -0.00053139368537813425064 -0.00057428266154602169991 0.012315594591200351715 0.004261752590537071228 0.0060883564874529838562 0.0064836079254746437073 0.016592403873801231384 0.028939001262187957764 0.0085649769753217697144 0.0041609480977058410645 0.0039193578995764255524 0.0083173178136348724365 0.058362033218145370483 0.018046207726001739502 0.0097333490848541259766 0.044979911297559738159 0.020760573446750640869 0.055392548441886901855 0.028031891211867332458 0.087545618414878845215 0.11841850727796554565 0.067597113549709320068 -0.12747149169445037842 -0.31611794233322143555 -0.10220353305339813232 -0.17494718730449676514 -0.22603967785835266113 -0.24197065830230712891 -0.2466535419225692749 0.012842828407883644104 0.0058618588373064994812 0.0066668633371591567993 0.012626778334379196167 -0.0014265979407355189323 -0.0014021469978615641594 -0.006457102019339799881 -0.022545129060745239258 -0.0037745763547718524933 -0.003333563217893242836 -0.00037606083787977695465 -0.00059490243438631296158 -0.0016845498466864228249 -0.00074883917113766074181 0.0037822963204234838486 0.0033801775425672531128 0.0040590795688331127167 0.018216179683804512024 0.053754381835460662842 0.037007845938205718994 0.018564140424132347107 0.12073004990816116333 0.013163085095584392548 0.01702446863055229187 0.018055886030197143555 0.037475895136594772339 0.018939996138215065002 0.041687548160552978516 0.14349782466888427734 0.035426609218120574951 0.022276043891906738281 0.029228592291474342346 0.034786630421876907349 0.026890227571129798889 0.027819743379950523376 0.0065071047283709049225 0.025065487250685691833 0.022002147510647773743 0.028850011527538299561 0.01128332875669002533 0.012045670300722122192 0.0044752126559615135193 0.0039305230602622032166 0.0016492323484271764755 0.0013865701621398329735 0.0048432536423206329346 0.0027120423037558794022 0.0065505951642990112305 0.012791472487151622772 0.012495525181293487549 -0.014755237847566604614 -0.0077778310514986515045 -0.035996403545141220093 -0.0068397363647818565369 -0.012928417883813381195 -0.019207388162612915039 0 0 0 0 0 0 0 0 0 0 0 0 0 0 0 0 0 0 0 0 0 0 0 0 0 0 0 0 0 0 0 0 0 0 0 0 0 0 0 0 0 0 0 0 0 0 0 0 0 0 0 0 0 0 0 0 0 0 0 0 0 0 0 0 0 0 0 0 0 0 0 0 0 0 0 0 0 0 0 0 0 0 0 0 0 0 0 0 0 0 0 0 0 0 0 0 0 0 0 0 0 0 0 0 0 0 0 0 0 0 0 0 0 0 
0 0 0 0 0 0 0 0 0 0 0 0 0 0 0 0 0 0 0 0 0 0 0 0 0 0 0 0 0 0 0 0 0 0 0 0 0 0 0 0 0 0 0 0 0 0 0 0 0 0 0 0 0 0 0 0 0 0 0 0 0 0 0 0 0 0 0 0 0 0 0 0 0 0 0 0 0 0 0 0 0 -0.0003063575131818652153 0 -0.00028951230342499911785 -0.00075493962503969669342 -0.00016337675333488732576 -0.00017886882415041327477 -0.00054124789312481880188 -0.00060920621035620570183 -0.003251259680837392807 -0.00054101395653560757637 0 -0.00041715786210261285305 0.012315594591200351715 0.036524437367916107178 0.0050169564783573150635 0.0058246040716767311096 0.071143589913845062256 0.050361093133687973022 0.0076600466854870319366 0.0041609480977058410645 0.00517945876345038414 0.013473613187670707703 0.035825878381729125977 0.020686589181423187256 0.0074663255363702774048 0.024653034284710884094 0.017173590138554573059 0.023277854546904563904 -0.0030593653209507465363 0.029427230358123779297 0.026950592175126075745 0.020057247951626777649 0.0064770043827593326569 -0.070277892053127288818 -0.10220353305339813232 -0.0010324673494324088097 -0.00058004166930913925171 -0.00018910766812041401863 0.0038645134773105382919 -0.00012253684690222144127 -0.00026704839547164738178 0.0066668633371591567993 -0.0001151783872046507895 -0.00026061030803248286247 -0.00020060308452229946852 -0.0033705504611134529114 -0.0016549867577850818634 -0.013856808654963970184 -0.003333563217893242836 -0.00042694562580436468124 -0.0038095123600214719772 -0.00092147657414898276329 -0.00039212885894812643528 -0.0021429869811981916428 0.0033801775425672531128 0.032968148589134216309 0.006380677688866853714 0.0049158190377056598663 0.0033984158653765916824 0.0063484697602689266205 0.030616577714681625366 0.013163085095584392548 0.019633794203400611877 0.030756939202547073364 0.036648195236921310425 0.012293556705117225647 0.018300140276551246643 0.038181252777576446533 0.035426609218120574951 0.020609250292181968689 0.11504992842674255371 0.021183790639042854309 0.015409458428621292114 0.050580345094203948975 0.11672881245613098145 0.09824390709400177002 0.018181465566158294678 0.012632763013243675232 0.047330480068922042847 0.032030288130044937134 0.0041233068332076072693 0.0022759207058697938919 0.0058338604867458343506 0.0017315342556685209274 0.0061753736808896064758 0.0030113067477941513062 0.0084250345826148986816 0.012791472487151622772 0.0084189362823963165283 -0.0046013947576284408569 -0.0050584417767822742462 -0.031632371246814727783 -0.042773757129907608032 -0.025783354416489601135 -0.019207388162612915039 -0.0060102511197328567505 0 0 0 0 0 0 0 0 0 0 0 0 0 0 0 0 0 0 0 0 0 0 0 0 0 0 0 0 0 0 0 0 0 0 0 0 0 0 0 0 0 0 0 0 0 0 0 0 0 0 0 0 0 0 0 0 0 0 0 0 0 0 0 0 0 0 0 0 0 0 0 0 0 0 0 0 0 0 0 0 0 0 0 0 0 0 0 0 0 0 0 0 0 0 0 0 0 0 0 0 0 0 0 0 0 0 0 0 0 0 0 0 0 
0 0 0 0 0 0 0 0 0 0 0 0 0 0 0 0 0 0 0 0 0 0 0 0 0 0 0 0 0 0 0 0 0 0 0 0 0 0 0 0 0 0 0 0 0 0 0 0 0 0 0 0 0 0 0 0 0 0 0 0 0 0 0 0 0 0 0 0 0 0 0 0 0 0 0 0 0 0 0 0 0 0 0 0 0 0 -0.00077196938218548893929 -0.00054124789312481880188 -0.00045892660273239016533 -0.00070567877264693379402 -0.00057794747408479452133 -0.00064717885106801986694 -0.00062981824157759547234 0.021408453583717346191 0.036524437367916107178 0.0050169564783573150635 0.0070169507525861263275 0.060096859931945800781 0.041269589215517044067 0.0057449596934020519257 0.0038632799405604600906 0.0069414479658007621765 0.012280762195587158203 -0.014000184834003448486 -0.016417456790804862976 -0.0016771729569882154465 -0.0031899588648229837418 0.029250530526041984558 0.010148309171199798584 -0.0079352604225277900696 -0.00037219547084532678127 0.0051173679530620574951 0.0043865791521966457367 -0.00057051511248573660851 -0.00043032318353652954102 -0.00025445313076488673687 -0.13281637430191040039 -0.00053405592916533350945 -0.00012358029198367148638 -0.0001807367807487025857 -0.0007345308549702167511 -0.00015872262883931398392 -0.00011249540693825110793 -0.0001151783872046507895 -0.00025244543212465941906 -0.00031541104544885456562 -0.0007930244901217520237 -0.00094630505191162228584 -0.0014391317963600158691 -0.00032018558704294264317 -0.00042694562580436468124 -0.0012404199223965406418 -0.0007061304640956223011 -0.001919937552884221077 -0.00042577277054078876972 -0.00048172014066949486732 0.065191291272640228271 0.006380677688866853714 0.0066067995503544807434 0.0057538067921996116638 0.01553130708634853363 0.0034740751143544912338 0.024144655093550682068 0.016573578119277954102 0.030756939202547073364 0.036097969859838485718 0.022457363083958625793 0.022053798660635948181 0.072296582162380218506 0.071494795382022857666 0.017916772514581680298 0.0035004289820790290833 0.0050510303117334842682 0.0094117000699043273926 0.024599676951766014099 0.010408232919871807098 0.01568118855357170105 0.09824390709400177002 0.01079001743346452713 0.02138898894190788269 0.014701623469591140747 0.0046982876956462860107 0.0030757356435060501099 0.0036262169014662504196 0.0091709112748503684998 0.0045504774898290634155 0.011893805116415023804 0.0045259101316332817078 0.004459640011191368103 0.0084189362823963165283 0.0060278298333287239075 -0.0047515844926238059998 -0.038629643619060516357 -0.047467608004808425903 -0.024154501035809516907 -0.012038995511829853058 -0.0060102511197328567505 0 0 0 0 0 0 0 0 0 0 0 0 0 0 0 0 0 0 0 0 0 0 0 0 0 0 0 0 0 0 0 0 0 0 0 0 0 0 0 0 0 0 0 0 0 0 0 0 0 0 0 0 0 0 0 0 0 0 0 0 0 0 0 0 0 0 0 0 0 0 0 0 0 0 0 0 0 0 0 0 0 0 0 0 0 0 0 0 0 0 0 0 0 0 0 0 0 0 0 0 0 0 0 0 0 0 0 0 0 0 0 0 0 
0 0 0 0 0 0 0 0 0 0 0 0 0 0 0 0 0 0 0 0 0 0 0 0 0 0 0 0 0 0 0 0 0 0 0 0 0 0 0 0 0 0 0 0 0 0 0 0 0 0 0 0 0 0 0 0 0 0 0 0 0 0 0 0 0 0 0 0 0 0 0 0 -0.00042284553637728095055 0 0 0 0.004981876816600561142 0.0078966962173581123352 0 0 0 0 0 0 0 -0.0026007445994764566422 -0.00087418442126363515854 -0.00064880633726716041565 -0.00045892660273239016533 -0.00070567877264693379402 -0.00053761224262416362762 -0.00032549540628679096699 -0.00049785029841586947441 -0.0010142710525542497635 0.0097676618024706840515 0.0067349276505410671234 0.0070169507525861263275 -0.013734014704823493958 0.0066162114962935447693 0.0061233164742588996887 0.0048243571072816848755 0.0055590076372027397156 0.010288618505001068115 -0.0048805680125951766968 -0.014000184834003448486 -0.0062138619832694530487 -0.0022342242300510406494 -0.0024225199595093727112 -0.0046798540279269218445 -0.0020554426591843366623 -0.0017311339033767580986 0.0051173679530620574951 -0.00015135739522520452738 -0.0011035616043955087662 -0.00080471474211663007736 -0.00019557384075596928596 -0.00054346205433830618858 -0.0010663942666724324226 -0.00012358029198367148638 -0.00034672237234190106392 -0.00043596743489615619183 -0.00052516878349706530571 -0.0003436950210016220808 -0.0001538900833111256361 -0.00015716678171884268522 -0.00050896528409793972969 -0.00019366000196896493435 0 0.52739036083221435547 0 -0.00017769745318219065666 -0.00022432836703956127167 -0.00047827642993070185184 -0.00032653348171152174473 0.0141653427854180336 0.010245541110634803772 0.0095734139904379844666 0.014937316067516803741 0.0066067995503544807434 0.0097173713147640228271 0.039712626487016677856 0.0083863735198974609375 0.01024579070508480072 0.015048156492412090302 0.027932628989219665527 0.036097969859838485718 0.011052382178604602814 0.005175849422812461853 0.041659377515316009521 0.10713710635900497437 0.017646277323365211487 0.0083033991977572441101 0.0031497606541961431503 0.0077384905889630317688 0.0096708619967103004456 0.021361509338021278381 0.036475133150815963745 0.12452343851327896118 0.028120044618844985962 0.0061420248821377754211 0.0060959919355809688568 0.01030051056295633316 0.0043663117103278636932 0.0089241368696093559265 0.0091709112748503684998 0.0078246695920825004578 0.0056995963677763938904 0.0047085238620638847351 0.0040107304230332374573 0.0095778647810220718384 0.0073881670832633972168 -0.0047515844926238059998 0.027462748810648918152 -0.031294390559196472168 -0.023376733064651489258 0 0 0 0 0 0 0 0 0 0 0 0 0 0 0 0 0 0 0 0 0 0 0 0 0 0 0 0 0 0 0 0 0 0 0 0 0 0 0 0 0 0 0 0 0 0 0 0 0 0 0 0 0 0 0 0 0 0 0 0 0 0 0 0 0 0 0 0 0 0 0 0 0 0 0 0 0 0 0 0 0 0 0 0 0 0 0 0 0 0 0 0 0 0 0 0 0 0 0 0 0 0 0 0 0 0 0 0 0 0 0 0 0 0 0 
0 0 0 0 0 0 0 0 0 0 0 0 0 0 0 0 0 0 0 0 0 0 0 0 0 0 0 0 0 0 0 0 0 0 0 0 0 0 0 0 0 0 0 0 0 0 0 0 0 0 0 0 0 0 0 0 0 0 0 0 0 0 0 0 0 0 0 0 0 0 0 0 0 0 0 0 0.0098028909415006637573 0.0088807130232453346252 0.015670411288738250732 0.028272371739149093628 0 0 0 0 0 0 -0.00054052163613960146904 -0.00047999035450629889965 -0.00048908928874880075455 -0.00035347073571756482124 -0.00053761224262416362762 -0.0010073787998408079147 -0.00078022293746471405029 -0.00065569387516006827354 -0.00092945364303886890411 -0.0020268659573048353195 -0.010937482118606567383 -0.013734014704823493958 0.0079029751941561698914 -0.0026135221123695373535 -0.0029512932524085044861 -0.0062968516722321510315 -0.0023819345515221357346 -0.01572418212890625 -0.013927419669926166534 -0.015199501998722553253 -0.00052057765424251556396 -0.00047369900858029723167 -0.00070379814133048057556 -0.00051606772467494010925 -0.00036869308678433299065 -9.0351008111611008644e-05 -9.1238180175423622131e-05 -0.00026412907755002379417 -0.00040847557829692959785 -0.00031193261384032666683 31.148515701293945312 0 0.34034392237663269043 -0.00034672237234190106392 -9.7267264209222048521e-05 -0.00011620777513599023223 -7.8146615123841911554e-05 -8.8775392214301973581e-05 -0.00041011653956957161427 -0.00062250543851405382156 -0.00019366000196896493435 0 0 0 0 -0.00022310890199150890112 -0.0011245574569329619408 -0.00032653348171152174473 0.015904478728771209717 0.012967922724783420563 0.007226045709103345871 0.0081324419006705284119 0.0048629087395966053009 0.0073800240643322467804 0.039712626487016677856 0.016039209440350532532 0.087750129401683807373 0.10896262526512145996 0.010524048469960689545 0.014584030024707317352 0.015734560787677764893 0.050228226929903030396 0.041822325438261032104 0.069045238196849822998 0.0084980260580778121948 0.0052885273471474647522 0.0029680258594453334808 0.0031497606541961431503 0.014177861623466014862 0.085481576621532440186 0.047828432172536849976 0.022565612569451332092 0.033980902284383773804 0.011864696629345417023 0.012005371972918510437 0.0092352675274014472961 0.0089408820495009422302 0.0035439871717244386673 0.0030569715891033411026 0.0078246695920825004578 0.0056932321749627590179 0.025477673858404159546 0.0067777442745864391327 0.0061321407556533813477 0.0085983686149120330811 0.035752765834331512451 0.027462748810648918152 -0.024547334760427474976 -0.0064672986045479774475 0 0 0 0 0 0 0 0 0 0 0 0 0 0 0 0 0 0 0 0 0 0 0 0 0 0 0 0 0 0 0 0 0 0 0 0 0 0 0 0 0 0 0 0 0 0 0 0 0 0 0 0 0 0 0 0 0 0 0 0 0 0 0 0 0 0 0 0 0 0 0 0 0 0 0 0 0 0 0 0 0 0 0 0 0 0 0 0 0 0 0 0 0 0 0 0 0 0 0 0 0 0 0 0 0 0 0 0 0 0 0 0 0 0 0 
0 0 0 0 0 0 0 0 0 0 0 0 0 0 0 0 0 0 0 0 0 0 0 0 0 0 0 0 0 0 0 0 0 0 0 0 0 0 0 0 0 0 0 0 0 0 0 0 0 0 0 0 0 0 0 0 0 0 0 0 0 0 0 0 0 0 0 0 0 0 0 0.016055393964052200317 0.041637267917394638062 0.015205375850200653076 0.033645391464233398438 0.014405212365090847015 0.0098028909415006637573 0.0088807130232453346252 0.010260418988764286041 0.0092617962509393692017 0.015131889842450618744 0 0 0 0 0 0 -0.00023492040054406970739 -0.0038626824971288442612 -0.00095149903791025280952 -0.0015059165889397263527 -0.0010073787998408079147 -0.00078022293746471405029 -0.00037965513183735311031 -0.004074530676007270813 -0.0054661384783685207367 -0.033783219754695892334 -0.031974546611309051514 -0.0031038837041705846786 -0.0058214422315359115601 -0.0035295563284307718277 -0.003312260843813419342 -0.0018426552414894104004 -0.0090404106304049491882 -0.0091551719233393669128 -0.0065852482803165912628 -0.0015505717601627111435 -0.00057560415007174015045 -0.0027863448485732078552 -0.00017205860058311372995 -0.00023226712073665112257 -0.00025377530255354940891 -0.00016883671924006193876 -0.00048828165745362639427 -0.0003374929365236312151 0 0 0 0 0 0 -6.3327235693577677011e-05 -6.9298635935410857201e-05 -0.00025287765311077237129 0.34034392237663269043 -0.00024198830942623317242 -0.00012398461694829165936 0 0 0 0 -0.00022905509104020893574 -0.00087546987924724817276 -0.000286626018350943923 0.015904478728771209717 -0.00048810092266649007797 -0.00039087093318812549114 0.0098219476640224456787 0.01194305717945098877 0.010948821902275085449 0.011208893731236457825 0.016039209440350532532 0.10989885032176971436 0.086656481027603149414 0.065911777317523956299 0.065826095640659332275 0.18168871104717254639 0.11169714480638504028 0.041822325438261032104 0.055779322981834411621 0.028786735609173774719 0.013346739113330841064 0.0062868320383131504059 0.00698391767218708992 0.0084413010627031326294 0.026881430298089981079 0.045731365680694580078 0.012175406329333782196 0.012033150531351566315 0.0078072021715342998505 0.012005371972918510437 0.011648819781839847565 0.014397191815078258514 0.0043289633467793464661 0.0083311675116419792175 0.01655023917555809021 0.018265478312969207764 0.025477673858404159546 0.013577984645962715149 0.006331922486424446106 0.013010724447667598724 0.019018072634935379028 0.010649818927049636841 -0.024547334760427474976 -0.0064672986045479774475 0 0 0 0 0 0 0 0 0 0 0 0 0 0 0 0 0 0 0 0 0 0 0 0 0 0 0 0 0 0 0 0 0 0 0 0 0 0 0 0 0 0 0 0 0 0 0 0 0 0 0 0 0 0 0 0 0 0 0 0 0 0 0 0 0 0 0 0 0 0 0 0 0 0 0 0 0 0 0 0 0 0 0 0 0 0 0 0 0 0 0 0 0 0 0 0 0 0 0 0 0 0 0 0 0 0 0 0 0 0 0 0 0 0 0 
0 0 0 0 0 0 0 0 0 0 0 0 0 0 0 0 0 0 0 0 0 0 0 0 0 0 0 0 0 0 0 0 0 0 0 0 0 0 0 0 0 0 0 0 0 0 0 0 0 0 0 0 0 0 0 0 0 0 0 0 0 0 0 0 0 0 0 0 -0.00021694011229556053877 -0.00028566195396706461906 0 0.016055393964052200317 0.027548268437385559082 0.060384903103113174438 0.059070397168397903442 0.019488707184791564941 0.011189727112650871277 0.013328125700354576111 0.010260418988764286041 0.006113561335951089859 0.010284683667123317719 0 0 0 0 0 0 0 0 -0.00034612746094353497028 -0.00055466650519520044327 -0.00052502535982057452202 -0.00042322152876295149326 -0.00037965513183735311031 -0.00024656939785927534103 0 -0.019058894366025924683 -0.025670267641544342041 -0.0095490608364343643188 -0.0074586346745491027832 -0.0035295563284307718277 -0.0013225465081632137299 -0.0017355076270177960396 -0.0010064591187983751297 -0.0021164524368941783905 -0.0019474520813673734665 -0.00057315867161378264427 -0.00077771767973899841309 -0.00057560415007174015045 -9.6700612630229443312e-05 -0.00014471879694610834122 -0.00037897090078331530094 -0.00086622900562360882759 -0.0022061655763536691666 -0.00038426709943450987339 0 0 0 0 0 -5.9876801969949156046e-05 -0.00023753252753522247076 -6.9298635935410857201e-05 0 0.11149236559867858887 -0.00012710502778645604849 -7.5100360845681279898e-05 0 0 0 -0.00016487204993609338999 -8.3006430941168218851e-05 -0.00014211767120286822319 -0.00050180969992652535439 -0.00014234686386771500111 -0.00085141503950580954552 -0.00068628543522208929062 -0.0018656377214938402176 -0.00073728890856727957726 -0.00050196662778034806252 0.0093443561345338821411 0.021806422621011734009 0.020881041884422302246 0.0048789321444928646088 0.061244126409292221069 0.035792373120784759521 0.018085164949297904968 0.011716351844370365143 0.020809940993785858154 0.0087183024734258651733 0.070164315402507781982 0.027554841712117195129 0.0071571250446140766144 0.0056238644756376743317 0.0064717829227447509766 0.010469574481248855591 0.0092886975035071372986 0.013166717253625392914 0.0065323230810463428497 0.0032831698190420866013 0.0048961821012198925018 0.0054039238020777702332 0.0034933888819068670273 0.0079803671687841415405 0.0038829143159091472626 0.0031767429318279027939 0.018440876156091690063 0.044042143970727920532 0.013577984645962715149 0.010779890231788158417 0.012189375236630439758 0.0097344927489757537842 -0.007171891629695892334 -0.018809154629707336426 0 0 0 0 0 0 0 0 0 0 0 0 0 0 0 0 0 0 0 0 0 0 0 0 0 0 0 0 0 0 0 0 0 0 0 0 0 0 0 0 0 0 0 0 0 0 0 0 0 0 0 0 0 0 0 0 0 0 0 0 0 0 0 0 0 0 0 0 0 0 0 0 0 0 0 0 0 0 0 0 0 0 0 0 0 0 0 0 0 0 0 0 0 0 0 0 0 0 0 0 0 0 0 0 0 0 0 0 0 0 0 0 0 0 0 0 
0 0 0 0 0 0 0 0 0 0 0 0 0 0 0 0 0 0 0 0 0 0 0 0 0 0 0 0 0 0 0 0 0 0 0 0 0 0 0 0 0 0 0 0 0 0 0 0 0 0 0 0 0 0 0 0 0 0 0 0 0 0 0 0 0 0.53532868623733520508 -0.00020256268908269703388 -0.0020548766478896141052 -0.0003949918027501553297 -0.00036412384361028671265 -0.00057374354219064116478 0 0.027548268437385559082 0.011272881180047988892 0.011499601416289806366 0.012689214199781417847 0.0067151817493140697479 0.034210100769996643066 0.037141840904951095581 0.006113561335951089859 0.010284683667123317719 0.010055104270577430725 0.021881416440010070801 0.0041935527697205543518 0 0 0 0 0 0 0 0 0 -0.00028476217994466423988 -0.00024656939785927534103 0 0 -0.040387611836194992065 -0.017819117754697799683 -0.0054585123434662818909 -0.0044704815372824668884 -0.0013225465081632137299 -0.0015725503908470273018 0.64802861213684082031 0.64802861213684082031 0 0 0 0 -0.00013504657545126974583 -0.00039824756095185875893 -0.00069613783853128552437 -0.00093938072677701711655 -0.00035314823617227375507 0.20485727488994598389 0 0 0 0 0 -6.8240355176385492086e-05 -5.9258021792629733682e-05 -4.3716288928408175707e-05 -8.5772553575225174427e-05 -8.1719554145820438862e-05 0 0 0 0 0 -0.00016487204993609338999 -0.00012501420860644429922 -0.00023098511155694723129 -0.00080620846711099147797 -0.00010647194721968844533 -0.0025298646651208400726 -0.0009527151123620569706 -0.0018656377214938402176 0.0085566993802785873413 0.03042042069137096405 0.024522248655557632446 0.023806270211935043335 0.02785840258002281189 0.0051597491838037967682 0.061244126409292221069 -0.0060120886191725730896 -0.002515262458473443985 -0.0011759579647332429886 -0.00085116084665060043335 0.0078746890649199485779 0.018832312896847724915 0.0089771989732980728149 0.0081689292564988136292 0.003660109126940369606 0.0060224109329283237457 0.0083281500265002250671 0.0092886975035071372986 0.011729293502867221832 0.0077851032838225364685 0.005801549181342124939 0.022901915013790130615 0.0078711342066526412964 0.0030437761452049016953 0.0079803671687841415405 0.0032368467655032873154 0.0042309565469622612 0.0063300854526460170746 0.018385814502835273743 0.007861528545618057251 0.010779890231788158417 0.012189375236630439758 -0.015777559950947761536 -0.011658213101327419281 1.0995135307312011719 0 0 0 0 0 0 0 0 0 0 0 0 0 0 0 0 0 0 0 0 0 0 0 0 0 0 0 0 0 0 0 0 0 0 0 0 0 0 0 0 0 0 0 0 0 0 0 0 0 0 0 0 0 0 0 0 0 0 0 0 0 0 0 0 0 0 0 0 0 0 0 0 0 0 0 0 0 0 0 0 0 0 0 0 0 0 0 0 0 0 0 0 0 0 0 0 0 0 0 0 0 0 0 0 0 0 0 0 0 0 0 0 0 0 0 0 
0 0 0 0 0 0 0 0 0 0 0 0 0 0 0 0 0 0 0 0 0 0 0 0 0 0 0 0 0 0 0 0 0 0 0 0 0 0 0 0 0 0 0 0 0 0 0 0 0 0 0 0 0 0 0 0 0 0 0 0 0 0 0 0 0 0 -0.00020256268908269703388 -0.00046649761497974395752 -0.00033224682556465268135 -0.0020357470493763685226 -0.0014762525679543614388 -0.00034480879548937082291 0 0.011272881180047988892 0.011499601416289806366 0.0070446589961647987366 0.0032828021794557571411 0.0036106565967202186584 0.03513602912425994873 0.003787778317928314209 0.0053153489716351032257 0.010055104270577430725 0.057858288288116455078 0.0039280685596168041229 0.010759987868368625641 0.039597671478986740112 0.010431556962430477142 0 0 0 0 0 0 0.55280983448028564453 0 0 0 -0.019275767728686332703 -0.0071529042907059192657 -0.006026473361998796463 -0.0017427167622372508049 -0.00086452980758622288704 -0.00093062495579943060875 -0.00055214966414496302605 0 0 0 0 -8.5675652371719479561e-05 -0.00012708049325738102198 -0.00087302451720461249352 -0.0003550049150362610817 -0.00022095028543844819069 -0.00016426075308118015528 0 0 0 0 0 0 0 0 0 0.11149236559867858887 -4.1071394662139937282e-05 0 0 0 0 0 0 -6.5095911850221455097e-05 -0.00021669261332135647535 -0.00022727236500941216946 -0.00018150187679566442966 -0.0015253500314429402351 -0.0035880173090845346451 -0.0015425067394971847534 -0.0014672343386337161064 0.047080323100090026855 0.065051719546318054199 0.010917528532445430756 0.018002660945057868958 -0.00062869046814739704132 -0.00050469528650864958763 0.059215102344751358032 -0.0036130622029304504395 0.0056645059958100318909 0.0044001452624797821045 0.021295558661222457886 0.016367312520742416382 0.0084224510937929153442 -0.0023546749725937843323 -0.001078957458958029747 0.011233703233301639557 0.0053455652669072151184 0.008261485956609249115 0.0058824457228183746338 0.01255235821008682251 0.011473793536424636841 0.0068133953027427196503 0.0055285794660449028015 0.0041635874658823013306 -0.00016884594515431672335 0.0032368467655032873154 -0.00044428819091990590096 -0.00063533289358019828796 -0.00023606953618582338095 0.0075352401472628116608 0.01599572598934173584 -0.0054283062927424907684 -0.015777559950947761536 -0.0032243104651570320129 -0.0018869582563638687134 0 0 0 0 0 0 0 0 0 0 0 0 0 0 0 0 0 0 0 0 0 0 0 0 0 0 0 0 0 0 0 0 0 0 0 0 0 0 0 0 0 0 0 0 0 0 0 0 0 0 0 0 0 0 0 0 0 0 0 0 0 0 0 0 0 0 0 0 0 0 0 0 0 0 0 0 0 0 0 0 0 0 0 0 0 0 0 0 0 0 0 0 0 0 0 0 0 0 0 0 0 0 0 0 0 0 0 0 0 0 0 0 0 0 0 0 
0 0 0 0 0 0 0 0 0 0 0 0 0 0 0 0 0 0 0 0 0 0 0 0 0 0 0 0 0 0 0 0 0 0 0 0 0 0 0 0 0 0 0 0 0 0 0 0 0 0 0 0 0 0 0 0 0 0 0 0 0 0 0 0 0 -0.00064966909121721982956 -0.001334247528575360775 -0.00046649761497974395752 -0.00033224682556465268135 -0.0011195276165381073952 0.033563230186700820923 -0.00039567833300679922104 -0.00042433419730514287949 0.010817414149641990662 0 0.0070446589961647987366 0.0043074493296444416046 0.0035279204603284597397 0.0027347463183104991913 0.0041404049843549728394 0.0065403813496232032776 0.064905785024166107178 0.057858288288116455078 0.0039280685596168041229 0.0097457133233547210693 0.031703107059001922607 -0.00010742544691311195493 -0.00012197688192827627063 -0.0016527591506019234657 0 0 0 0 0 0 0 0.17003057897090911865 -0.019275767728686332703 -0.0017546225572004914284 -0.00012687848357018083334 -0.00025086270761676132679 -0.00014543968427460640669 -0.00082710327114909887314 0 0 0 0 0 -0.00015172603889368474483 -0.00018325197743251919746 -0.00020308163948357105255 -0.00027545247576199471951 -0.0003550049150362610817 0 0 0 0 0 0 0 0 0 0 0 0.11149236559867858887 0.11149236559867858887 0 0 0 0 0 0 -8.1961785326711833477e-05 -0.00022727236500941216946 -0.00095911213429644703865 -0.0016197869554162025452 -0.0087032904848456382751 -0.0053876033052802085876 -0.0057675768621265888214 0.022968690842390060425 0.065051719546318054199 -0.00078098347876220941544 -0.00088758987840265035629 -0.0027661907952278852463 -0.0030085903126746416092 -0.0048398035578429698944 -0.0079204244539141654968 0.0041782981716096401215 0.002853777492418885231 0.0051496708765625953674 0.0085778282955288887024 0.015474257059395313263 -0.0023546749725937843323 -0.0020737815648317337036 0.0047940751537680625916 0.0044144070707261562347 0.0093534160405397415161 0.0089122941717505455017 0.023147974163293838501 0.011473793536424636841 0.022366471588611602783 0.003055090317502617836 -0.00010266213939758017659 -0.00015206444368232041597 -0.00022756023099645972252 -0.00044428819091990590096 -0.00063533289358019828796 -0.00036013909266330301762 -0.00072589702904224395752 -0.0015792071353644132614 -0.0026060559321194887161 -0.0058847819454967975616 -0.0032243104651570320129 0 0 0 0 0 0 0 0 0 0 0 0 0 0 0 0 0 0 0 0 0 0 0 0 0 0 0 0 0 0 0 0 0 0 0 0 0 0 0 0 0 0 0 0 0 0 0 0 0 0 0 0 0 0 0 0 0 0 0 0 0 0 0 0 0 0 0 0 0 0 0 0 0 0 0 0 0 0 0 0 0 0 0 0 0 0 0 0 0 0 0 0 0 0 0 0 0 0 0 0 0 0 0 0 0 0 0 0 0 0 0 0 0 0 0 0 0 
0 0 0 0 0 0 0 0 0 0 0 0 0 0 0 0 0 0 0 0 0 0 0 0 0 0 0 0 0 0 0 0 0 0 0 0 0 0 0 0 0 0 0 0 0 0 0 0 0 0 0 0 0 0 0 0 0 0 0 0 0 0 0 0 -0.0012085586786270141602 -0.00050075439503416419029 -0.00054472521878778934479 -0.0004696716496255248785 -0.0008160442812368273735 -0.0011195276165381073952 0.029422890394926071167 0.051040932536125183105 0.0063095344230532646179 0.0087571917101740837097 0.021719213575124740601 0.0046139801852405071259 0.0043074493296444416046 0.0035279204603284597397 0.0075455275364220142365 0.036302044987678527832 0.0069529325701296329498 0.078628070652484893799 0.094354838132858276367 0.015122995711863040924 0.0097457133233547210693 0.13197335600852966309 0.060645695775747299194 -0.00044337243889458477497 -0.00043261001701466739178 0 0 0 0 0 0 -0.0001222272985614836216 -0.00014574531815014779568 -0 -0.0017546225572004914284 -0.00015087831707205623388 -0.00058774789795279502869 -0.00020588407642208039761 0 0 0 0 0 0 0 0 0 0 0 0 0 0 0 0 0 0 0 0 0 0 0 0 0 0 0 0 0 0 0.1443754732608795166 -0.00012335623614490032196 -0.00076571782119572162628 -0.0002246399089926853776 -0.00031534620211459696293 -0.0019631418399512767792 -0.00062380771851167082787 -0.00068104424281045794487 0.0093294456601142883301 0.0070343329571187496185 -0.0065012285485863685608 -0.00055793829960748553276 -0.0005809266003780066967 -0.0010182245168834924698 -0.0010946186957880854607 -0.0013321418082341551781 0.0041782981716096401215 0.004716571420431137085 0.0079024154692888259888 -0.0019835364073514938354 -0.0019411271205171942711 -0.0063925227150321006775 -0.0028188838623464107513 0.018313568085432052612 -0.0013189391465857625008 0.042444810271263122559 0.098935484886169433594 0.033881559967994689941 0.022366471588611602783 0.003384929383173584938 0.0033634623978286981583 -0.00013578697689808905125 -0.00027048145420849323273 -0.00040591816650703549385 -0.00054961029672995209694 -0.00036013909266330301762 -0.00041839689947664737701 -0.00032583103165961802006 -0.0042116562835872173309 -0.0017672571120783686638 0 0 0 0 0 0 0 0 0 0 0 0 0 0 0 0 0 0 0 0 0 0 0 0 0 0 0 0 0 0 0 0 0 0 0 0 0 0 0 0 0 0 0 0 0 0 0 0 0 0 0 0 0 0 0 0 0 0 0 0 0 0 0 0 0 0 0 0 0 0 0 0 0 0 0 0 0 0 0 0 0 0 0 0 0 0 0 0 0 0 0 0 0 0 0 0 0 0 0 0 0 0 0 0 0 0 0 0 0 0 0 0 0 0 0 0 0 0 
0 0 0 0 0 0 0 0 0 0 0 0 0 0 0 0 0 0 0 0 0 0 0 0 0 0 0 0 0 0 0 0 0 0 0 0 0 0 0 0 0 0 0 0 0 0 0 0 0 0 0 0 0 0 0 0 0 0 0 0 0 0 0 0 -0.0014215369010344147682 -0.0013107726117596030235 -0.0020064786076545715332 -0.0010908182011917233467 -0.00045745895477011799812 0.017045503482222557068 0.029422890394926071167 0.051040932536125183105 0.039530698210000991821 0.021563874557614326477 0.0047448296099901199341 0.0066230916418135166168 0.0076648793183267116547 0.0082842661067843437195 0.0075455275364220142365 0.039974104613065719604 0.0032896008342504501343 0.0040056463330984115601 0.0095550529658794403076 0.018659334629774093628 0.025748014450073242188 0.13197335600852966309 0 -0.00034611154114827513695 -0.00096021732315421104431 0 0 0 0 0 -0 -0.00010947033297270536423 -0.0001892516302177682519 -0.00025097801699303090572 -0.0002215640852227807045 -0.00043962491326965391636 -0.00058774789795279502869 -0.00031506782397627830505 0 0 0 0 0 0 0 0 0 0 0 0 0 0 0 0 0 0 0 0 0 0 0 0 0 0 0 0 0 0 0 -0.00010927384573733434081 -8.9653462055139243603e-05 -0.00026721542235463857651 0.53314048051834106445 -0.00028149323770776391029 -0.00032069743610918521881 0.0046163657680153846741 0.0078242942690849304199 -0.00057367852423340082169 -0.0054164957255125045776 -0.0013188750017434358597 -0.0019259990658611059189 -0.0011745493393391370773 -0.0013770002406090497971 -0.0013346544001251459122 0.0030291404109448194504 0.0029162545688450336456 -0.0035425745882093906403 -0.0047500301152467727661 -0.0018523698672652244568 -0.00066880125086754560471 -0.001524144783616065979 0.018313568085432052612 -0.0016675586812198162079 -0.0050882939249277114868 -0.0014216377167031168938 0.019770016893744468689 0.011063353158533573151 0.0035315549466758966446 0.0033634623978286981583 -0.00034601549850776791573 -0.00053811736870557069778 -0.00045526397298090159893 -0.00025474751600995659828 -0.0013762506423518061638 -0.00041839689947664737701 -0.0023387875407934188843 -0.0036184110213071107864 -0.011878524906933307648 0 0 0 0 0 0 0 0 0 0 0 0 0 0 0 0 0 0 0 0 0 0 0 0 0 0 0 0 0 0 0 0 0 0 0 0 0 0 0 0 0 0 0 0 0 0 0 0 0 0 0 0 0 0 0 0 0 0 0 0 0 0 0 0 0 0 0 0 0 0 0 0 0 0 0 0 0 0 0 0 0 0 0 0 0 0 0 0 0 0 0 0 0 0 0 0 0 0 0 0 0 0 0 0 0 0 0 0 0 0 0 0 0 0 0 0 0 0 
0 0 0 0 0 0 0 0 0 0 0 0 0 0 0 0 0 0 0 0 0 0 0 0 0 0 0 0 0 0 0 0 0 0 0 0 0 0 0 0 0 0 0 0 0 0 0 0 0 0 0 0 0 0 0 0 0 0 0 0 0 0 0 0 -0.0014215369010344147682 0 -0.001076442888006567955 -0.0014246625360101461411 -0.00050383200868964195251 -0.00041657383553683757782 0.09063294529914855957 0.12399896979331970215 0.039530698210000991821 0.028041576966643333435 0.057852707803249359131 0.046671193093061447144 0.031603261828422546387 0.0029481975361704826355 0.0058664851821959018707 0.039974104613065719604 0.0049255862832069396973 0.0094429524615406990051 0.027636289596557617188 0.0097101870924234390259 0.013159098103642463684 0 0 -0.00034611154114827513695 -0.00065598869696259498596 -0.00069687759969383478165 -0.00019477966998238116503 -7.1599795774091035128e-05 0 0 -0 -0.00019589316798374056816 -0.00020266804494895040989 -0.00015618567704223096371 -0.00026807471294887363911 -0.00076327566057443618774 -0.00040539598558098077774 -0.00031506782397627830505 -0.00019505088857840746641 0 0 0 0 0 0 0 0 0 0 0 0 0 0 0 0 0 0 0 0 0 0 0 0 0 0 0 0 0 0 0 0.1443754732608795166 0.1443754732608795166 0.1443754732608795166 0.53314048051834106445 -0.00064061611192300915718 -0.00084600097034126520157 -0.00055252644233405590057 -0.00056347390636801719666 -0.0051693879067897796631 -0.0021131185349076986313 -0.0013188750017434358597 1.1989994049072265625 0 0 0 0 1.1392502784729003906 0 -0.0029449888970702886581 -0.00068870920222252607346 -0.00036416883813217282295 -0.0010813690023496747017 -0.0016675586812198162079 -0.0028191155288368463516 -0.0035113941412419080734 0.022823480889201164246 0.015315557830035686493 0.02991545945405960083 0.021101407706737518311 -0.00034601549850776791573 -0.00053672859212383627892 -0.00034500149195082485676 -0.00021784476120956242085 -0.0018293100874871015549 -0.00086882681353017687798 -0.0023387875407934188843 -0.0036184110213071107864 -0.0049877073615789413452 -0.0039135031402111053467 0 0 0 0 0 0 0 0 0 0 0 0 0 0 0 0 0 0 0 0 0 0 0 0 0 0 0 0 0 0 0 0 0 0 0 0 0 0 0 0 0 0 0 0 0 0 0 0 0 0 0 0 0 0 0 0 0 0 0 0 0 0 0 0 0 0 0 0 0 0 0 0 0 0 0 0 0 0 0 0 0 0 0 0 0 0 0 0 0 0 0 0 0 0 0 0 0 0 0 0 0 0 0 0 0 0 0 0 0 0 0 0 0 0 0 0 0 
0 0 0 0 0 0 0 0 0 0 0 0 0 0 0 0 0 0 0 0 0 0 0 0 0 0 0 0 0 0 0 0 0 0 0 0 0 0 0 0 0 0 0 0 0 0 0 0 0 0 0 0 0 0 0 0 0 0 0 0 0 0 0 0 0 0 -0.001076442888006567955 -0.0011681548785418272018 -0.0016775965923443436623 0.025746110826730728149 0.064901635050773620605 0.019937504082918167114 0.018768165260553359985 0.028041576966643333435 0 0.024267612025141716003 0.021934971213340759277 0.01706477627158164978 0.0033599836751818656921 0.0036173004191368818283 0.0049255862832069396973 0.0094429524615406990051 0.012675574980676174164 0.0078399674966931343079 0 0 0 -0.00043157240725122392178 -0.00065598869696259498596 0 -0.00029148501926101744175 -0.00013981733354739844799 -0.00016897273599170148373 -0.00019526419055182486773 -0.00027388654416427016258 -0.00019589316798374056816 -0.00020266804494895040989 -0.00021209500846453011036 -0.00015740912931505590677 -0.00041227432666346430779 -0.00040224395343102514744 -0.00030853145290166139603 -0.00016724616580177098513 0 -0.00014707991795148700476 0 0 0 0 0 0 0 0 0 0 0 0 0 0 0 0 0 0 0 0 0 0 0 0 0 0 0 0 0 0 0 0 0 -0.00031596812186762690544 -0.00025717425160109996796 -0.0011783858062699437141 -0.00087149278260767459869 -0.00041200945270247757435 -0.00028615171322599053383 -0.00053870538249611854553 -0.0016196860233321785927 0 0 0 0 0 0 -0.0026830898132175207138 -0.00042340994696132838726 -0.0023915900383144617081 -0.0036124642938375473022 -0.0048272060230374336243 -0.007146294228732585907 -0.0035113941412419080734 -0.00076903396984562277794 -0.0013997150817885994911 -0.00066030188463628292084 -0.00026762540801428258419 -0.00015860583516769111156 -0.00053672859212383627892 -0.00045503283035941421986 -0.00031078580650500953197 -0.00057770020794123411179 -0.0075224111787974834442 -0.034323003143072128296 -0.023238105699419975281 -0.0049877073615789413452 -0.0032389506231993436813 0 0 0 0 0 0 0 0 0 0 0 0 0 0 0 0 0 0 0 0 0 0 0 0 0 0 0 0 0 0 0 0 0 0 0 0 0 0 0 0 0 0 0 0 0 0 0 0 0 0 0 0 0 0 0 0 0 0 0 0 0 0 0 0 0 0 0 0 0 0 0 0 0 0 0 0 0 0 0 0 0 0 0 0 0 0 0 0 0 0 0 0 0 0 0 0 0 0 0 0 0 0 0 0 0 0 0 0 0 0 0 0 0 0 0 0 0 
0 0 0 0 0 0 0 0 0 0 0 0 0 0 0 0 0 0 0 0 0 0 0 0 0 0 0 0 0 0 0 0 0 0 0 0 0 0 0 0 0 0 0 0 0 0 0 0 0 0 0 0 0 0 0 0 0 0 0 0 0 0 0 0 0 0 0 -0.0011681548785418272018 0.023009020835161209106 0.10583484172821044922 0.05607326701283454895 0.043714765459299087524 0.020852366462349891663 0.022521441802382469177 0 0.024267612025141716003 0.028383374214172363281 0.013176223263144493103 0.0066656237468123435974 0.0027702574152499437332 0.0026579692494124174118 0.004141450393944978714 0.012675574980676174164 0.0095695983618497848511 0 0 0 0 0 0 -0.00029148501926101744175 0 0 -0.0001093674873118288815 0 0 0 -0.00021209500846453011036 0.17003057897090911865 0.16941921412944793701 0.16941921412944793701 -0.00022385545889846980572 -0.00029926607385277748108 -0.00024234291049651801586 -0.00014707991795148700476 0 0 0 0 0 0 0 0 0 0 0 0 0 0 0 0 0 0 0 0 0 0 0 0 0 0 0 0 0 0 0 0 0 -0.00024531738017685711384 -0.00044664985034614801407 -0.00019808724755421280861 -0.00042366085108369588852 0 0 0 0 0 0 0 0 0 -0.0045548714697360992432 -0.0026830898132175207138 -0.003273465670645236969 -0.00048593454994261264801 -0.0010018369648605585098 -0.0029901331290602684021 -0.0028954001609236001968 -0.0014279946917667984962 -0.00076903396984562277794 -0.00012275991321075707674 -0.00016587536083534359932 -0.00026794639416038990021 -0.00019643059931695461273 -0.00026711035752668976784 -0.00045503283035941421986 -0.00031078580650500953197 -0.001504290848970413208 -0.0038156609516590833664 -0.033206406980752944946 -0.024554785341024398804 -0.0039186109788715839386 -0.0032389506231993436813 0 0 -0.00014101318083703517914 0.34998264908790588379 0 0 0 0 0 0 0 0 0 0 0 0 0 0 0 0 0 0 0 0 0 0 0 0 0 0 0 0 0 0 0 0 0 0 0 0 0 0 0 0 0 0 0 0 0 0 0 0 0 0 0 0 0 0 0 0 0 0 0 0 0 0 0 0 0 0 0 0 0 0 0 0 0 0 0 0 0 0 0 0 0 0 0 0 0 0 0 0 0 0 0 0 0 0 0 0 0 0 0 0 0 0 0 0 0 0 0 0 0 0 0 0 0 
0 0 0 0 0 0 0 0 0 0 0 0 0 0 0 0 0 0 0 0 0 0 0 0 0 0 0 0 0 0 0 0 0 0 0 0 0 0 0 0 0 0 0 0 0 0 0 0 0 0 0 0 0 0 0 0 0 0 0 0 0 0 0 0 0 0 0 0 0.023009020835161209106 0.10583484172821044922 0.043271705508232116699 0 0 0 0 0.028888667002320289612 0.028383374214172363281 0 0.0054700253531336784363 0.0061744400300085544586 0.0073267486877739429474 0.025347756221890449524 0.0090518407523632049561 0.0095695983618497848511 0 0 -8.545447781216353178e-05 -0.00010073278099298477173 0 0 0 0 0 0 0 0 0 0 0.17003057897090911865 0.17003057897090911865 0 -0.00018611559062264859676 -0.00015951348177623003721 -0.00061750266468152403831 0.16941921412944793701 0 0 0 0 0 0 0 0 0 0 0 0 0 0 0 0 0 0 0 0 0 0 0 0 0 0 0 0 0 0 0 0 0 0 0 -0.00019808724755421280861 -0.00043206501868553459644 0 0 0 0 0 0 0 0 0 0 -0.0056360154412686824799 -0.0073036304675042629242 -0.00048593454994261264801 0.36774009466171264648 -0.00038295512786135077477 -0.0017382284859195351601 -0.00070730608422309160233 -0.00038452999433502554893 -0.00012275991321075707674 -0.00016587536083534359932 -0.00037640632945112884045 -0.00023084848362486809492 -0.0028985757380723953247 -0.0005540299462154507637 -0.0016543280798941850662 -0.001504290848970413208 -0.025094095617532730103 -0.024047525599598884583 -0.026004008948802947998 -0.0015520271845161914825 -0.00027214176952838897705 0 0 -0.00020710019452963024378 0 0 0 0 0 0 0 0 0 0 0 0 0 0 0 0 0 0 0 0 0 0 0 0 0 0 0 0 0 0 0 0 0 0 0 0 0 0 0 0 0 0 0 0 0 0 0 0 0 0 0 0 0 0 0 0 0 0 0 0 0 0 0 0 0 0 0 0 0 0 0 0 0 0 0 0 0 0 0 0 0 0 0 0 0 0 0 0 0 0 0 0 0 0 0 0 0 0 0 0 0 0 0 0 0 0 0 0 0 0 0 0 0 0 
0 0 0 0 0 0 0 0 0 0 0 0 0 0 0 0 0 0 0 0 0 0 0 0 0 0 0 0 0 0 0 0 0 0 0 0 0 0 0 0 0 0 0 0 0 0 0 0 0 0 0 0 0 0 0 0 0 0 0 0 0 0 0 0 0 0 0 0 0 0.094394207000732421875 0.043271705508232116699 0 0 0 0 0 0 0 0.0054700253531336784363 0.0068822135217487812042 0.0049233711324632167816 0.0071628009900450706482 0 0.018943730741739273071 0 0 -3.0031371352379210293e-05 -5.9876783780055120587e-05 -0.00029253543470986187458 0 0 0 0 0 -8.4990118921268731356e-05 -7.709774217801168561e-05 0 0 0 0 0 0 0 0 0 0 0 0 0 0 0 0 0 0 0 0 0 0 0 0 0 0 0 0 0 0 0 0 0 0 0 0 0 0 0 0 0 0 0 0 0 0 0 0 0 0 0 0 0 0 0 0 0 0 0.36774009466171264648 0.36774009466171264648 -0.00044312392128631472588 -0.00041336897993460297585 -0.0024279505014419555664 -0.00039483091677539050579 -0.00025713990908116102219 -0.00024818576639518141747 -0.00037640632945112884045 -0.0010510227875784039497 -0.0016001127660274505615 -0.0042482796125113964081 -0.0012412611395120620728 -0.0012850093189626932144 -0.025094095617532730103 -0.00028162688249722123146 -0.0016668020980432629585 -0.0012256895424798130989 -0.0036129725631326436996 -0.00069306802470237016678 -0.00032666409970261156559 -0.00020710019452963024378 0 0 0 0 0 0 0 0 0 0 0 0 0 0 0 0 0 0 0 0 0 0 0 0 0 0 0 0 0 0 0 0 0 0 0 0 0 0 0 0 0 0 0 0 0 0 0 0 0 0 0 0 0 0 0 0 0 0 0 0 0 0 0 0 0 0 0 0 0 0 0 0 0 0 0 0 0 0 0 0 0 0 0 0 0 0 0 0 0 0 0 0 0 0 0 0 0 0 0 0 0 0 0 0 0 0 0 0 0 0 0 0 0 0 
0 0 0 0 0 0 0 0 0 0 0 0 0 0 0 0 0 0 0 0 0 0 0 0 0 0 0 0 0 0 0 0 0 0 0 0 0 0 0 0 0 0 0 0 0 0 0 0 0 0 0 0 0 0 0 0 0 0 0 0 0 0 0 0 0 0 0 0 0 0 0 0 0 0 0 0 0 0 0 0.0068822135217487812042 0 0 0 0 0 0 -3.0031371352379210293e-05 -5.9876783780055120587e-05 -0.00044076325139030814171 -0.00015145019278861582279 0 0 0 0 -8.4990118921268731356e-05 -8.164523751474916935e-05 0.07220719754695892334 0 0 0 0 0 0 0 0 0 0 0 0 0 0 0 0 0 0 0 0 0 0 0 0 0 0 0 0 0 0 0 0 0 0 0 0 0 0 0 0 0 0 0 0 0 0 0 0 0 0 0 0 0 0 0 0 0 0 0 -0.00044312392128631472588 -0.00041336897993460297585 0 0 0.2087627798318862915 -0.00019303754379507154226 -0.00051204441115260124207 -0.0010510227875784039497 0.54157966375350952148 -0.0016982097877189517021 -0.0034053327981382608414 -0.006580763496458530426 -0.00063556747045367956161 -0.00028162688249722123146 -0.0016668020980432629585 -0.00063898839289322495461 -0.00050723273307085037231 -0.0017439350485801696777 0 0 0 0 0 0 0 0 0 0 0 0 0 0 0 0 0 0 0 0 0 0 0 0 0 0 0 0 0 0 0 0 0 0 0 0 0 0 0 0 0 0 0 0 0 0 0 0 0 0 0 0 0 0 0 0 0 0 0 0 0 0 0 0 0 0 0 0 0 0 0 0 0 0 0 0 0 0 0 0 0 0 0 0 0 0 0 0 0 0 0 0 0 0 0 0 0 0 0 0 0 0 0 0 0 0 0 0 0 0 0 0 0 0 0 0 
0 0 0 0 0 0 0 0 0 0 0 0 0 0 0 0 0 0 0 0 0 0 0 0 0 0 0 0 0 0 0 0 0 0 0 0 0 0 0 0 0 0 0 0 0 0 0 0 0 0 0 0 0 0 0 0 0 0 0 0 0 0 0 0 0 0 0.047903679311275482178 -7.6247910328675061464e-05 -4.2319326894357800484e-05 -0.0001477304467698559165 0.047903679311275482178 0 0 0 0 0 0 0 0 0 0 0 0 0 0 0 -4.4936165068065747619e-05 -5.4911815823288634419e-05 -0.00044076325139030814171 -5.6599430536152794957e-05 -6.7519998992793262005e-05 -5.2163733926136046648e-05 -5.9455196605995297432e-05 -7.5301009928807616234e-05 -5.8218920457875356078e-05 -8.164523751474916935e-05 0.07220719754695892334 0 0 0 0 0 0 0 0 0 0 0 0 0 0 0 0 0 0 0 0 0 0 0 0 0 0 0 0 0 0 0 0 0 0 0 0 0 0 0 0 0 0 0 0 0 0 0 0 0 0 0 0 0 0 0 0 0 0 0 0 0 0 0 0 0 0 0 0.54157966375350952148 -0.0035364294890314340591 -0.0022213282063603401184 -0.00097219331655651330948 -0.00073245126986876130104 -0.00037897771107964217663 -0.0013766566989943385124 -0.00063898839289322495461 -0.00032554141944274306297 0.34998264908790588379 0 0 0 0 0 0 0 0 0 0 0 0 0 0 0 0 0 0 0 0 0 0 0 0 0 0 0 0 0 0 0 0 0 0 0 0 0 0 0 0 0 0 0 0 0 0 0 0 0 0 0 0 0 0 0 0 0 0 0 0 0 0 0 0 0 0 0 0 0 0 0 0 0 0 0 0 0 0 0 0 0 0 0 0 0 0 0 0 0 0 0 0 0 0 0 0 0 0 0 0 0 0 0 0 0 0 0 0 0 0 0 0 0 0 0 0 
0 0 0 0 0 0 0 0 0 0 0 0 0 0 0 0 0 0 0 0 0 0 0 0 0 0 0 0 0 0 0 0 0 0 0 0 0 0 0 0 0 0 0 0 0 0 0 0 0 0 0 0 0 0 0 0 0 0 0 0 0 0 0 0 0 0 0.047903679311275482178 -7.6247910328675061464e-05 -4.9459926231065765023e-05 -3.6419896787265315652e-05 -2.006193790293764323e-05 -3.7233709008432924747e-05 -2.6357731258030980825e-05 0 0 0 0 0 0 0 0 0 0 -0.00013149080041330307722 -0.00017774805019143968821 -0.00011101996642537415028 -4.233603249303996563e-05 -0.00014522673154715448618 -3.274366827099584043e-05 -5.6599430536152794957e-05 -6.7519998992793262005e-05 -4.0236835047835484147e-05 -5.8898891438730061054e-05 -3.0300749131129123271e-05 -2.9422242732835002244e-05 -4.1795086872298270464e-05 0.07220719754695892334 0 0 0 0 0 0 0 0 0 0 0 0 0 0 0 0 0 0 0 0 0 0 0 0 0 0 0 0 0 0 0 0 0 0 0 0 0 0 0 0 0 0 0 0 0 0 0 0 0 0 0 0 0 0 0 0 0 0 0 0 0 0 0 0 0 0 0 -0.0020947565790265798569 -0.0035364294890314340591 -0.0022213282063603401184 -0.0019126912811771035194 -0.0004107010900042951107 -0.00091427291044965386391 -0.00055595539743080735207 -0.00054580520372837781906 -0.00032554141944274306297 0 0 0 0 0 0 0 0 0 0 0 0 0 0 0 0 0 0 0 0 0 0 0 0 0 0 0 0 0 0 0 0 0 0 0 0 0 0 0 0 0 0 0 0 0 0 0 0 0 0 0 0 0 0 0 0 0 0 0 0 0 0 0 0 0 0 0 0 0 0 0 0 0 0 0 0 0 0 0 0 0 0 0 0 0 0 0 0 0 0 0 0 0 0 0 0 0 0 0 0 0 0 0 0 0 0 0 0 0 0 0 0 0 0 0 0 0 
0 0 0 0 0 0 0 0 0 0 0 0 0 0 0 0 0 0 0 0 0 0 0 0 0 0 0 0 0 0 0 0 0 0 0 0 0 0 0 0 0 0 0 0 0 0 0 0 0 0 0 0 0 0 0 0 0 0 0 0 0 0 0 0 -6.9901136157568544149e-05 -5.6625518482178449631e-05 -0.00011428162542870268226 -0.00010641702829161658883 -4.9459926231065765023e-05 -2.6167655960307456553e-05 -1.4497772099275607616e-05 -1.7753767679096199572e-05 -1.9052988136536441743e-05 -6.7972927354276180267e-05 -0.00014326600648928433657 0 0 -0.00021425320301204919815 -0.00043268504668958485126 -0.0011936632217839360237 -0.001276571652851998806 0 0 -0.00013149080041330307722 -0.00017774805019143968821 -0.00014218792784959077835 -0.00013466877862811088562 -0.0002797227643895894289 -5.326994505594484508e-05 -9.5118608442135155201e-05 -6.6175169195048511028e-05 -4.0236835047835484147e-05 -3.8898691855138167739e-05 -7.0869697083253413439e-05 -2.5547462428221479058e-05 -3.1896368454908952117e-05 0 0 0 0 0 0 0 0 0 0 0 0 0 0 0 0 0 0 0 0 0 0 0 0 0 0 0 0 0 0 0 0 0 0 0 0 0 0 0 0 0 0 0 0 0 0 0 0 0 0 0 0 0 0 0 0 0 0 0 0 0 0 0 0 0 0 0 -0.0015859858831390738487 -0.00047717295819893479347 -0.0089485878124833106995 -0.0072423927485942840576 -0.0019126912811771035194 -0.0010519124334678053856 -0.0021493595559149980545 -0.0019287868635728955269 0 0 0 0 0 0 0 0 0 0 0 0 0 0 0 0 0 0 0 0 0 0 0 0 0 0 0 0 0 0 0 0 0 0 0 0 0 0 0 0 0 0 0 0 0 0 0 0 0 0 0 0 0 0 0 0 0 0 0 0 0 0 0 0 0 0 0 0 0 0 0 0 0 0 0 0 0 0 0 0 0 0 0 0 0 0 0 0 0 0 0 0 0 0 0 0 0 0 0 0 0 0 0 0 0 0 0 0 0 0 0 0 0 0 0 0 0 0 0 
0 0 0 0 0 0 0 0 0 0 0 0 0 0 0 0 0 0 0 0 0 0 0 0 0 0 0 0 0 0 0 0 0 0 0 0 0 0 0 0 0 0 0 0 0 0 0 0 0 0 0 0 0 0 0 0 0 0 0 0 0 0 0 -5.2346265874803066254e-05 -0.00010498531628400087357 -2.4312452296726405621e-05 -6.6438369685783982277e-05 -8.7246407929342240095e-05 -2.48024025495396927e-05 -2.6167655960307456553e-05 -1.4497772099275607616e-05 -1.5546947906841523945e-05 -2.5028215532074682415e-05 -2.1396546799223870039e-05 -9.9242715805303305387e-05 -0.00010885704978136345744 -7.2483999247197061777e-05 -0.00021425320301204919815 -0.00018127486691810190678 -0.00030611699912697076797 -0.00031069086981005966663 -0.0021287223789840936661 -0.0020509280730038881302 -0.00016361521556973457336 -0.00018987894873134791851 -0.00014218792784959077835 -0.00051808351418003439903 -4.049040217068977654e-05 -3.4891698305727913976e-05 -8.1752485129982233047e-05 -7.0911009970586746931e-05 -2.4602957637398503721e-05 -3.8898691855138167739e-05 -5.4534189985133707523e-05 0.07220719754695892334 0 0 0 0 0 0 0 0 0 0 0 0 0 0 0 0 0 0 0 0 0 0 0 0 0 0 0 0 0 0 0 0 0 0 0 0 0 0 0 0 0 0 0 0 0 0 0 0 0 0 0 0 0 0 0 0 0 0 0 0 0 0 0 0 0 0 0 0 0 -0.0017465207492932677269 -0.0017593689262866973877 -0.0057011735625565052032 -0.0036432233173400163651 -0.0010519124334678053856 -0.0010905016679316759109 -0.0035140484105795621872 0 0 0 0 0 0 0 0 0 0 0 0 0 0 0 0 0 0 0 0 0 0 0 0 0 0 0 0 0 0 0 0 0 0 0 0 0 0 0 0 0 0 0 0 0 0 0 0 0 0 0 0 0 0 0 0 0 0 0 0 0 0 0 0 0 0 0 0 0 0 0 0 0 0 0 0 0 0 0 0 0 0 0 0 0 0 0 0 0 0 0 0 0 0 0 0 0 0 0 0 0 0 0 0 0 0 0 0 0 0 0 0 0 0 0 0 0 0 0 
0 0 0 0 0 0 0 0 0 0 0 0 0 0 0 0 0 0 0 0 0 0 0 0 0 0 0 0 0 0 0 0 0 0 0 0 0 0 0 0 0 0 0 0 0 0 0 0 0 0 0 0 0 0 0 0 0 0 0 0 0 0 0 -5.2346265874803066254e-05 -0.00010498531628400087357 -2.3921089450595900416e-05 -8.0587378761265426874e-05 -4.7493409510934725404e-05 -4.5653923734789714217e-05 -1.2152047020208556205e-05 -2.8807693524868227541e-05 -1.5546947906841523945e-05 -7.5925672717858105898e-05 -0.00016464585496578365564 -1.7885033230413682759e-05 -1.5479257854167371988e-05 -0.00021997635485604405403 -0.00016376092389691621065 -0.00018127486691810190678 -0.00030611699912697076797 -0.00031782028963789343834 -0.00033449067268520593643 -0.0019913460128009319305 -0.00014080762048251926899 -0.00046741616097278892994 -0.00018435240781400352716 -0.00051808351418003439903 -0.00016765389591455459595 -2.6956584406434558332e-05 -0.00014897259825374931097 -0.00043854725663550198078 -0.0001341382594546303153 -0.00019858301675412803888 -5.4534189985133707523e-05 0.07220719754695892334 0 0 0 0 0 0 0 0 0 0 0 0 0 0 0 0 0 0 0 0 0 0 0 0 0 0 0 0 0 0 0 0 0 0 0 0 0 0 0 0 0 0 0 0 0 0 0 0 0 0 0 0 0 0 0 0 0 0 0 0 0 0 0 0 0 0 0 0 0 -0.0033599166199564933777 -0.0091972649097442626953 -0.0052328035235404968262 -0.00092243659310042858124 -0.0028888937085866928101 -0.0010905016679316759109 -0.0035140484105795621872 0 0 0 0 0 0 0 0 0 0 0 0 0 0 0 0 0 0 0 0 0 0 0 0 0 0 0 0 0 0 0 0 0 0 0 0 0 0 0 0 0 0 0 0 0 0 0 0 0 0 0 0 0 0 0 0 0 0 0 0 0 0 0 0 0 0 0 0 0 0 0 0 0 0 0 0 0 0 0 0 0 0 0 0 0 0 0 0 0 0 0 0 0 0 0 0 0 0 0 0 0 0 0 0 0 0 0 0 0 0 0 0 0 0 0 0 0 0 0 
0 0 0 0 0 0 0 0 0 0 0 0 0 0 0 0 0 0 0 0 0 0 0 0 0 0 0 0 0 0 0 0 0 0 0 0 0 0 0 0 0 0 0 0 0 0 0 0 0 0 0 0 0 0 0 0 0 0 0 0 0 0 0 0 -2.4415074221906252205e-05 -2.3921089450595900416e-05 -3.0445558877545408905e-05 -9.7224095952697098255e-05 -3.8319471059367060661e-05 -2.7470514396554790437e-05 -1.8635051674209535122e-05 -3.8563492125831544399e-05 -7.5925672717858105898e-05 -0.00016464585496578365564 -1.0326737537980079651e-05 -1.2318004337430465966e-05 -2.6843574232771061361e-05 -0.00014948881289456039667 -0.00014249821833800524473 -0.00062962871743366122246 -0.00031782028963789343834 -0.00029130585608072578907 -0.0014083476271480321884 -0.0011701915645971894264 -0.00068373460089787840843 -0.00010440689220558851957 -8.3282167906872928143e-05 -0.00016765389591455459595 -2.6956584406434558332e-05 -0.00014639772416558116674 -0.000241077577811665833 -0.00011397693742765113711 -0.0003360708942636847496 0 0 0 0 0 0 0 0 0 0 0 0 0 0 0 0 0 0 0 0 0 0 0 0 0 0 0 0 0 0 0 0 0 0 0 0 0 0 0 0 0 0 0 0 0 0 0 0 0 0 0 0 0 0 0 0 0 0 0 0 0 0 0 0 0 0 0 0 0 0 -0.0067627914249897003174 -0.0033599166199564933777 -0.014986586757004261017 -0.0019046812085434794426 0 -0.0011804556706920266151 -0.001976706087589263916 0 0 0 0 0 0 0 0 0 0 0 0 0 0 0 0 0 0 0 0 0 0 0 0 0 0 0 0 0 0 0 0 0 0 0 0 0 0 0 0 0 0 0 0 0 0 0 0 0 0 0 0 0 0 0 0 0 0 0 0 0 0 0 0 0 0 0 0 0 0 0 0 0 0 0 0 0 0 0 0 0 0 0 0 0 0 0 0 0 0 0 0 0 0 0 0 0 0 0 0 0 0 0 0 0 0 0 0 0 0 0 0 0 0 0 0 0 0 0 0 
0 0 0 0 0 0 0 0 0 0 0 0 0 0 0 0 0 0 0 0 0 0 0 0 0 0 0 0 0 0 0 0 0 0 0 0 0 0 0 0 0 0 0 0 0 0 0 0 0 0 0 0 0 0 0 0 0 0 0 0 0 0 0 -0 -5.3422438213601708412e-05 -3.155327431159093976e-05 -3.0445558877545408905e-05 -9.7224095952697098255e-05 -1.8313128748559392989e-05 -1.8752672986011020839e-05 -2.5686202206998132169e-05 -2.5153769456665031612e-05 -2.958068216685205698e-05 -7.3042494477704167366e-05 -1.0326737537980079651e-05 0 0 0.17710736393928527832 -0.00069233088288456201553 -7.2890579758677631617e-05 -0.00011809434363385662436 -0.00029130585608072578907 -0.0014083476271480321884 -0.00097155675757676362991 -0.00034884636988863348961 -0.00043885759077966213226 -0.00017127342289313673973 -0.00017232530808541923761 -3.6447676393436267972e-05 -0.00014639772416558116674 0.07220719754695892334 0.07220719754695892334 0 0 0 0 0 0 0 0 0 0 0 0 0 0 0 0 0 0 0 0 0 0 0 0 0 0 0 0 0 0 0 0 0 0 0 0 0 0 0 0 0 0 0 0 0 0 0 0 0 0 0 0 0 0 0 0 0 0 0 0 0 0 0 0 0 0 0 0 0 0 0 -0.00549558224156498909 -0.0074016223661601543427 -0.014986586757004261017 -0.0019046812085434794426 0 0 0 0 0 0 0 0 0 0 0 0 0 0 0 0 0 0 0 0 0 0 0 0 0 0 0 0 0 0 0 0 0 0 0 0 0 0 0 0 0 0 0 0 0 0 0 0 0 0 0 0 0 0 0 0 0 0 0 0 0 0 0 0 0 0 0 0 0 0 0 0 0 0 0 0 0 0 0 0 0 0 0 0 0 0 0 0 0 0 0 0 0 0 0 0 0 0 0 0 0 0 0 0 0 0 0 0 0 0 0 0 0 0 0 0 0 0 0 0 0 0 0 
0 0 0 0 0 0 0 0 0 0 0 0 0 0 0 0 0 0 0 0 0 0 0 0 0 0 0 0 0 0 0 0 0 0 0 0 0 0 0 0 0 0 0 0 0 0 0 0 0 0 0 0 0 0 0 0 0 0 0 0 0 0 0 -0 -9.4764720415696501732e-05 -2.6189851269009523094e-05 -3.4946308005601167679e-05 -2.6742038244265131652e-05 -1.8313128748559392989e-05 0.047903679311275482178 0 0 0 0 0 0 0 0 0 0 -0.00016155536286532878876 -0.00034652010072022676468 -0.00099340709857642650604 -0.00097155675757676362991 -9.0111694589722901583e-05 -0.00024113466497510671616 -0.00015331216854974627495 -0.0001152190379798412323 -0.00011028058361262083054 0.07220719754695892334 0.07220719754695892334 0.07220719754695892334 0 0 0 0 0 0 0 0 0 0 0 0 0 0 0 0 0 0 0 0 0 0 0 0 0 0 0 0 0 0 0 0 0 0 0 0 0 0 0 0 0 0 0 0 0 0 0 0 0 0 0 0 0 0 0 0 0 0 0 0 0 0 0 0 0 0 0 0 0 0 0.4008648991584777832 -0.00051456550136208534241 -0.0073045240715146064758 -0.0023940894752740859985 0 0 0 0 0 0 0 0 0 0 0 0 0 0 0 0 0 0 0 0 0 0 0 0 0 0 0 0 0 0 0 0 0 0 0 0 0 0 0 0 0 0 0 0 0 0 0 0 0 0 0 0 0 0 0 0 0 0 0 0 0 0 0 0 0 0 0 0 0 0 0 0 0 0 0 0 0 0 0 0 0 0 0 0 0 0 0 0 0 0 0 0 0 0 0 0 0 0 0 0 0 0 0 0 0 0 0 0 0 0 0 0 0 0 0 0 0 0 0 0 0 0 0 0 
0 0 0 0 0 0 0 0 0 0 0 0 0 0 0 0 0 0 0 0 0 0 0 0 0 0 0 0 0 0 0 0 0 0 0 0 0 0 0 0 0 0 0 0 0 0 0 0 0 0 0 0 0 0 0 0 0 0 0 0 0 0 0 -0 0.047903679311275482178 -3.3324227842967957258e-05 -7.2263821493834257126e-05 -1.2226589205965865403e-05 -1.8502649254514835775e-05 0.047903679311275482178 0 0 0 0 0 0 0 0 0 0 0 -0.00033326772972941398621 -0.0001707808842184022069 -0.00022398115834221243858 -9.0111694589722901583e-05 -0.00024113466497510671616 -0.00013578443031292408705 -0.00051304907537996768951 0.17710736393928527832 0 0 0 0 0 0 0 0 0 0 0 0 0 0 0 0 0 0 0 0 0 0 0 0 0 0 0 0 0 0 0 0 0 0 0 0 0 0 0 0 0 0 0 0 0 0 0 0 0 0 0 0 0 0 0 0 0 0 0 0 0 0 0 0 0 0 0 0 0 0 0 0 0 0.4008648991584777832 -0.0020233702380210161209 -0.0023512260522693395615 -0.0018397925887256860733 -0.0033013024367392063141 0 0 0 0 0 0 0 0 0 0 0 0 0 0 0 0 0 0 0 0 0 0 0 0 0 0 0 0 0 0 0 0 0 0 0 0 0 0 0 0 0 0 0 0 0 0 0 0 0 0 0 0 0 0 0 0 0 0 0 0 0 0 0 0 0 0 0 0 0 0 0 0 0 0 0 0 0 0 0 0 0 0 0 0 0 0 0 0 0 0 0 0 0 0 0 0 0 0 0 0 0 0 0 0 0 0 0 0 0 0 0 0 0 0 0 0 0 0 0 0 0 0 0 
0 0 0 0 0 0 0 0 0 0 0 0 0 0 0 0 0 0 0 0 0 0 0 0 0 0 0 0 0 0 0 0 0 0 0 0 0 0 0 0 0 0 0 0 0 0 0 0 0 0 0 0 0 0 0 0 0 0 0 0 0 0 0 -0 0 -3.9244834624696522951e-05 -7.1851107350084930658e-05 -7.5128991738893091679e-05 -3.0319000870804302394e-05 0 0 0 0 0 0 0 0 0 0 0 0 -0.00078557356027886271477 -0.00018708010611589998007 -0.00010190607281401753426 -0.0002280693006468936801 -0.00065709924092516303062 -0.00013578443031292408705 0 0 0 0 0 0 0 0 0 0 0 0 0 0 0 0 0 0 0 0 0 0 0 0 0 0 0 0 0 0 0 0 0 0 0 0 0 0 0 0 0 0 0 0 0 0 0 0 0 0 0 0 0 0 0 0 0 0 0 0 0 0 0 0 0 0 0 0 0 0 0 0 0 0 0 -0.0012380485422909259796 -0.0020233702380210161209 -0.0017589264316484332085 -0.0044674398377537727356 -0.0094954352825880050659 -0.010779116302728652954 0 0 0 0 0 0 0 0 0 0 0 0 0 0 0 0 0 0 0 0 0 0 0 0 0 0 0 0 0 0 0 0 0 0 0 0 0 0 0 0 0 0 0 0 0 0 0 0 0 0 0 0 0 0 0 0 0 0 0 0 0 0 0 0 0 0 0 0 0 0 0 0 0 0 0 0 0 0 0 0 0 0 0 0 0 0 0 0 0 0 0 0 0 0 0 0 0 0 0 0 0 0 0 0 0 0 0 0 0 0 0 0 0 0 0 0 0 0 0 0 0 0 
0 0 0 0 0 0 0 0 0 0 0 0 0 0 0 0 0 0 0 0 0 0 0 0 0 0 0 0 0 0 0 0 0 0 0 0 0 0 0 0 0 0 0 0 0 0 0 0 0 0 0 0 0 0 0 0 0 0 0 0 0 0 0 0 0 -3.9244834624696522951e-05 0.047903679311275482178 0.047903679311275482178 0.047903679311275482178 0.047903679311275482178 0 0 0 0 0 0 0 0 0 0 0 0 0 0 0.17710736393928527832 0.17710736393928527832 0 0 0 0 0 0 0 0 0 0 0 0 0 0 0 0 0 0 0 0 0 0 0 0 0 0 0 0 0 0 0 0 0 0 0 0 0 0 0 0 0 0 0 0 0 0 0 0 0 0 0 0 0 0 0 0 0 0 0 0 0 0 0 0 0 0 0 0 0 0 0 0 0 0 0 0 -0.0044239740818738937378 -0.001327175297774374485 -0.0017589264316484332085 -0.006218085065484046936 -0.0077064014039933681488 -0.002754843560978770256 0 0 0 0 0 0 0 0 0 0 0 0 0 0 0 0 0 0 0 0 0 0 0 0 0 0 0 0 0 0 0 0 0 0 0 0 0 0 0 0 0 0 0 0 0 0 0 0 0 0 0 0 0 0 0 0 0 0 0 0 0 0 0 0 0 0 0 0 0 0 0 0 0 0 0 0 0 0 0 0 0 0 0 0 0 0 0 0 0 0 0 0 0 0 0 0 0 0 0 0 0 0 0 0 0 0 0 0 0 0 0 0 0 0 0 0 0 0 0 0 0 0 
0 0 0 0 0 0 0 0 0 0 0 0 0 0 0 0 0 0 0 0 0 0 0 0 0 0 0 0 0 0 0 0 0 0 0 0 0 0 0 0 0 0 0 0 0 0 0 0 0 0 0 0 0 0 0 0 0 0 0 0 0 0 0 0 0 0 0.047903679311275482178 0 0 0 0 0 0 0 0 0 0 0 0 0 0 0 0 0 0 0 0 0 0 0 0 0 0 0 0 0 0 0 0 0 0 0 0 0 0 0 0 0 0 0 0 0 0 0 0 0 0 0 0 0 0 0 0 0 0 0 0 0 0 0 0 0 0 0 0 0 0 0 0 0 0 0 0 0 0 0 0 0 0 0 0 0 0 0 0 0 0 0 0 0 0 0 0 -0.019339149817824363708 -0.0054893591441214084625 -0.006218085065484046936 -0.0077064014039933681488 0.076461531221866607666 0.075754299759864807129 0.089524179697036743164 0.099758334457874298096 0.10657878965139389038 0 0 0 0 0 0 0 0 0 0 0 0 0 0 0 0 0 0 0 0 0 0 0 0 0 0 0 0 0 0 0 0 0 0 0 0 0 0 0 0 0 0 0 0 0 0 0 0 0 0 0 0 0 0 0 0 0 0 0 0 0 0 0 0 0 0 0 0 0 0 0 0 0 0 0 0 0 0 0 0 0 0 0 0 0 0 0 0 0 0 0 0 0 0 0 0 0 0 0 0 0 0 0 0 0 0 0 0 0 0 0 0 0 0 0 0 0 0 
0 0 0 0 0 0 0 0 0 0 0 0 0 0 0 0 0 0 0 0 0 0 0 0 0 0 0 0 0 0 0 0 0 0 0 0 0 0 0 0 0 0 0 0 0 0 0 0 0 0 0 0 0 0 0 0 0 0 0 0 0 0 0 0 0 0 0 0 0 0 0 0 0 0 0 0 0 0 0 0 0 0 0 0 0 0 0 0 0 0 0 0 0 0 0 0 0 0 0 0 0 0 0 0 0 0 0 0 0 0 0 0 0 0 0 0 0 0 0 0 0 0 0 0 0 0 0 0 0 0 0 0 0 0 0 0 0 0 0 0 0 0 0 0 0 0 0 0 0 0 0 0 0 0 0 0 0 0 0 0 0 0 0 -0.020064754411578178406 -0.010897965170443058014 -0.0067110350355505943298 0.052980899810791015625 0.076461531221866607666 0.065091975033283233643 0.090353228151798248291 0.018093686550855636597 0.14706735312938690186 0.16126309335231781006 0 0 0 0 0 0 0 0 0 0 0 0 0 0 0 0 0 0 0 0 0 0 0 0 0 0 0 0 0 0 0 0 0 0 0 0 0 0 0 0 0 0 0 0 0 0 0 0 0 0 0 0 0 0 0 0 0 0 0 0 0 0 0 0 0 0 0 0 0 0 0 0 0 0 0 0 0 0 0 0 0 0 0 0 0 0 0 0 0 0 0 0 0 0 0 0 0 0 0 0 0 0 0 0 0 0 0 0 0 0 0 0 0 0 0 0 0 
0 0 0 0 0 0 0 0 0 0 0 0 0 0 0 0 0 0 0 0 0 0 0 0 0 0 0 0 0 0 0 0 0 0 0 0 0 0 0 0 0 0 0 0 0 0 0 0 0 0 0 0 0 0 0 0 0 0 0 0 0 0 0 0 0 0 0 0 0 0 0 0 0 0 0 0 0 0 0 0 0 0 0 0 0 0 0 0 0 0 0 0 0 0 0 0 0 0 0 0 0 0 0 0 0 0 0 0 0 0 0 0 0 0 0 0 0 0 0 0 0 0 0 0 0 0 0 0 0 0 0 0 0 0 0 0 0 0 0 0 0 0 0 0 0 0 0 0 0 0 0 0 0 0 0 0 0 0 0 0 0 1.1503753662109375 0 -0.02190366014838218689 0.22199073433876037598 0.063024789094924926758 0.066278576850891113281 0.081181816756725311279 0.065091975033283233643 0.021640559658408164978 0.081975251436233520508 0.033108573406934738159 0.070188790559768676758 0.014636278152465820312 0.029912315309047698975 0 0 0 0 0 0 0 0 0 0 0 0 0 0 0 0 0 0 0 0 0 0 0 0 0 0 0 0 0 0 0 0 0 0 0 0 0 0 0 0 0 0 0 0 0 0 0 0 0 0 0 0 0 0 0 0 0 0 0 0 0 0 0 0 0 0 0 0 0 0 0 0 0 0 0 0 0 0 0 0 0 0 0 0 0 0 0 0 0 0 0 0 0 0 0 0 0 0 0 0 0 0 0 0 0 0 0 0 0 0 0 0 0 0 0 
0 0 0 0 0 0 0 0 0 0 0 0 0 0 0 0 0 0 0 0 0 0 0 0 0 0 0 0 0 0 0 0 0 0 0 0 0 0 0 0 0 0 0 0 0 0 0 0 0 0 0 0 0 0 0 0 0 0 0 0 0 0 0 0 0 0 0 0 0 0 0 0 0 0 0 0 0 0 0 0 0 0 0 0 0 0 0 0 0 0 0 0 0 0 0 0 0 0 0 0 0 0 0 0 0 0 0 0 0 0 0 0 0 0 0 0 0 0 0 0 0 0 0 0 0 0 0 0 0 0 0 0 0 0 0 0 0 0 0 0 0 0 0 0 0 0 0 0 0 0 0 0 0 0 0 0 0 0 0 0 0 0 -0.0040853261016309261322 -0.02190366014838218689 0.093254938721656799316 0.073380134999752044678 0.039256550371646881104 0.02099095471203327179 0.089147068560123443604 0.021640559658408164978 0.081975251436233520508 0.050701431930065155029 0.032866936177015304565 0.022515473887324333191 0.065571226179599761963 0.042242452502250671387 0.019166786223649978638 0 0 0 0 0 0 0 0 0 0 0 0 0 0 0 0 0 0 0 0 0 0 0 0 0 0 0 0 0 0 0 0 0 0 0 0 0 0 0 0 0 0 0 0 0 0 0 0 0 0 0 0 0 0 0 0 0 0 0 0 0 0 0 0 0 0 0 0 0 0 0 0 0 0 0 0 0 0 0 0 0 0 0 0 0 0 0 0 0 0 0 0 0 0 0 0 0 0 0 0 0 0 0 0 0 0 0 0 0 0 0 0 0 
0 0 0 0 0 0 0 0 0 0 0 0 0 0 0 0 0 0 0 0 0 0 0 0 0 0 0 0 0 0 0 0 0 0 0 0 0 0 0 0 0 0 0 0 0 0 0 0 0 0 0 0 0 0 0 0 0 0 0 0 0 0 0 0 0 0 0 0 0 0 0 0 0 0 0 0 0 0 0 0 0 0 0 0 0 0 0 0 0 0 0 0 0 0 0 0 0 0 0 0 0 0 0 0 0 0 0 0 0 0 0 0 0 0 0 0 0 0 0 0 0 0 0 0 0 0 0 0 0 0 0 0 0 0 0 0 0 0 0 0 0 0 0 0 0 0 0 0 0 0 0 0 0 0 0 0 0 0 0 0 0 0 1.1242632865905761719 -0.0054056621156632900238 0.093254938721656799316 0.045855458825826644897 0.071663744747638702393 0.016841700300574302673 0.088843815028667449951 0.045983657240867614746 0.019572610035538673401 0.050701431930065155029 0.087619043886661529541 0.061219178140163421631 0.12185432761907577515 -0.0053213299252092838287 -0.0044350908137857913971 0 0 0 0 0 0 0 0 0 0 0 0 0 0 0 0 0 0 0 0 0 0 0 0 0 0 0 0 0 0 0 0 0 0 0 0 0 0 0 0 0 0 0 0 0 0 0 0 0 0 0 0 0 0 0 0 0 0 0 0 0 0 0 0 0 0 0 0 0 0 0 0 0 0 0 0 0 0 0 0 0 0 0 0 0 0 0 0 0 0 0 0 0 0 0 0 0 0 0 0 0 0 0 0 0 0 0 0 0 0 0 0 0 
0 0 0 0 0 0 0 0 0 0 0 0 0 0 0 0 0 0 0 0 0 0 0 0 0 0 0 0 0 0 0 0 0 0 0 0 0 0 0 0 0 0 0 0 0 0 0 0 0 0 0 0 0 0 0 0 0 0 0 0 0 0 0 0 0 0 0 0 0 0 0 0 0 0 0 0 0 0 0 0 0 0 0 0 0 0 0 0 0 0 0 0 0 0 0 0 0 0 0 0 0 0 0 0 0 0 0 0 0 0 0 0 0 0 0 0 0 0 0 0 0 0 0 0 0 0 0 0 0 0 0 0 0 0 0 0 0 0 0 0 0 0 0 0 0 0 0 0 0 0 0 0 0 0 0 0 0 0 0 0 0 0 -0.0034443426411598920822 -0.003331611165776848793 0.08785800635814666748 0.045855458825826644897 0.071663744747638702393 0.11886481195688247681 0.043645642697811126709 0.034205168485641479492 0.037203378975391387939 0.087877303361892700195 0.087619043886661529541 0.050924759358167648315 0.12784172594547271729 -0.0078978389501571655273 -0.011052919551730155945 0 0 0 0 0 0 0 0 0 0 0 0 0 0 0 0 0 0 0 0 0 0 0 0 0 0 0 0 0 0 0 0 0 0 0 0 0 0 0 0 0 0 0 0 0 0 0 0 0 0 0 0 0 0 0 0 0 0 0 0 0 0 0 0 0 0 0 0 0 0 0 0 0 0 0 0 0 0 0 0 0 0 0 0 0 0 0 0 0 0 0 0 0 0 0 0 0 0 0 0 0 0 0 0 0 0 0 0 0 0 0 0 0 
0 0 0 0 0 0 0 0 0 0 0 0 0 0 0 0 0 0 0 0 0 0 0 0 0 0 0 0 0 0 0 0 0 0 0 0 0 0 0 0 0 0 0 0 0 0 0 0 0 0 0 0 0 0 0 0 0 0 0 0 0 0 0 0 0 0 0 0 0 0 0 0 0 0 0 0 0 0 0 0 0 0 0 0 0 0 0 0 0 0 0 0 0 0 0 0 0 0 0 0 0 0 0 0 0 0 0 0 0 0 0 0 0 0 0 0 0 0 0 0 0 0 0 0 0 0 0 0 0 0 0 0 0 0 0 0 0 0 0 0 0 0 0 0 0 0 0 0 0 0 0 0 0 0 0 0 0 0 0 0 0 -0.011174342595040798187 -0.0038814591243863105774 -0.024826083332300186157 -0.0056639458052814006805 -0.0018935637781396508217 0.030252119526267051697 0.11886481195688247681 0.040280256420373916626 0.033012356609106063843 0.020883165299892425537 0.040772978216409683228 0.0059901308268308639526 0.016893165186047554016 0.12784172594547271729 0.2645594477653503418 0.2645594477653503418 0 0 0 0 0 0 0 0 0 0 0 0 0 0 0 0 0 0 0 0 0 0 0 0 0 0 0 0 0 0 0 0 0 0 0 0 0 0 0 0 0 0 0 0 0 0 0 0 0 0 0 0 0 0 0 0 0 0 0 0 0 0 0 0 0 0 0 0 0 0 0 0 0 0 0 0 0 0 0 0 0 0 0 0 0 0 0 0 0 0 0 0 0 0 0 0 0 0 0 0 0 0 0 0 0 0 0 0 0 0 0 0 0 
0 0 0 0 0 0 0 0 0 0 0 0 0 0 0 0 0 0 0 0 0 0 0 0 0 0 0 0 0 0 0 0 0 0 0 0 0 0 0 0 0 0 0 0 0 0 0 0 0 0 0 0 0 0 0 0 0 0 0 0 0 0 0 0 0 0 0 0 0 0 0 0 0 0 0 0 0 0 0 0 0 0 0 0 0 0 0 0 0 0 0 0 0 0 0 0 0 0 0 0 0 0 0 0 0 0 0 0 0 0 0 0 0 0 0 0 0 0 0 0 0 0 0 0 0 0 0 0 0 0 0 0 0 0 0 0 0 0 0 0 0 0 0 0 0 0 0 0 0 0 0 0 0 0 0 0 0 0 0 0 -0.00142367510125041008 -0.011174342595040798187 -0.0038814591243863105774 -0.0017398933414369821548 0.066702976822853088379 0.12236828356981277466 0.082324355840682983398 0.15225279331207275391 0.040280256420373916626 0.017970800399780273438 0.018691100180149078369 0.048293188214302062988 -0.0018453805241733789444 0.014327935874462127686 -0.0078728133812546730042 -0.0059711108915507793427 0 0 0 0 0 0 0 0 0 0 0 0 0 0 0 0 0 0 0 0 0 0 0 0 0 0 0 0 0 0 0 0 0 0 0 0 0 0 0 0 0 0 0 0 0 0 0 0 0 0 0 0 0 0 0 0 0 0 0 0 0 0 0 0 0 0 0 0 0 0 0 0 0 0 0 0 0 0 0 0 0 0 0 0 0 0 0 0 0 0 0 0 0 0 0 0 0 0 0 0 0 0 0 0 0 0 0 0 0 0 0 0 0 0 
0 0 0 0 0 0 0 0 0 0 0 0 0 0 0 0 0 0 0 0 0 0 0 0 0 0 0 0 0 0 0 0 0 0 0 0 0 0 0 0 0 0 0 0 0 0 0 0 0 0 0 0 0 0 0 0 0 0 0 0 0 0 0 0 0 0 0 0 0 0 0 0 0 0 0 0 0 0 0 0 0 0 0 0 0 0 0 0 0 0 0 0 0 0 0 0 0 0 0 0 0 0 0 0 0 0 0 0 0 0 0 0 0 0 0 0 0 0 0 0 0 0 0 0 0 0 0 0 0 0 0 0 0 0 0 0 0 0 0 0 0 0 0 0 0 0 0 0 0 0 0 0 0 0 0 0 0 0 0 0 -0.01688213646411895752 -0.01652242615818977356 -0.011496773920953273773 -0.0017398933414369821548 -0.00052069273078814148903 0.046760983765125274658 0.067288570106029510498 0.053405199199914932251 0.04211486130952835083 0.090992555022239685059 0.018691100180149078369 -0.0015048109926283359528 -0.00052156561287119984627 -0.0025407066568732261658 -0.0071736513637006282806 0 0 0 0 0 0 0 0 0 0 0 0 0 0 0 0 0 0 0 0 0 0 0 0 0 0 0 0 0 0 0 0 0 0 0 0 0 0 0 0 0 0 0 0 0 0 0 0 0 0 0 0 0 0 0 0 0 0 0 0 0 0 0 0 0 0 0 0 0 0 0 0 0 0 0 0 0 0 0 0 0 0 0 0 0 0 0 0 0 0 0 0 0 0 0 0 0 0 0 0 0 0 0 0 0 0 0 0 0 0 0 0 0 0 0 
0 0 0 0 0 0 0 0 0 0 0 0 0 0 0 0 0 0 0 0 0 0 0 0 0 0 0 0 0 0 0 0 0 0 0 0 0 0 0 0 0 0 0 0 0 0 0 0 0 0 0 0 0 0 0 0 0 0 0 0 0 0 0 0 0 0 0 0 0 0 0 0 0 0 0 0 0 0 0 0 0 0 0 0 0 0 0 0 0 0 0 0 0 0 0 0 0 0 0 0 0 0 0 0 0 0 0 0 0 0 0 0 0 0 0 0 0 0 0 0 0 0 0 0 0 0 0 0 0 0 0 0 0 0 0 0 0 0 0 0 0 0 0 0 0 0 0 0 0 0 0 0 0 0 0 0 0 0 0 0 -0.019015302881598472595 -0.020284334197640419006 -0.020852720364928245544 -0.014133192598819732666 -0.00052069273078814148903 -0.00041550031164661049843 -0.0026948144659399986267 -0.0027217939496040344238 -0.00046478770673274993896 -0.0013146338751539587975 -0.0027114807162433862686 -0.0015048109926283359528 -0.0015038399724289774895 0.52637857198715209961 -0.0028835064731538295746 0.51598441600799560547 0 0 0 0 0 0 0 0 0 0 0 0 0 0 0 0 0 0 0 0 0 0 0 0 0 0 0 0 0 0 0 0 0 0 0 0 0 0 0 0 0 0 0 0 0 0 0 0 0 0 0 0 0 0 0 0 0 0 0 0 0 0 0 0 0 0 0 0 0 0 0 0 0 0 0 0 0 0 0 0 0 0 0 0 0 0 0 0 0 0 0 0 0 0 0 0 0 0 0 0 0 0 0 0 0 0 0 0 0 0 0 0 0 0 
0 0 0 0 0 0 0 0 0 0 0 0 0 0 0 0 0 0 0 0 0 0 0 0 0 0 0 0 0 0 0 0 0 0 0 0 0 0 0 0 0 0 0 0 0 0 0 0 0 0 0 0 0 0 0 0 0 0 0 0 0 0 0 0 0 0 0 0 0 0 0 0 0 0 0 0 0 0 0 0 0 0 0 0 0 0 0 0 0 0 0 0 0 0 0 0 0 0 0 0 0 0 0 0 0 0 0 0 0 0 0 0 0 0 0 0 0 0 0 0 0 0 0 0 0 0 0 0 0 0 0 0 0 0 0 0 0 0 0 0 0 0 0 0 0 0 0 0 0 0 0 0 0 0 0 0 0 0 0 0 0.46107566356658935547 -0.0069598206318914890289 -0.012940107844769954681 -0.0077652567997574806213 -0.00064345903228968381882 -0.00041550031164661049843 -0.0026948144659399986267 -0.00080663815606385469437 -0.00077249802416190505028 -0.0022693655919283628464 -0.0011986463796347379684 -0.0018232943257316946983 -0.0023130921181291341782 0.25275045633316040039 0 0 0 0 0 0 0 0 0 0 0 0 0 0 0 0 0 0 0 0 0 0 0 0 0 0 0 0 0 0 0 0 0 0 0 0 0 0 0 0 0 0 0 0 0 0 0 0 0 0 0 0 0 0 0 0 0 0 0 0 0 0 0 0 0 0 0 0 0 0 0 0 0 0 0 0 0 0 0 0 0 0 0 0 0 0 0 0 0 0 0 0 0 0 0 0 0 0 0 0 0 0 0 0 0 0 0 0 0 0 0 0 0 0 0 0 
0 0 0 0 0 0 0 0 0 0 0 0 0 0 0 0 0 0 0 0 0 0 0 0 0 0 0 0 0 0 0 0 0 0 0 0 0 0 0 0 0 0 0 0 0 0 0 0 0 0 0 0 0 0 0 0 0 0 0 0 0 0 0 0 0 0 0 0 0 0 0 0 0 0 0 0 0 0 0 0 0 0 0 0 0 0 0 0 0 0 0 0 0 0 0 0 0 0 0 0 0 0 0 0 0 0 0 0 0 0 0 0 0 0 0 0 0 0 0 0 0 0 0 0 0 0 0 0 0 0 0 0 0 0 0 0 0 0 0 0 0 0 0 0 0 0 0 0 0 0 0 0 0 0 0 0 0 0 0 0 0.46107566356658935547 0 -0.0056548202410340309143 -0.0044821696355938911438 -0.00034483350464142858982 -0.00056923419469967484474 -0.00024922715965658426285 -0.00080663815606385469437 -0.00075563107384368777275 -0.00058930402155965566635 -0.00044088388676755130291 -0.0005984806339256465435 -0.0011047914158552885056 -0.0011010529706254601479 0.25275045633316040039 0.25275045633316040039 0 0 0 0 0 0 0 0 0 0 0 0 0 0 0 0 0 0 0 0 0 0 0 0 0 0 0 0 0 0 0 0 0 0 0 0 0 0 0 0 0 0 0 0 0 0 0 0 0 0 0 0 0 0 0 0 0 0 0 0 0 0 0 0 0 0 0 0 0 0 0 0 0 0 0 0 0 0 0 0 0 0 0 0 0 0 0 0 0 0 0 0 0 0 0 0 0 0 0 0 0 0 0 0 0 0 0 0 0 0 0 0 0 0 
0 0 0 0 0 0 0 0 0 0 0 0 0 0 0 0 0 0 0 0 0 0 0 0 0 0 0 0 0 0 0 0 0 0 0 0 0 0 0 0 0 0 0 0 0 0 0 0 0 0 0 0 0 0 0 0 0 0 0 0 0 0 0 0 0 0 0 0 0 0 0 0 0 0 0 0 0 0 0 0 0 0 0 0 0 0 0 0 0 0 0 0 0 0 0 0 0 0 0 0 0 0 0 0 0 0 0 0 0 0 0 0 0 0 0 0 0 0 0 0 0 0 0 0 0 0 0 0 0 0 0 0 0 0 0 0 0 0 0 0 0 0 0 0 0 0 0 0 0 0 0 0 0 0 0 0 0 0 0 0 0 0 -0.0056548202410340309143 -0.0017385972896590828896 -0.00041932825115509331226 -0.00082113355165347456932 -0.00028264801949262619019 -0.00023026438429951667786 -0.00056843383936211466789 0.52637857198715209961 -0.0008772130240686237812 -0.0018082740716636180878 -0.0006543307681567966938 -0.00053975242190062999725 -0.00073915888788178563118 0.25275045633316040039 0 0 0 0 0 0 0 0 0 0 0 0 0 0 0 0 0 0 0 0 0 0 0 0 0 0 0 0 0 0 0 0 0 0 0 0 0 0 0 0 0 0 0 0 0 0 0 0 0 0 0 0 0 0 0 0 0 0 0 0 0 0 0 0 0 0 0 0 0 0 0 0 0 0 0 0 0 0 0 0 0 0 0 0 0 0 0 0 0 0 0 0 0 0 0 0 0 0 0 0 0 0 0 0 0 0 0 0 0 0 0 0 0 0 
0 0 0 0 0 0 0 0 0 0 0 0 0 0 0 0 0 0 0 0 0 0 0 0 0 0 0 0 0 0 0 0 0 0 0 0 0 0 0 0 0 0 0 0 0 0 0 0 0 0 0 0 0 0 0 0 0 0 0 0 0 0 0 0 0 0 0 0 0 0 0 0 0 0 0 0 0 0 0 0 0 0 0 0 0 0 0 0 0 0 0 0 0 0 0 0 0 0 0 0 0 0 0 0 0 0 0 0 0 0 0 0 0 0 0 0 0 0 0 0 0 0 0 0 0 0 0 0 0 0 0 0 0 0 0 0 0 0 0 0 0 0 0 0 0 0 0 0 0 0 0 0 0 0 0 0 0 0 0 0 0 0 -0.00087005150271579623222 -0.0017385972896590828896 0 0 0 -0.0010265945456922054291 -0.00048800147487781941891 -0.00064113049302250146866 -0.0008772130240686237812 -0 0 0 0 -0 0 0 0 0 0 0 0 0 0 0 0 0 0 0 0 0 0 0 0 0 0 0 0 0 0 0 0 0 0 0 0 0 0 0 0 0 0 0 0 0 0 0 0 0 0 0 0 0 0 0 0 0 0 0 0 0 0 0 0 0 0 0 0 0 0 0 0 0 0 0 0 0 0 0 0 0 0 0 0 0 0 0 0 0 0 0 0 0 0 0 0 0 0 0 0 0 0 0 0 0 0 0 0 0 0 0 0 0 0 0 0 0 0 0 
0 0 0 0 0 0 0 0 0 0 0 0 0 0 0 0 0 0 0 0 0 0 0 0 0 0 0 0 0 0 0 0 0 0 0 0 0 0 0 0 0 0 0 0 0 0 0 0 0 0 0 0 0 0 0 0 0 0 0 0 0 0 0 0 0 0 0 0 0 0 0 0 0 0 0 0 0 0 0 0 0 0 0 0 0 0 0 0 0 0 0 0 0 0 0 0 0 0 0 0 0 0 0 0 0 0 0 0 0 0 0 0 0 0 0 0 0 0 0 0 0 0 0 0 0 0 0 0 0 0 0 0 0 0 0 0 0 0 0 0 0 0 0 0 0 0 0 0 0 0 0 0 0 0 0 0 0 0 0 0 0 0 0 -0.0027101454325020313263 0 0 0 0 0 0 0 0 0 0 0 0 0 0 0 0 0 0 0 0 0 0 0 0 0 0 0 0 0 0 0 0 0 0 0 0 0 0 0 0 0 0 0 0 0 0 0 0 0 0 0 0 0 0 0 0 0 0 0 0 0 0 0 0 0 0 0 0 0 0 0 0 0 0 0 0 0 0 0 0 0 0 0 0 0 0 0 0 0 0 0 0 0 0 0 0 0 0 0 0 0 0 0 0 0 0 0 0 0 0 0 0 0 0 0 0 0 0 0 0 0 0 0 0 0 0 
0 0 0 0 0 0 0 0 0 0 0 0 0 0 0 0 0 0 0 0 0 0 0 0 0 0 0 0 0 0 0 0 0 0 0 0 0 0 0 0 0 0 0 0 0 0 0 0 0 0 0 0 0 0 0 0 0 0 0 0 0 0 0 0 0 0 0 0 0 0 0 0 0 0 0 0 0 0 0 0 0 0 0 0 0 0 0 0 0 0 0 0 0 0 0 0 0 0 0 0 0 0 0 0 0 0 0 0 0 0 0 0 0 0 0 0 0 0 0 0 0 0 0 0 0 0 0 0 0 0 0 0 0 0 0 0 0 0 0 0 0 0 0 0 0 0 0 0 0 0 0 0 0 0 0 0 0 0 0 0 0 0 0 0 0 0 0 0 0 0 0 0 0 0 0 0 0 0 0 0 0 0 0 0 0 0 0 0 0 0 0 0 0 0 0 0 0 0 0 0 0 0 0 0 0 0 0 0 0 0 0 0 0 0 0 0 0 0 0 0 0 0 0 0 0 0 0 0 0 0 0 0 0 0 0 0 0 0 0 0 0 0 0 0 0 0 0 0 0 0 0 0 0 0 0 0 0 0 0 0 0 0 0 0 0 0 0 0 0 0 0 0 0 0 0 0 0 0 0 0 0 0 0 0 0 0 0 0 0 0 
0 0 0 0 0 0 0 0 0 0 0 0 0 0 0 0 0 0 0 0 0 0 0 0 0 0 0 0 0 0 0 0 0 0 0 0 0 0 0 0 0 0 0 0 0 0 0 0 0 0 0 0 0 0 0 0 0 0 0 0 0 0 0 0 0 0 0 0 0 0 0 0 0 0 0 0 0 0 0 0 0 0 0 0 0 0 0 0 0 0 0 0 0 0 0 0 0 0 0 0 0 0 0 0 0 0 0 0 0 0 0 0 0 0 0 0 0 0 0 0 0 0 0 0 0 0 0 0 0 0 0 0 0 0 0 0 0 0 0 0 0 0 0 0 0 0 0 0 0 0 0 0 0 0 0 0 0 0 0 0 0 0 0 0 0 0 0 0 0 0 0 0 0 0 0 0 0 0 0 0 0 0 0 0 0 0 0 0 0 0 0 0 0 0 0 0 0 0 0 0 0 0 0 0 0 0 0 0 0 0 0 0 0 0 0 0 0 0 0 0 0 0 0 0 0 0 0 0 0 0 0 0 0 0 0 0 0 0 0 0 0 0 0 0 0 0 0 0 0 0 0 0 0 0 0 0 0 0 0 0 0 0 0 0 0 0 0 0 0 0 0 0 0 0 0 0 0 0 0 0 0 0 0 0 0 0 0 0 0 0 
0 0 0 0 0 0 0 0 0 0 0 0 0 0 0 0 0 0 0 0 0 0 0 0 0 0 0 0 0 0 0 0 0 0 0 0 0 0 0 0 0 0 0 0 0 0 0 0 0 0 0 0 0 0 0 0 0 0 0 0 0 0 0 0 0 0 0 0 0 0 0 0 0 0 0 0 0 0 0 0 0 0 0 0 0 0 0 0 0 0 0 0 0 0 0 0 0 0 0 0 0 0 0 0 0 0 0 0 0 0 0 0 0 0 0 0 0 0 0 0 0 0 0 0 0 0 0 0 0 0 0 0 0 0 0 0 0 0 0 0 0 0 0 0 0 0 0 0 0 0 0 0 0 0 0 0 0 0 0 0 0 0 0 0 0 0 0 0 0 0 0 0 0 0 0 0 0 0 0 0 0 0 0 0 0 0 0 0 0 0 0 0 0 0 0 0 0 0 0 0 0 0 0 0 0 0 0 0 0 0 0 0 0 0 0 0 0 0 0 0 0 0 0 0 0 0 0 0 0 0 0 0 0 0 0 0 0 0 0 0 0 0 0 0 0 0 0 0 0 0 0 0 0 0 0 0 0 0 0 0 0 0 0 0 0 0 0 0 0 0 0 0 0 0 0 0 0 0 0 0 0 0 0 0 0 0 0 0 0 0 
0 0 0 0 0 0 0 0 0 0 0 0 0 0 0 0 0 0 0 0 0 0 0 0 0 0 0 0 0 0 0 0 0 0 0 0 0 0 0 0 0 0 0 0 0 0 0 0 0 0 0 0 0 0 0 0 0 0 0 0 0 0 0 0 0 0 0 0 0 0 0 0 0 0 0 0 0 0 0 0 0 0 0 0 0 0 0 0 0 0 0 0 0 0 0 0 0 0 0 0 0 0 0 0 0 0 0 0 0 0 0 0 0 0 0 0 0 0 0 0 0 0 0 0 0 0 0 0 0 0 0 0 0 0 0 0 0 0 0 0 0 0 0 0 0 0 0 0 0 0 0 0 0 0 0 0 0 0 0 0 0 0 0 0 0 0 0 0 0 0 0 0 0 0 0 0 0 0 0 0 0 0 0 0 0 0 0 0 0 0 0 0 0 0 0 0 0 0 0 0 0 0 0 0 0 0 0 0 0 0 0 0 0 0 0 0 0 0 0 0 0 0 0 0 0 0 0 0 0 0 0 0 0 0 0 0 0 0 0 0 0 0 0 0 0 0 0 0 0 0 0 0 0 0 0 0 0 0 0 0 0 0 0 0 0 0 0 0 0 0 0 0 0 0 0 0 0 0 0 0 0 0 0 0 0 0 0 0 0 0 
0 0 0 0 0 0 0 0 0 0 0 0 0 0 0 0 0 0 0 0 0 0 0 0 0 0 0 0 0 0 0 0 0 0 0 0 0 0 0 0 0 0 0 0 0 0 0 0 0 0 0 0 0 0 0 0 0 0 0 0 0 0 0 0 0 0 0 0 0 0 0 0 0 0 0 0 0 0 0 0 0 0 0 0 0 0 0 0 0 0 0 0 0 0 0 0 0 0 0 0 0 0 0 0 0 0 0 0 0 0 0 0 0 0 0 0 0 0 0 0 0 0 0 0 0 0 0 0 0 0 0 0 0 0 0 0 0 0 0 0 0 0 0 0 0 0 0 0 0 0 0 0 0 0 0 0 0 0 0 0 0 0 0 0 0 0 0 0 0 0 0 0 0 0 0 0 0 0 0 0 0 0 0 0 0 0 0 0 0 0 0 0 0 0 0 0 0 0 0 0 0 0 0 0 0 0 0 0 0 0 0 0 0 0 0 0 0 0 0 0 0 0 0 0 0 0 0 0 0 0 0 0 0 0 0 0 0 0 0 0 0 0 0 0 0 0 0 0 0 0 0 0 0 0 0 0 0 0 0 0 0 0 0 0 0 0 0 0 0 0 0 0 0 0 0 0 0 0 0 0 0 0 0 0 0 0 0 0 0 0 
0 0 0 0 0 0 0 0 0 0 0 0 0 0 0 0 0 0 0 0 0 0 0 0 0 0 0 0 0 0 0 0 0 0 0 0 0 0 0 0 0 0 0 0 0 0 0 0 0 0 0 0 0 0 0 0 0 0 0 0 0 0 0 0 0 0 0 0 0 0 0 0 0 0 0 0 0 0 0 0 0 0 0 0 0 0 0 0 0 0 0 0 0 0 0 0 0 0 0 0 0 0 0 0 0 0 0 0 0 0 0 0 0 0 0 0 0 0 0 0 0 0 0 0 0 0 0 0 0 0 0 0 0 0 0 0 0 0 0 0 0 0 0 0 0 0 0 0 0 0 0 0 0 0 0 0 0 0 0 0 0 0 0 0 0 0 0 0 0 0 0 0 0 0 0 0 0 0 0 0 0 0 0 0 0 0 0 0 0 0 0 0 0 0 0 0 0 0 0 0 0 0 0 0 0 0 0 0 0 0 0 0 0 0 0 0 0 0 0 0 0 0 0 0 0 0 0 0 0 0 0 0 0 0 0 0 0 0 0 0 0 0 0 0 0 0 0 0 0 0 0 0 0 0 0 0 0 0 0 0 0 0 0 0 0 0 0 0 0 0 0 0 0 0 0 0 0 0 0 0 0 0 0 0 0 0 0 0 0 0 
0 0 0 0 0 0 0 0 0 0 0 0 0 0 0 0 0 0 0 0 0 0 0 0 0 0 0 0 0 0 0 0 0 0 0 0 0 0 0 0 0 0 0 0 0 0 0 0 0 0 0 0 0 0 0 0 0 0 0 0 0 0 0 0 0 0 0 0 0 0 0 0 0 0 0 0 0 0 0 0 0 0 0 0 0 0 0 0 0 0 0 0 0 0 0 0 0 0 0 0 0 0 0 0 0 0 0 0 0 0 0 0 0 0 0 0 0 0 0 0 0 0 0 0 0 0 0 0 0 0 0 0 0 0 0 0 0 0 0 0 0 0 0 0 0 0 0 0 0 0 0 0 0 0 0 0 0 0 0 0 0 0 0 0 0 0 0 0 0 0 0 0 0 0 0 0 0 0 0 0 0 0 0 0 0 0 0 0 0 0 0 0 0 0 0 0 0 0 0 0 0 0 0 0 0 0 0 0 0 0 0 0 0 0 0 0 0 0 0 0 0 0 0 0 0 0 0 0 0 0 0 0 0 0 0 0 0 0 0 0 0 0 0 0 0 0 0 0 0 0 0 0 0 0 0 0 0 0 0 0 0 0 0 0 0 0 0 0 0 0 0 0 0 0 0 0 0 0 0 0 0 0 0 0 0 0 0 0 0 0 
0 0 0 0 0 0 0 0 0 0 0 0 0 0 0 0 0 0 0 0 0 0 0 0 0 0 0 0 0 0 0 0 0 0 0 0 0 0 0 0 0 0 0 0 0 0 0 0 0 0 0 0 0 0 0 0 0 0 0 0 0 0 0 0 0 0 0 0 0 0 0 0 0 0 0 0 0 0 0 0 0 0 0 0 0 0 0 0 0 0 0 0 0 0 0 0 0 0 0 0 0 0 0 0 0 0 0 0 0 0 0 0 0 0 0 0 0 0 0 0 0 0 0 0 0 0 0 0 0 0 0 0 0 0 0 0 0 0 0 0 0 0 0 0 0 0 0 0 0 0 0 0 0 0 0 0 0 0 0 0 0 0 0 0 0 0 0 0 0 0 0 0 0 0 0 0 0 0 0 0 0 0 0 0 0 0 0 0 0 0 0 0 0 0 0 0 0 0 0 0 0 0 0 0 0 0 0 0 0 0 0 0 0 0 0 0 0 0 0 0 0 0 0 0 0 0 0 0 0 0 0 0 0 0 0 0 0 0 0 0 0 0 0 0 0 0 0 0 0 0 0 0 0 0 0 0 0 0 0 0 0 0 0 0 0 0 0 0 0 0 0 0 0 0 0 0 0 0 0 0 0 0 0 0 0 0 0 0 0 0 
0 0 0 0 0 0 0 0 0 0 0 0 0 0 0 0 0 0 0 0 0 0 0 0 0 0 0 0 0 0 0 0 0 0 0 0 0 0 0 0 0 0 0 0 0 0 0 0 0 0 0 0 0 0 0 0 0 0 0 0 0 0 0 0 0 0 0 0 0 0 0 0 0 0 0 0 0 0 0 0 0 0 0 0 0 0 0 0 0 0 0 0 0 0 0 0 0 0 0 0 0 0 0 0 0 0 0 0 0 0 0 0 0 0 0 0 0 0 0 0 0 0 0 0 0 0 0 0 0 0 0 0 0 0 0 0 0 0 0 0 0 0 0 0 0 0 0 0 0 0 0 0 0 0 0 0 0 0 0 0 0 0 0 0 0 0 0 0 0 0 0 0 0 0 0 0 0 0 0 0 0 0 0 0 0 0 0 0 0 0 0 0 0 0 0 0 0 0 0 0 0 0 0 0 0 0 0 0 0 0 0 0 0 0 0 0 0 0 0 0 0 0 0 0 0 0 0 0 0 0 0 0 0 0 0 0 0 0 0 0 0 0 0 0 0 0 0 0 0 0 0 0 0 0 0 0 0 0 0 0 0 0 0 0 0 0 0 0 0 0 0 0 0 0 0 0 0 0 0 0 0 0 0 0 0 0 0 0 0 0 
0 0 0 0 0 0 0 0 0 0 0 0 0 0 0 0 0 0 0 0 0 0 0 0 0 0 0 0 0 0 0 0 0 0 0 0 0 0 0 0 0 0 0 0 0 0 0 0 0 0 0 0 0 0 0 0 0 0 0 0 0 0 0 0 0 0 0 0 0 0 0 0 0 0 0 0 0 0 0 0 0 0 0 0 0 0 0 0 0 0 0 0 0 0 0 0 0 0 0 0 0 0 0 0 0 0 0 0 0 0 0 0 0 0 0 0 0 0 0 0 0 0 0 0 0 0 0 0 0 0 0 0 0 0 0 0 0 0 0 0 0 0 0 0 0 0 0 0 0 0 0 0 0 0 0 0 0 0 0 0 0 0 0 0 0 0 0 0 0 0 0 0 0 0 0 0 0 0 0 0 0 0 0 0 0 0 0 0 0 0 0 0 0 0 0 0 0 0 0 0 0 0 0 0 0 0 0 0 0 0 0 0 0 0 0 0 0 0 0 0 0 0 0 0 0 0 0 0 0 0 0 0 0 0 0 0 0 0 0 0 0 0 0 0 0 0 0 0 0 0 0 0 0 0 0 0 0 0 0 0 0 0 0 0 0 0 0 0 0 0 0 0 0 0 0 0 0 0 0 0 0 0 0 0 0 0 0 0 0 0 
0 0 0 0 0 0 0 0 0 0 0 0 0 0 0 0 0 0 0 0 0 0 0 0 0 0 0 0 0 0 0 0 0 0 0 0 0 0 0 0 0 0 0 0 0 0 0 0 0 0 0 0 0 0 0 0 0 0 0 0 0 0 0 0 0 0 0 0 0 0 0 0 0 0 0 0 0 0 0 0 0 0 0 0 0 0 0 0 0 0 0 0 0 0 0 0 0 0 0 0 0 0 0 0 0 0 0 0 0 0 0 0 0 0 0 0 0 0 0 0 0 0 0 0 0 0 0 0 0 0 0 0 0 0 0 0 0 0 0 0 0 0 0 0 0 0 0 0 0 0 0 0 0 0 0 0 0 0 0 0 0 0 0 0 0 0 0 0 0 0 0 0 0 0 0 0 0 0 0 0 0 0 0 0 0 0 0 0 0 0 0 0 0 0 0 0 0 0 0 0 0 0 0 0 0 0 0 0 0 0 0 0 0 0 0 0 0 0 0 0 0 0 0 0 0 0 0 0 0 0 0 0 0 0 0 0 0 0 0 0 0 0 0 0 0 0 0 0 0 0 0 0 0 0 0 0 0 0 0 0 0 0 0 0 0 0 0 0 0 0 0 0 0 0 0 0 0 0 0 0 0 0 0 0 0 0 0 0 0 0 
0 0 0 0 0 0 0 0 0 0 0 0 0 0 0 0 0 0 0 0 0 0 0 0 0 0 0 0 0 0 0 0 0 0 0 0 0 0 0 0 0 0 0 0 0 0 0 0 0 0 0 0 0 0 0 0 0 0 0 0 0 0 0 0 0 0 0 0 0 0 0 0 0 0 0 0 0 0 0 0 0 0 0 0 0 0 0 0 0 0 0 0 0 0 0 0 0 0 0 0 0 0 0 0 0 0 0 0 0 0 0 0 0 0 0 0 0 0 0 0 0 0 0 0 0 0 0 0 0 0 0 0 0 0 0 0 0 0 0 0 0 0 0 0 0 0 0 0 0 0 0 0 0 0 0 0 0 0 0 0 0 0 0 0 0 0 0 0 0 0 0 0 0 0 0 0 0 0 0 0 0 0 0 0 0 0 0 0 0 0 0 0 0 0 0 0 0 0 0 0 0 0 0 0 0 0 0 0 0 0 0 0 0 0 0 0 0 0 0 0 0 0 0 0 0 0 0 0 0 0 0 0 0 0 0 0 0 0 0 0 0 0 0 0 0 0 0 0 0 0 0 0 0 0 0 0 0 0 0 0 0 0 0 0 0 0 0 0 0 0 0 0 0 0 0 0 0 0 0 0 0 0 0 0 0 0 0 0 0 0 
0 0 0 0 0 0 0 0 0 0 0 0 0 0 0 0 0 0 0 0 0 0 0 0 0 0 0 0 0 0 0 0 0 0 0 0 0 0 0 0 0 0 0 0 0 0 0 0 0 0 0 0 0 0 0 0 0 0 0 0 0 0 0 0 0 0 0 0 0 0 0 0 0 0 0 0 0 0 0 0 0 0 0 0 0 0 0 0 0 0 0 0 0 0 0 0 0 0 0 0 0 0 0 0 0 0 0 0 0 0 0 0 0 0 0 0 0 0 0 0 0 0 0 0 0 0 0 0 0 0 0 0 0 0 0 0 0 0 0 0 0 0 0 0 0 0 0 0 0 0 0 0 0 0 0 0 0 0 0 0 0 0 0 0 0 0 0 0 0 0 0 0 0 0 0 0 0 0 0 0 0 0 0 0 0 0 0 0 0 0 0 0 0 0 0 0 0 0 0 0 0 0 0 0 0 0 0 0 0 0 0 0 0 0 0 0 0 0 0 0 0 0 0 0 0 0 0 0 0 0 0 0 0 0 0 0 0 0 0 0 0 0 0 0 0 0 0 0 0 0 0 0 0 0 0 0 0 0 0 0 0 0 0 0 0 0 0 0 0 0 0 0 0 0 0 0 0 0 0 0 0 0 0 0 0 0 0 0 0 0 
0 0 0 0 0 0 0 0 0 0 0 0 0 0 0 0 0 0 0 0 0 0 0 0 0 0 0 0 0 0 0 0 0 0 0 0 0 0 0 0 0 0 0 0 0 0 0 0 0 0 0 0 0 0 0 0 0 0 0 0 0 0 0 0 0 0 0 0 0 0 0 0 0 0 0 0 0 0 0 0 0 0 0 0 0 0 0 0 0 0 0 0 0 0 0 0 0 0 0 0 0 0 0 0 0 0 0 0 0 0 0 0 0 0 0 0 0 0 0 0 0 0 0 0 0 0 0 0 0 0 0 0 0 0 0 0 0 0 0 0 0 0 0 0 0 0 0 0 0 0 0 0 0 0 0 0 0 0 0 0 0 0 0 0 0 0 0 0 0 0 0 0 0 0 0 0 0 0 0 0 0 0 0 0 0 0 0 0 0 0 0 0 0 0 0 0 0 0 0 0 0 0 0 0 0 0 0 0 0 0 0 0 0 0 0 0 0 0 0 0 0 0 0 0 0 0 0 0 0 0 0 0 0 0 0 0 0 0 0 0 0 0 0 0 0 0 0 0 0 0 0 0 0 0 0 0 0 0 0 0 0 0 0 0 0 0 0 0 0 0 0 0 0 0 0 0 0 0 0 0 0 0 0 0 0 0 0 0 0 0 
0 0 0 0 0 0 0 0 0 0 0 0 0 0 0 0 0 0 0 0 0 0 0 0 0 0 0 0 0 0 0 0 0 0 0 0 0 0 0 0 0 0 0 0 0 0 0 0 0 0 0 0 0 0 0 0 0 0 0 0 0 0 0 0 0 0 0 0 0 0 0 0 0 0 0 0 0 0 0 0 0 0 0 0 0 0 0 0 0 0 0 0 0 0 0 0 0 0 0 0 0 0 0 0 0 0 0 0 0 0 0 0 0 0 0 0 0 0 0 0 0 0 0 0 0 0 0 0 0 0 0 0 0 0 0 0 0 0 0 0 0 0 0 0 0 0 0 0 0 0 0 0 0 0 0 0 0 0 0 0 0 0 0 0 0 0 0 0 0 0 0 0 0 0 0 0 0 0 0 0 0 0 0 0 0 0 0 0 0 0 0 0 0 0 0 0 0 0 0 0 0 0 0 0 0 0 0 0 0 0 0 0 0 0 0 0 0 0 0 0 0 0 0 0 0 0 0 0 0 0 0 0 0 0 0 0 0 0 0 0 0 0 0 0 0 0 0 0 0 0 0 0 0 0 0 0 0 0 0 0 0 0 0 0 0 0 0 0 0 0 0 0 0 0 0 0 0 0 0 0 0 0 0 0 0 0 0 0 0 0 
0 0 0 0 0 0 0 0 0 0 0 0 0 0 0 0 0 0 0 0 0 0 0 0 0 0 0 0 0 0 0 0 0 0 0 0 0 0 0 0 0 0 0 0 0 0 0 0 0 0 0 0 0 0 0 0 0 0 0 0 0 0 0 0 0 0 0 0 0 0 0 0 0 0 0 0 0 0 0 0 0 0 0 0 0 0 0 0 0 0 0 0 0 0 0 0 0 0 0 0 0 0 0 0 0 0 0 0 0 0 0 0 0 0 0 0 0 0 0 0 0 0 0 0 0 0 0 0 0 0 0 0 0 0 0 0 0 0 0 0 0 0 0 0 0 0 0 0 0 0 0 0 0 0 0 0 0 0 0 0 0 0 0 0 0 0 0 0 0 0 0 0 0 0 0 0 0 0 0 0 0 0 0 0 0 0 0 0 0 0 0 0 0 0 0 0 0 0 0 0 0 0 0 0 0 0 0 0 0 0 0 0 0 0 0 0 0 0 0 0 0 0 0 0 0 0 0 0 0 0 0 0 0 0 0 0 0 0 0 0 0 0 0 0 0 0 0 0 0 0 0 0 0 0 0 0 0 0 0 0 0 0 0 0 0 0 0 0 0 0 0 0 0 0 0 0 0 0 0 0 0 0 0 0 0 0 0 0 0 0 
0 0 0 0 0 0 0 0 0 0 0 0 0 0 0 0 0 0 0 0 0 0 0 0 0 0 0 0 0 0 0 0 0 0 0 0 0 0 0 0 0 0 0 0 0 0 0 0 0 0 0 0 0 0 0 0 0 0 0 0 0 0 0 0 0 0 0 0 0 0 0 0 0 0 0 0 0 0 0 0 0 0 0 0 0 0 0 0 0 0 0 0 0 0 0 0 0 0 0 0 0 0 0 0 0 0 0 0 0 0 0 0 0 0 0 0 0 0 0 0 0 0 0 0 0 0 0 0 0 0 0 0 0 0 0 0 0 0 0 0 0 0 0 0 0 0 0 0 0 0 0 0 0 0 0 0 0 0 0 0 0 0 0 0 0 0 0 0 0 0 0 0 0 0 0 0 0 0 0 0 0 0 0 0 0 0 0 0 0 0 0 0 0 0 0 0 0 0 0 0 0 0 0 0 0 0 0 0 0 0 0 0 0 0 0 0 0 0 0 0 0 0 0 0 0 0 0 0 0 0 0 0 0 0 0 0 0 0 0 0 0 0 0 0 0 0 0 0 0 0 0 0 0 0 0 0 0 0 0 0 0 0 0 0 0 0 0 0 0 0 0 0 0 0 0 0 0 0 0 0 0 0 0 0 0 0 0 0 0 0 
0 0 0 0 0 0 0 0 0 0 0 0 0 0 0 0 0 0 0 0 0 0 0 0 0 0 0 0 0 0 0 0 0 0 0 0 0 0 0 0 0 0 0 0 0 0 0 0 0 0 0 0 0 0 0 0 0 0 0 0 0 0 0 0 0 0 0 0 0 0 0 0 0 0 0 0 0 0 0 0 0 0 0 0 0 0 0 0 0 0 0 0 0 0 0 0 0 0 0 0 0 0 0 0 0 0 0 0 0 0 0 0 0 0 0 0 0 0 0 0 0 0 0 0 0 0 0 0 0 0 0 0 0 0 0 0 0 0 0 0 0 0 0 0 0 0 0 0 0 0 0 0 0 0 0 0 0 0 0 0 0 0 0 0 0 0 0 0 0 0 0 0 0 0 0 0 0 0 0 0 0 0 0 0 0 0 0 0 0 0 0 0 0 0 0 0 0 0 0 0 0 0 0 0 0 0 0 0 0 0 0 0 0 0 0 0 0 0 0 0 0 0 0 0 0 0 0 0 0 0 0 0 0 0 0 0 0 0 0 0 0 0 0 0 0 0 0 0 0 0 0 0 0 0 0 0 0 0 0 0 0 0 0 0 0 0 0 0 0 0 0 0 0 0 0 0 0 0 0 0 0 0 0 0 0 0 0 0 0 0 
0 0 0 0 0 0 0 0 0 0 0 0 0 0 0 0 0 0 0 0 0 0 0 0 0 0 0 0 0 0 0 0 0 0 0 0 0 0 0 0 0 0 0 0 0 0 0 0 0 0 0 0 0 0 0 0 0 0 0 0 0 0 0 0 0 0 0 0 0 0 0 0 0 0 0 0 0 0 0 0 0 0 0 0 0 0 0 0 0 0 0 0 0 0 0 0 0 0 0 0 0 0 0 0 0 0 0 0 0 0 0 0 0 0 0 0 0 0 0 0 0 0 0 0 0 0 0 0 0 0 0 0 0 0 0 0 0 0 0 0 0 0 0 0 0 0 0 0 0 0 0 0 0 0 0 0 0 0 0 0 0 0 0 0 0 0 0 0 0 0 0 0 0 0 0 0 0 0 0 0 0 0 0 0 0 0 0 0 0 0 0 0 0 0 0 0 0 0 0 0 0 0 0 0 0 0 0 0 0 0 0 0 0 0 0 0 0 0 0 0 0 0 0 0 0 0 0 0 0 0 0 0 0 0 0 0 0 0 0 0 0 0 0 0 0 0 0 0 0 0 0 0 0 0 0 0 0 0 0 0 0 0 0 0 0 0 0 0 0 0 0 0 0 0 0 0 0 0 0 0 0 0 0 0 0 0 0 0 0 0 
0 0 0 0 0 0 0 0 0 0 0 0 0 0 0 0 0 0 0 0 0 0 0 0 0 0 0 0 0 0 0 0 0 0 0 0 0 0 0 0 0 0 0 0 0 0 0 0 0 0 0 0 0 0 0 0 0 0 0 0 0 0 0 0 0 0 0 0 0 0 0 0 0 0 0 0 0 0 0 0 0 0 0 0 0 0 0 0 0 0 0 0 0 0 0 0 0 0 0 0 0 0 0 0 0 0 0 0 0 0 0 0 0 0 0 0 0 0 0 0 0 0 0 0 0 0 0 0 0 0 0 0 0 0 0 0 0 0 0 0 0 0 0 0 0 0 0 0 0 0 0 0 0 0 0 0 0 0 0 0 0 0 0 0 0 0 0 0 0 0 0 0 0 0 0 0 0 0 0 0 0 0 0 0 0 0 0 0 0 0 0 0 0 0 0 0 0 0 0 0 0 0 0 0 0 0 0 0 0 0 0 0 0 0 0 0 0 0 0 0 0 0 0 0 0 0 0 0 0 0 0 0 0 0 0 0 0 0 0 0 0 0 0 0 0 0 0 0 0 0 0 0 0 0 0 0 0 0 0 0 0 0 0 0 0 0 0 0 0 0 0 0 0 0 0 0 0 0 0 0 0 0 0 0 0 0 0 0 0 0 
0 0 0 0 0 0 0 0 0 0 0 0 0 0 0 0 0 0 0 0 0 0 0 0 0 0 0 0 0 0 0 0 0 0 0 0 0 0 0 0 0 0 0 0 0 0 0 0 0 0 0 0 0 0 0 0 0 0 0 0 0 0 0 0 0 0 0 0 0 0 0 0 0 0 0 0 0 0 0 0 0 0 0 0 0 0 0 0 0 0 0 0 0 0 0 0 0 0 0 0 0 0 0 0 0 0 0 0 0 0 0 0 0 0 0 0 0 0 0 0 0 0 0 0 0 0 0 0 0 0 0 0 0 0 0 0 0 0 0 0 0 0 0 0 0 0 0 0 0 0 0 0 0 0 0 0 0 0 0 0 0 0 0 0 0 0 0 0 0 0 0 0 0 0 0 0 0 0 0 0 0 0 0 0 0 0 0 0 0 0 0 0 0 0 0 0 0 0 0 0 0 0 0 0 0 0 0 0 0 0 0 0 0 0 0 0 0 0 0 0 0 0 0 0 0 0 0 0 0 0 0 0 0 0 0 0 0 0 0 0 0 0 0 0 0 0 0 0 0 0 0 0 0 0 0 0 0 0 0 0 0 0 0 0 0 0 0 0 0 0 0 0 0 0 0 0 0 0 0 0 0 0 0 0 0 0 0 0 0 0 
0 0 0 0 0 0 0 0 0 0 0 0 0 0 0 0 0 0 0 0 0 0 0 0 0 0 0 0 0 0 0 0 0 0 0 0 0 0 0 0 0 0 0 0 0 0 0 0 0 0 0 0 0 0 0 0 0 0 0 0 0 0 0 0 0 0 0 0 0 0 0 0 0 0 0 0 0 0 0 0 0 0 0 0 0 0 0 0 0 0 0 0 0 0 0 0 0 0 0 0 0 0 0 0 0 0 0 0 0 0 0 0 0 0 0 0 0 0 0 0 0 0 0 0 0 0 0 0 0 0 0 0 0 0 0 0 0 0 0 0 0 0 0 0 0 0 0 0 0 0 0 0 0 0 0 0 0 0 0 0 0 0 0 0 0 0 0 0 0 0 0 0 0 0 0 0 0 0 0 0 0 0 0 0 0 0 0 0 0 0 0 0 0 0 0 0 0 0 0 0 0 0 0 0 0 0 0 0 0 0 0 0 0 0 0 0 0 0 0 0 0 0 0 0 0 0 0 0 0 0 0 0 0 0 0 0 0 0 0 0 0 0 0 0 0 0 0 0 0 0 0 0 0 0 0 0 0 0 0 0 0 0 0 0 0 0 0 0 0 0 0 0 0 0 0 0 0 0 0 0 0 0 0 0 0 0 0 0 0 0 
0 0 0 0 0 0 0 0 0 0 0 0 0 0 0 0 0 0 0 0 0 0 0 0 0 0 0 0 0 0 0 0 0 0 0 0 0 0 0 0 0 0 0 0 0 0 0 0 0 0 0 0 0 0 0 0 0 0 0 0 0 0 0 0 0 0 0 0 0 0 0 0 0 0 0 0 0 0 0 0 0 0 0 0 0 0 0 0 0 0 0 0 0 0 0 0 0 0 0 0 0 0 0 0 0 0 0 0 0 0 0 0 0 0 0 0 0 0 0 0 0 0 0 0 0 0 0 0 0 0 0 0 0 0 0 0 0 0 0 0 0 0 0 0 0 0 0 0 0 0 0 0 0 0 0 0 0 0 0 0 0 0 0 0 0 0 0 0 0 0 0 0 0 0 0 0 0 0 0 0 0 0 0 0 0 0 0 0 0 0 0 0 0 0 0 0 0 0 0 0 0 0 0 0 0 0 0 0 0 0 0 0 0 0 0 0 0 0 0 0 0 0 0 0 0 0 0 0 0 0 0 0 0 0 0 0 0 0 0 0 0 0 0 0 0 0 0 0 0 0 0 0 0 0 0 0 0 0 0 0 0 0 0 0 0 0 0 0 0 0 0 0 0 0 0 0 0 0 0 0 0 0 0 0 0 0 0 0 0 0 
0 0 0 0 0 0 0 0 0 0 0 0 0 0 0 0 0 0 0 0 0 0 0 0 0 0 0 0 0 0 0 0 0 0 0 0 0 0 0 0 0 0 0 0 0 0 0 0 0 0 0 0 0 0 0 0 0 0 0 0 0 0 0 0 0 0 0 0 0 0 0 0 0 0 0 0 0 0 0 0 0 0 0 0 0 0 0 0 0 0 0 0 0 0 0 0 0 0 0 0 0 0 0 0 0 0 0 0 0 0 0 0 0 0 0 0 0 0 0 0 0 0 0 0 0 0 0 0 0 0 0 0 0 0 0 0 0 0 0 0 0 0 0 0 0 0 0 0 0 0 0 0 0 0 0 0 0 0 0 0 0 0 0 0 0 0 0 0 0 0 0 0 0 0 0 0 0 0 0 0 0 0 0 0 0 0 0 0 0 0 0 0 0 0 0 0 0 0 0 0 0 0 0 0 0 0 0 0 0 0 0 0 0 0 0 0 0 0 0 0 0 0 0 0 0 0 0 0 0 0 0 0 0 0 0 0 0 0 0 0 0 0 0 0 0 0 0 0 0 0 0 0 0 0 0 0 0 0 0 0 0 0 0 0 0 0 0 0 0 0 0 0 0 0 0 0 0 0 0 0 0 0 0 0 0 0 0 0 0 0 
0 0 0 0 0 0 0 0 0 0 0 0 0 0 0 0 0 0 0 0 0 0 0 0 0 0 0 0 0 0 0 0 0 0 0 0 0 0 0 0 0 0 0 0 0 0 0 0 0 0 0 0 0 0 0 0 0 0 0 0 0 0 0 0 0 0 0 0 0 0 0 0 0 0 0 0 0 0 0 0 0 0 0 0 0 0 0 0 0 0 0 0 0 0 0 0 0 0 0 0 0 0 0 0 0 0 0 0 0 0 0 0 0 0 0 0 0 0 0 0 0 0 0 0 0 0 0 0 0 0 0 0 0 0 0 0 0 0 0 0 0 0 0 0 0 0 0 0 0 0 0 0 0 0 0 0 0 0 0 0 0 0 0 0 0 0 0 0 0 0 0 0 0 0 0 0 0 0 0 0 0 0 0 0 0 0 0 0 0 0 0 0 0 0 0 0 0 0 0 0 0 0 0 0 0 0 0 0 0 0 0 0 0 0 0 0 0 0 0 0 0 0 0 0 0 0 0 0 0 0 0 0 0 0 0 0 0 0 0 0 0 0 0 0 0 0 0 0 0 0 0 0 0 0 0 0 0 0 0 0 0 0 0 0 0 0 0 0 0 0 0 0 0 0 0 0 0 0 0 0 0 0 0 0 0 0 0 0 0 0 
0 0 0 0 0 0 0 0 0 0 0 0 0 0 0 0 0 0 0 0 0 0 0 0 0 0 0 0 0 0 0 0 0 0 0 0 0 0 0 0 0 0 0 0 0 0 0 0 0 0 0 0 0 0 0 0 0 0 0 0 0 0 0 0 0 0 0 0 0 0 0 0 0 0 0 0 0 0 0 0 0 0 0 0 0 0 0 0 0 0 0 0 0 0 0 0 0 0 0 0 0 0 0 0 0 0 0 0 0 0 0 0 0 0 0 0 0 0 0 0 0 0 0 0 0 0 0 0 0 0 0 0 0 0 0 0 0 0 0 0 0 0 0 0 0 0 0 0 0 0 0 0 0 0 0 0 0 0 0 0 0 0 0 0 0 0 0 0 0 0 0 0 0 0 0 0 0 0 0 0 0 0 0 0 0 0 0 0 0 0 0 0 0 0 0 0 0 0 0 0 0 0 0 0 0 0 0 0 0 0 0 0 0 0 0 0 0 0 0 0 0 0 0 0 0 0 0 0 0 0 0 0 0 0 0 0 0 0 0 0 0 0 0 0 0 0 0 0 0 0 0 0 0 0 0 0 0 0 0 0 0 0 0 0 0 0 0 0 0 0 0 0 0 0 0 0 0 0 0 0 0 0 0 0 0 0 0 0 0 0 
0 0 0 0 0 0 0 0 0 0 0 0 0 0 0 0 0 0 0 0 0 0 0 0 0 0 0 0 0 0 0 0 0 0 0 0 0 0 0 0 0 0 0 0 0 0 0 0 0 0 0 0 0 0 0 0 0 0 0 0 0 0 0 0 0 0 0 0 0 0 0 0 0 0 0 0 0 0 0 0 0 0 0 0 0 0 0 0 0 0 0 0 0 0 0 0 0 0 0 0 0 0 0 0 0 0 0 0 0 0 0 0 0 0 0 0 0 0 0 0 0 0 0 0 0 0 0 0 0 0 0 0 0 0 0 0 0 0 0 0 0 0 0 0 0 0 0 0 0 0 0 0 0 0 0 0 0 0 0 0 0 0 0 0 0 0 0 0 0 0 0 0 0 0 0 0 0 0 0 0 0 0 0 0 0 0 0 0 0 0 0 0 0 0 0 0 0 0 0 0 0 0 0 0 0 0 0 0 0 0 0 0 0 0 0 0 0 0 0 0 0 0 0 0 0 0 0 0 0 0 0 0 0 0 0 0 0 0 0 0 0 0 0 0 0 0 0 0 0 0 0 0 0 0 0 0 0 0 0 0 0 0 0 0 0 0 0 0 0 0 0 0 0 0 0 0 0 0 0 0 0 0 0 0 0 0 0 0 0 0 
0 0 0 0 0 0 0 0 0 0 0 0 0 0 0 0 0 0 0 0 0 0 0 0 0 0 0 0 0 0 0 0 0 0 0 0 0 0 0 0 0 0 0 0 0 0 0 0 0 0 0 0 0 0 0 0 0 0 0 0 0 0 0 0 0 0 0 0 0 0 0 0 0 0 0 0 0 0 0 0 0 0 0 0 0 0 0 0 0 0 0 0 0 0 0 0 0 0 0 0 0 0 0 0 0 0 0 0 0 0 0 0 0 0 0 0 0 0 0 0 0 0 0 0 0 0 0 0 0 0 0 0 0 0 0 0 0 0 0 0 0 0 0 0 0 0 0 0 0 0 0 0 0 0 0 0 0 0 0 0 0 0 0 0 0 0 0 0 0 0 0 0 0 0 0 0 0 0 0 0 0 0 0 0 0 0 0 0 0 0 0 0 0 0 0 0 0 0 0 0 0 0 0 0 0 0 0 0 0 0 0 0 0 0 0 0 0 0 0 0 0 0 0 0 0 0 0 0 0 0 0 0 0 0 0 0 0 0 0 0 0 0 0 0 0 0 0 0 0 0 0 0 0 0 0 0 0 0 0 0 0 0 0 0 0 0 0 0 0 0 0 0 0 0 0 0 0 0 0 0 0 0 0 0 0 0 0 0 0 0 
0 0 0 0 0 0 0 0 0 0 0 0 0 0 0 0 0 0 0 0 0 0 0 0 0 0 0 0 0 0 0 0 0 0 0 0 0 0 0 0 0 0 0 0 0 0 0 0 0 0 0 0 0 0 0 0 0 0 0 0 0 0 0 0 0 0 0 0 0 0 0 0 0 0 0 0 0 0 0 0 0 0 0 0 0 0 0 0 0 0 0 0 0 0 0 0 0 0 0 0 0 0 0 0 0 0 0 0 0 0 0 0 0 0 0 0 0 0 0 0 0 0 0 0 0 0 0 0 0 0 0 0 0 0 0 0 0 0 0 0 0 0 0 0 0 0 0 0 0 0 0 0 0 0 0 0 0 0 0 0 0 0 0 0 0 0 0 0 0 0 0 0 0 0 0 0 0 0 0 0 0 0 0 0 0 0 0 0 0 0 0 0 0 0 0 0 0 0 0 0 0 0 0 0 0 0 0 0 0 0 0 0 0 0 0 0 0 0 0 0 0 0 0 0 0 0 0 0 0 0 0 0 0 0 0 0 0 0 0 0 0 0 0 0 0 0 0 0 0 0 0 0 0 0 0 0 0 0 0 0 0 0 0 0 0 0 0 0 0 0 0 0 0 0 0 0 0 0 0 0 0 0 0 0 0 0 0 0 0 0 
0 0 0 0 0 0 0 0 0 0 0 0 0 0 0 0 0 0 0 0 0 0 0 0 0 0 0 0 0 0 0 0 0 0 0 0 0 0 0 0 0 0 0 0 0 0 0 0 0 0 0 0 0 0 0 0 0 0 0 0 0 0 0 0 0 0 0 0 0 0 0 0 0 0 0 0 0 0 0 0 0 0 0 0 0 0 0 0 0 0 0 0 0 0 0 0 0 0 0 0 0 0 0 0 0 0 0 0 0 0 0 0 0 0 0 0 0 0 0 0 0 0 0 0 0 0 0 0 0 0 0 0 0 0 0 0 0 0 0 0 0 0 0 0 0 0 0 0 0 0 0 0 0 0 0 0 0 0 0 0 0 0 0 0 0 0 0 0 0 0 0 0 0 0 0 0 0 0 0 0 0 0 0 0 0 0 0 0 0 0 0 0 0 0 0 0 0 0 0 0 0 0 0 0 0 0 0 0 0 0 0 0 0 0 0 0 0 0 0 0 0 0 0 0 0 0 0 0 0 0 0 0 0 0 0 0 0 0 0 0 0 0 0 0 0 0 0 0 0 0 0 0 0 0 0 0 0 0 0 0 0 0 0 0 0 0 0 0 0 0 0 0 0 0 0 0 0 0 0 0 0 0 0 0 0 0 0 0 0 0 
0 0 0 0 0 0 0 0 0 0 0 0 0 0 0 0 0 0 0 0 0 0 0 0 0 0 0 0 0 0 0 0 0 0 0 0 0 0 0 0 0 0 0 0 0 0 0 0 0 0 0 0 0 0 0 0 0 0 0 0 0 0 0 0 0 0 0 0 0 0 0 0 0 0 0 0 0 0 0 0 0 0 0 0 0 0 0 0 0 0 0 0 0 0 0 0 0 0 0 0 0 0 0 0 0 0 0 0 0 0 0 0 0 0 0 0 0 0 0 0 0 0 0 0 0 0 0 0 0 0 0 0 0 0 0 0 0 0 0 0 0 0 0 0 0 0 0 0 0 0 0 0 0 0 0 0 0 0 0 0 0 0 0 0 0 0 0 0 0 0 0 0 0 0 0 0 0 0 0 0 0 0 0 0 0 0 0 0 0 0 0 0 0 0 0 0 0 0 0 0 0 0 0 0 0 0 0 0 0 0 0 0 0 0 0 0 0 0 0 0 0 0 0 0 0 0 0 0 0 0 0 0 0 0 0 0 0 0 0 0 0 0 0 0 0 0 0 0 0 0 0 0 0 0 0 0 0 0 0 0 0 0 0 0 0 0 0 0 0 0 0 0 0 0 0 0 0 0 0 0 0 0 0 0 0 0 0 0 0 0 
0 0 0 0 0 0 0 0 0 0 0 0 0 0 0 0 0 0 0 0 0 0 0 0 0 0 0 0 0 0 0 0 0 0 0 0 0 0 0 0 0 0 0 0 0 0 0 0 0 0 0 0 0 0 0 0 0 0 0 0 0 0 0 0 0 0 0 0 0 0 0 0 0 0 0 0 0 0 0 0 0 0 0 0 0 0 0 0 0 0 0 0 0 0 0 0 0 0 0 0 0 0 0 0 0 0 0 0 0 0 0 0 0 0 0 0 0 0 0 0 0 0 0 0 0 0 0 0 0 0 0 0 0 0 0 0 0 0 0 0 0 0 0 0 0 0 0 0 0 0 0 0 0 0 0 0 0 0 0 0 0 0 0 0 0 0 0 0 0 0 0 0 0 0 0 0 0 0 0 0 0 0 0 0 0 0 0 0 0 0 0 0 0 0 0 0 0 0 0 0 0 0 0 0 0 0 0 0 0 0 0 0 0 0 0 0 0 0 0 0 0 0 0 0 0 0 0 0 0 0 0 0 0 0 0 0 0 0 0 0 0 0 0 0 0 0 0 0 0 0 0 0 0 0 0 0 0 0 0 0 0 0 0 0 0 0 0 0 0 0 0 0 0 0 0 0 0 0 0 0 0 0 0 0 0 0 0 0 0 0 
0 0 0 0 0 0 0 0 0 0 0 0 0 0 0 0 0 0 0 0 0 0 0 0 0 0 0 0 0 0 0 0 0 0 0 0 0 0 0 0 0 0 0 0 0 0 0 0 0 0 0 0 0 0 0 0 0 0 0 0 0 0 0 0 0 0 0 0 0 0 0 0 0 0 0 0 0 0 0 0 0 0 0 0 0 0 0 0 0 0 0 0 0 0 0 0 0 0 0 0 0 0 0 0 0 0 0 0 0 0 0 0 0 0 0 0 0 0 0 0 0 0 0 0 0 0 0 0 0 0 0 0 0 0 0 0 0 0 0 0 0 0 0 0 0 0 0 0 0 0 0 0 0 0 0 0 0 0 0 0 0 0 0 0 0 0 0 0 0 0 0 0 0 0 0 0 0 0 0 0 0 0 0 0 0 0 0 0 0 0 0 0 0 0 0 0 0 0 0 0 0 0 0 0 0 0 0 0 0 0 0 0 0 0 0 0 0 0 0 0 0 0 0 0 0 0 0 0 0 0 0 0 0 0 0 0 0 0 0 0 0 0 0 0 0 0 0 0 0 0 0 0 0 0 0 0 0 0 0 0 0 0 0 0 0 0 0 0 0 0 0 0 0 0 0 0 0 0 0 0 0 0 0 0 0 0 0 0 0 0 
0 0 0 0 0 0 0 0 0 0 0 0 0 0 0 0 0 0 0 0 0 0 0 0 0 0 0 0 0 0 0 0 0 0 0 0 0 0 0 0 0 0 0 0 0 0 0 0 0 0 0 0 0 0 0 0 0 0 0 0 0 0 0 0 0 0 0 0 0 0 0 0 0 0 0 0 0 0 0 0 0 0 0 0 0 0 0 0 0 0 0 0 0 0 0 0 0 0 0 0 0 0 0 0 0 0 0 0 0 0 0 0 0 0 0 0 0 0 0 0 0 0 0 0 0 0 0 0 0 0 0 0 0 0 0 0 0 0 0 0 0 0 0 0 0 0 0 0 0 0 0 0 0 0 0 0 0 0 0 0 0 0 0 0 0 0 0 0 0 0 0 0 0 0 0 0 0 0 0 0 0 0 0 0 0 0 0 0 0 0 0 0 0 0 0 0 0 0 0 0 0 0 0 0 0 0 0 0 0 0 0 0 0 0 0 0 0 0 0 0 0 0 0 0 0 0 0 0 0 0 0 0 0 0 0 0 0 0 0 0 0 0 0 0 0 0 0 0 0 0 0 0 0 0 0 0 0 0 0 0 0 0 0 0 0 0 0 0 0 0 0 0 0 0 0 0 0 0 0 0 0 0 0 0 0 0 0 0 0 0 
0 0 0 0 0 0 0 0 0 0 0 0 0 0 0 0 0 0 0 0 0 0 0 0 0 0 0 0 0 0 0 0 0 0 0 0 0 0 0 0 0 0 0 0 0 0 0 0 0 0 0 0 0 0 0 0 0 0 0 0 0 0 0 0 0 0 0 0 0 0 0 0 0 0 0 0 0 0 0 0 0 0 0 0 0 0 0 0 0 0 0 0 0 0 0 0 0 0 0 0 0 0 0 0 0 0 0 0 0 0 0 0 0 0 0 0 0 0 0 0 0 0 0 0 0 0 0 0 0 0 0 0 0 0 0 0 0 0 0 0 0 0 0 0 0 0 0 0 0 0 0 0 0 0 0 0 0 0 0 0 0 0 0 0 0 0 0 0 0 0 0 0 0 0 0 0 0 0 0 0 0 0 0 0 0 0 0 0 0 0 0 0 0 0 0 0 0 0 0 0 0 0 0 0 0 0 0 0 0 0 0 0 0 0 0 0 0 0 0 0 0 0 0 0 0 0 0 0 0 0 0 0 0 0 0 0 0 0 0 0 0 0 0 0 0 0 0 0 0 0 0 0 0 0 0 0 0 0 0 0 0 0 0 0 0 0 0 0 0 0 0 0 0 0 0 0 0 0 0 0 0 0 0 0 0 0 0 0 0 0 
0 0 0 0 0 0 0 0 0 0 0 0 0 0 0 0 0 0 0 0 0 0 0 0 0 0 0 0 0 0 0 0 0 0 0 0 0 0 0 0 0 0 0 0 0 0 0 0 0 0 0 0 0 0 0 0 0 0 0 0 0 0 0 0 0 0 0 0 0 0 0 0 0 0 0 0 0 0 0 0 0 0 0 0 0 0 0 0 0 0 0 0 0 0 0 0 0 0 0 0 0 0 0 0 0 0 0 0 0 0 0 0 0 0 0 0 0 0 0 0 0 0 0 0 0 0 0 0 0 0 0 0 0 0 0 0 0 0 0 0 0 0 0 0 0 0 0 0 0 0 0 0 0 0 0 0 0 0 0 0 0 0 0 0 0 0 0 0 0 0 0 0 0 0 0 0 0 0 0 0 0 0 0 0 0 0 0 0 0 0 0 0 0 0 0 0 0 0 0 0 0 0 0 0 0 0 0 0 0 0 0 0 0 0 0 0 0 0 0 0 0 0 0 0 0 0 0 0 0 0 0 0 0 0 0 0 0 0 0 0 0 0 0 0 0 0 0 0 0 0 0 0 0 0 0 0 0 0 0 0 0 0 0 0 0 0 0 0 0 0 0 0 0 0 0 0 0 0 0 0 0 0 0 0 0 0 0 0 0 0 
0 0 0 0 0 0 0 0 0 0 0 0 0 0 0 0 0 0 0 0 0 0 0 0 0 0 0 0 0 0 0 0 0 0 0 0 0 0 0 0 0 0 0 0 0 0 0 0 0 0 0 0 0 0 0 0 0 0 0 0 0 0 0 0 0 0 0 0 0 0 0 0 0 0 0 0 0 0 0 0 0 0 0 0 0 0 0 0 0 0 0 0 0 0 0 0 0 0 0 0 0 0 0 0 0 0 0 0 0 0 0 0 0 0 0 0 0 0 0 0 0 0 0 0 0 0 0 0 0 0 0 0 0 0 0 0 0 0 0 0 0 0 0 0 0 0 0 0 0 0 0 0 0 0 0 0 0 0 0 0 0 0 0 0 0 0 0 0 0 0 0 0 0 0 0 0 0 0 0 0 0 0 0 0 0 0 0 0 0 0 0 0 0 0 0 0 0 0 0 0 0 0 0 0 0 0 0 0 0 0 0 0 0 0 0 0 0 0 0 0 0 0 0 0 0 0 0 0 0 0 0 0 0 0 0 0 0 0 0 0 0 0 0 0 0 0 0 0 0 0 0 0 0 0 0 0 0 0 0 0 0 0 0 0 0 0 0 0 0 0 0 0 0 0 0 0 0 0 0 0 0 0 0 0 0 0 0 0 0 0 
0 0 0 0 0 0 0 0 0 0 0 0 0 0 0 0 0 0 0 0 0 0 0 0 0 0 0 0 0 0 0 0 0 0 0 0 0 0 0 0 0 0 0 0 0 0 0 0 0 0 0 0 0 0 0 0 0 0 0 0 0 0 0 0 0 0 0 0 0 0 0 0 0 0 0 0 0 0 0 0 0 0 0 0 0 0 0 0 0 0 0 0 0 0 0 0 0 0 0 0 0 0 0 0 0 0 0 0 0 0 0 0 0 0 0 0 0 0 0 0 0 0 0 0 0 0 0 0 0 0 0 0 0 0 0 0 0 0 0 0 0 0 0 0 0 0 0 0 0 0 0 0 0 0 0 0 0 0 0 0 0 0 0 0 0 0 0 0 0 0 0 0 0 0 0 0 0 0 0 0 0 0 0 0 0 0 0 0 0 0 0 0 0 0 0 0 0 0 0 0 0 0 0 0 0 0 0 0 0 0 0 0 0 0 0 0 0 0 0 0 0 0 0 0 0 0 0 0 0 0 0 0 0 0 0 0 0 0 0 0 0 0 0 0 0 0 0 0 0 0 0 0 0 0 0 0 0 0 0 0 0 0 0 0 0 0 0 0 0 0 0 0 0 0 0 0 0 0 0 0 0 0 0 0 0 0 0 0 0 0 
0 0 0 0 0 0 0 0 0 0 0 0 0 0 0 0 0 0 0 0 0 0 0 0 0 0 0 0 0 0 0 0 0 0 0 0 0 0 0 0 0 0 0 0 0 0 0 0 0 0 0 0 0 0 0 0 0 0 0 0 0 0 0 0 0 0 0 0 0 0 0 0 0 0 0 0 0 0 0 0 0 0 0 0 0 0 0 0 0 0 0 0 0 0 0 0 0 0 0 0 0 0 0 0 0 0 0 0 0 0 0 0 0 0 0 0 0 0 0 0 0 0 0 0 0 0 0 0 0 0 0 0 0 0 0 0 0 0 0 0 0 0 0 0 0 0 0 0 0 0 0 0 0 0 0 0 0 0 0 0 0 0 0 0 0 0 0 0 0 0 0 0 0 0 0 0 0 0 0 0 0 0 0 0 0 0 0 0 0 0 0 0 0 0 0 0 0 0 0 0 0 0 0 0 0 0 0 0 0 0 0 0 0 0 0 0 0 0 0 0 0 0 0 0 0 0 0 0 0 0 0 0 0 0 0 0 0 0 0 0 0 0 0 0 0 0 0 0 0 0 0 0 0 0 0 0 0 0 0 0 0 0 0 0 0 0 0 0 0 0 0 0 0 0 0 0 0 0 0 0 0 0 0 0 0 0 0 0 0 0 
0 0 0 0 0 0 0 0 0 0 0 0 0 0 0 0 0 0 0 0 0 0 0 0 0 0 0 0 0 0 0 0 0 0 0 0 0 0 0 0 0 0 0 0 0 0 0 0 0 0 0 0 0 0 0 0 0 0 0 0 0 0 0 0 0 0 0 0 0 0 0 0 0 0 0 0 0 0 0 0 0 0 0 0 0 0 0 0 0 0 0 0 0 0 0 0 0 0 0 0 0 0 0 0 0 0 0 0 0 0 0 0 0 0 0 0 0 0 0 0 0 0 0 0 0 0 0 0 0 0 0 0 0 0 0 0 0 0 0 0 0 0 0 0 0 0 0 0 0 0 0 0 0 0 0 0 0 0 0 0 0 0 0 0 0 0 0 0 0 0 0 0 0 0 0 0 0 0 0 0 0 0 0 0 0 0 0 0 0 0 0 0 0 0 0 0 0 0 0 0 0 0 0 0 0 0 0 0 0 0 0 0 0 0 0 0 0 0 0 0 0 0 0 0 0 0 0 0 0 0 0 0 0 0 0 0 0 0 0 0 0 0 0 0 0 0 0 0 0 0 0 0 0 0 0 0 0 0 0 0 0 0 0 0 0 0 0 0 0 0 0 0 0 0 0 0 0 0 0 0 0 0 0 0 0 0 0 0 0 0 
0 0 0 0 0 0 0 0 0 0 0 0 0 0 0 0 0 0 0 0 0 0 0 0 0 0 0 0 0 0 0 0 0 0 0 0 0 0 0 0 0 0 0 0 0 0 0 0 0 0 0 0 0 0 0 0 0 0 0 0 0 0 0 0 0 0 0 0 0 0 0 0 0 0 0 0 0 0 0 0 0 0 0 0 0 0 0 0 0 0 0 0 0 0 0 0 0 0 0 0 0 0 0 0 0 0 0 0 0 0 0 0 0 0 0 0 0 0 0 0 0 0 0 0 0 0 0 0 0 0 0 0 0 0 0 0 0 0 0 0 0 0 0 0 0 0 0 0 0 0 0 0 0 0 0 0 0 0 0 0 0 0 0 0 0 0 0 0 0 0 0 0 0 0 0 0 0 0 0 0 0 0 0 0 0 0 0 0 0 0 0 0 0 0 0 0 0 0 0 0 0 0 0 0 0 0 0 0 0 0 0 0 0 0 0 0 0 0 0 0 0 0 0 0 0 0 0 0 0 0 0 0 0 0 0 0 0 0 0 0 0 0 0 0 0 0 0 0 0 0 0 0 0 0 0 0 0 0 0 0 0 0 0 0 0 0 0 0 0 0 0 0 0 0 0 0 0 0 0 0 0 0 0 0 0 0 0 0 0 0 
0 0 0 0 0 0 0 0 0 0 0 0 0 0 0 0 0 0 0 0 0 0 0 0 0 0 0 0 0 0 0 0 0 0 0 0 0 0 0 0 0 0 0 0 0 0 0 0 0 0 0 0 0 0 0 0 0 0 0 0 0 0 0 0 0 0 0 0 0 0 0 0 0 0 0 0 0 0 0 0 0 0 0 0 0 0 0 0 0 0 0 0 0 0 0 0 0 0 0 0 0 0 0 0 0 0 0 0 0 0 0 0 0 0 0 0 0 0 0 0 0 0 0 0 0 0 0 0 0 0 0 0 0 0 0 0 0 0 0 0 0 0 0 0 0 0 0 0 0 0 0 0 0 0 0 0 0 0 0 0 0 0 0 0 0 0 0 0 0 0 0 0 0 0 0 0 0 0 0 0 0 0 0 0 0 0 0 0 0 0 0 0 0 0 0 0 0 0 0 0 0 0 0 0 0 0 0 0 0 0 0 0 0 0 0 0 0 0 0 0 0 0 0 0 0 0 0 0 0 0 0 0 0 0 0 0 0 0 0 0 0 0 0 0 0 0 0 0 0 0 0 0 0 0 0 0 0 0 0 0 0 0 0 0 0 0 0 0 0 0 0 0 0 0 0 0 0 0 0 0 0 0 0 0 0 0 0 0 0 0 
0 0 0 0 0 0 0 0 0 0 0 0 0 0 0 0 0 0 0 0 0 0 0 0 0 0 0 0 0 0 0 0 0 0 0 0 0 0 0 0 0 0 0 0 0 0 0 0 0 0 0 0 0 0 0 0 0 0 0 0 0 0 0 0 0 0 0 0 0 0 0 0 0 0 0 0 0 0 0 0 0 0 0 0 0 0 0 0 0 0 0 0 0 0 0 0 0 0 0 0 0 0 0 0 0 0 0 0 0 0 0 0 0 0 0 0 0 0 0 0 0 0 0 0 0 0 0 0 0 0 0 0 0 0 0 0 0 0 0 0 0 0 0 0 0 0 0 0 0 0 0 0 0 0 0 0 0 0 0 0 0 0 0 0 0 0 0 0 0 0 0 0 0 0 0 0 0 0 0 0 0 0 0 0 0 0 0 0 0 0 0 0 0 0 0 0 0 0 0 0 0 0 0 0 0 0 0 0 0 0 0 0 0 0 0 0 0 0 0 0 0 0 0 0 0 0 0 0 0 0 0 0 0 0 0 0 0 0 0 0 0 0 0 0 0 0 0 0 0 0 0 0 0 0 0 0 0 0 0 0 0 0 0 0 0 0 0 0 0 0 0 0 0 0 0 0 0 0 0 0 0 0 0 0 0 0 0 0 0 0 
0 0 0 0 0 0 0 0 0 0 0 0 0 0 0 0 0 0 0 0 0 0 0 0 0 0 0 0 0 0 0 0 0 0 0 0 0 0 0 0 0 0 0 0 0 0 0 0 0 0 0 0 0 0 0 0 0 0 0 0 0 0 0 0 0 0 0 0 0 0 0 0 0 0 0 0 0 0 0 0 0 0 0 0 0 0 0 0 0 0 0 0 0 0 0 0 0 0 0 0 0 0 0 0 0 0 0 0 0 0 0 0 0 0 0 0 0 0 0 0 0 0 0 0 0 0 0 0 0 0 0 0 0 0 0 0 0 0 0 0 0 0 0 0 0 0 0 0 0 0 0 0 0 0 0 0 0 0 0 0 0 0 0 0 0 0 0 0 0 0 0 0 0 0 0 0 0 0 0 0 0 0 0 0 0 0 0 0 0 0 0 0 0 0 0 0 0 0 0 0 0 0 0 0 0 0 0 0 0 0 0 0 0 0 0 0 0 0 0 0 0 0 0 0 0 0 0 0 0 0 0 0 0 0 0 0 0 0 0 0 0 0 0 0 0 0 0 0 0 0 0 0 0 0 0 0 0 0 0 0 0 0 0 0 0 0 0 0 0 0 0 0 0 0 0 0 0 0 0 0 0 0 0 0 0 0 0 0 0 0 
0 0 0 0 0 0 0 0 0 0 0 0 0 0 0 0 0 0 0 0 0 0 0 0 0 0 0 0 0 0 0 0 0 0 0 0 0 0 0 0 0 0 0 0 0 0 0 0 0 0 0 0 0 0 0 0 0 0 0 0 0 0 0 0 0 0 0 0 0 0 0 0 0 0 0 0 0 0 0 0 0 0 0 0 0 0 0 0 0 0 0 0 0 0 0 0 0 0 0 0 0 0 0 0 0 0 0 0 0 0 0 0 0 0 0 0 0 0 0 0 0 0 0 0 0 0 0 0 0 0 0 0 0 0 0 0 0 0 0 0 0 0 0 0 0 0 0 0 0 0 0 0 0 0 0 0 0 0 0 0 0 0 0 0 0 0 0 0 0 0 0 0 0 0 0 0 0 0 0 0 0 0 0 0 0 0 0 0 0 0 0 0 0 0 0 0 0 0 0 0 0 0 0 0 0 0 0 0 0 0 0 0 0 0 0 0 0 0 0 0 0 0 0 0 0 0 0 0 0 0 0 0 0 0 0 0 0 0 0 0 0 0 0 0 0 0 0 0 0 0 0 0 0 0 0 0 0 0 0 0 0 0 0 0 0 0 0 0 0 0 0 0 0 0 0 0 0 0 0 0 0 0 0 0 0 0 0 0 0 0 
0 0 0 0 0 0 0 0 0 0 0 0 0 0 0 0 0 0 0 0 0 0 0 0 0 0 0 0 0 0 0 0 0 0 0 0 0 0 0 0 0 0 0 0 0 0 0 0 0 0 0 0 0 0 0 0 0 0 0 0 0 0 0 0 0 0 0 0 0 0 0 0 0 0 0 0 0 0 0 0 0 0 0 0 0 0 0 0 0 0 0 0 0 0 0 0 0 0 0 0 0 0 0 0 0 0 0 0 0 0 0 0 0 0 0 0 0 0 0 0 0 0 0 0 0 0 0 0 0 0 0 0 0 0 0 0 0 0 0 0 0 0 0 0 0 0 0 0 0 0 0 0 0 0 0 0 0 0 0 0 0 0 0 0 0 0 0 0 0 0 0 0 0 0 0 0 0 0 0 0 0 0 0 0 0 0 0 0 0 0 0 0 0 0 0 0 0 0 0 0 0 0 0 0 0 0 0 0 0 0 0 0 0 0 0 0 0 0 0 0 0 0 0 0 0 0 0 0 0 0 0 0 0 0 0 0 0 0 0 0 0 0 0 0 0 0 0 0 0 0 0 0 0 0 0 0 0 0 0 0 0 0 0 0 0 0 0 0 0 0 0 0 0 0 0 0 0 0 0 0 0 0 0 0 0 0 0 0 0 0 
0 0 0 0 0 0 0 0 0 0 0 0 0 0 0 0 0 0 0 0 0 0 0 0 0 0 0 0 0 0 0 0 0 0 0 0 0 0 0 0 0 0 0 0 0 0 0 0 0 0 0 0 0 0 0 0 0 0 0 0 0 0 0 0 0 0 0 0 0 0 0 0 0 0 0 0 0 0 0 0 0 0 0 0 0 0 0 0 0 0 0 0 0 0 0 0 0 0 0 0 0 0 0 0 0 0 0 0 0 0 0 0 0 0 0 0 0 0 0 0 0 0 0 0 0 0 0 0 0 0 0 0 0 0 0 0 0 0 0 0 0 0 0 0 0 0 0 0 0 0 0 0 0 0 0 0 0 0 0 0 0 0 0 0 0 0 0 0 0 0 0 0 0 0 0 0 0 0 0 0 0 0 0 0 0 0 0 0 0 0 0 0 0 0 0 0 0 0 0 0 0 0 0 0 0 0 0 0 0 0 0 0 0 0 0 0 0 0 0 0 0 0 0 0 0 0 0 0 0 0 0 0 0 0 0 0 0 0 0 0 0 0 0 0 0 0 0 0 0 0 0 0 0 0 0 0 0 0 0 0 0 0 0 0 0 0 0 0 0 0 0 0 0 0 0 0 0 0 0 0 0 0 0 0 0 0 0 0 0 0 
0 0 0 0 0 0 0 0 0 0 0 0 0 0 0 0 0 0 0 0 0 0 0 0 0 0 0 0 0 0 0 0 0 0 0 0 0 0 0 0 0 0 0 0 0 0 0 0 0 0 0 0 0 0 0 0 0 0 0 0 0 0 0 0 0 0 0 0 0 0 0 0 0 0 0 0 0 0 0 0 0 0 0 0 0 0 0 0 0 0 0 0 0 0 0 0 0 0 0 0 0 0 0 0 0 0 0 0 0 0 0 0 0 0 0 0 0 0 0 0 0 0 0 0 0 0 0 0 0 0 0 0 0 0 0 0 0 0 0 0 0 0 0 0 0 0 0 0 0 0 0 0 0 0 0 0 0 0 0 0 0 0 0 0 0 0 0 0 0 0 0 0 0 0 0 0 0 0 0 0 0 0 0 0 0 0 0 0 0 0 0 0 0 0 0 0 0 0 0 0 0 0 0 0 0 0 0 0 0 0 0 0 0 0 0 0 0 0 0 0 0 0 0 0 0 0 0 0 0 0 0 0 0 0 0 0 0 0 0 0 0 0 0 0 0 0 0 0 0 0 0 0 0 0 0 0 0 0 0 0 0 0 0 0 0 0 0 0 0 0 0 0 0 0 0 0 0 0 0 0 0 0 0 0 0 0 0 0 0 0 
0 0 0 0 0 0 0 0 0 0 0 0 0 0 0 0 0 0 0 0 0 0 0 0 0 0 0 0 0 0 0 0 0 0 0 0 0 0 0 0 0 0 0 0 0 0 0 0 0 0 0 0 0 0 0 0 0 0 0 0 0 0 0 0 0 0 0 0 0 0 0 0 0 0 0 0 0 0 0 0 0 0 0 0 0 0 0 0 0 0 0 0 0 0 0 0 0 0 0 0 0 0 0 0 0 0 0 0 0 0 0 0 0 0 0 0 0 0 0 0 0 0 0 0 0 0 0 0 0 0 0 0 0 0 0 0 0 0 0 0 0 0 0 0 0 0 0 0 0 0 0 0 0 0 0 0 0 0 0 0 0 0 0 0 0 0 0 0 0 0 0 0 0 0 0 0 0 0 0 0 0 0 0 0 0 0 0 0 0 0 0 0 0 0 0 0 0 0 0 0 0 0 0 0 0 0 0 0 0 0 0 0 0 0 0 0 0 0 0 0 0 0 0 0 0 0 0 0 0 0 0 0 0 0 0 0 0 0 0 0 0 0 0 0 0 0 0 0 0 0 0 0 0 0 0 0 0 0 0 0 0 0 0 0 0 0 0 0 0 0 0 0 0 0 0 0 0 0 0 0 0 0 0 0 0 0 0 0 0 0 
0 0 0 0 0 0 0 0 0 0 0 0 0 0 0 0 0 0 0 0 0 0 0 0 0 0 0 0 0 0 0 0 0 0 0 0 0 0 0 0 0 0 0 0 0 0 0 0 0 0 0 0 0 0 0 0 0 0 0 0 0 0 0 0 0 0 0 0 0 0 0 0 0 0 0 0 0 0 0 0 0 0 0 0 0 0 0 0 0 0 0 0 0 0 0 0 0 0 0 0 0 0 0 0 0 0 0 0 0 0 0 0 0 0 0 0 0 0 0 0 0 0 0 0 0 0 0 0 0 0 0 0 0 0 0 0 0 0 0 0 0 0 0 0 0 0 0 0 0 0 0 0 0 0 0 0 0 0 0 0 0 0 0 0 0 0 0 0 0 0 0 0 0 0 0 0 0 0 0 0 0 0 0 0 0 0 0 0 0 0 0 0 0 0 0 0 0 0 0 0 0 0 0 0 0 0 0 0 0 0 0 0 0 0 0 0 0 0 0 0 0 0 0 0 0 0 0 0 0 0 0 0 0 0 0 0 0 0 0 0 0 0 0 0 0 0 0 0 0 0 0 0 0 0 0 0 0 0 0 0 0 0 0 0 0 0 0 0 0 0 0 0 0 0 0 0 0 0 0 0 0 0 0 0 0 0 0 0 0 0 
0 0 0 0 0 0 0 0 0 0 0 0 0 0 0 0 0 0 0 0 0 0 0 0 0 0 0 0 0 0 0 0 0 0 0 0 0 0 0 0 0 0 0 0 0 0 0 0 0 0 0 0 0 0 0 0 0 0 0 0 0 0 0 0 0 0 0 0 0 0 0 0 0 0 0 0 0 0 0 0 0 0 0 0 0 0 0 0 0 0 0 0 0 0 0 0 0 0 0 0 0 0 0 0 0 0 0 0 0 0 0 0 0 0 0 0 0 0 0 0 0 0 0 0 0 0 0 0 0 0 0 0 0 0 0 0 0 0 0 0 0 0 0 0 0 0 0 0 0 0 0 0 0 0 0 0 0 0 0 0 0 0 0 0 0 0 0 0 0 0 0 0 0 0 0 0 0 0 0 0 0 0 0 0 0 0 0 0 0 0 0 0 0 0 0 0 0 0 0 0 0 0 0 0 0 0 0 0 0 0 0 0 0 0 0 0 0 0 0 0 0 0 0 0 0 0 0 0 0 0 0 0 0 0 0 0 0 0 0 0 0 0 0 0 0 0 0 0 0 0 0 0 0 0 0 0 0 0 0 0 0 0 0 0 0 0 0 0 0 0 0 0 0 0 0 0 0 0 0 0 0 0 0 0 0 0 0 0 0 0 
0 0 0 0 0 0 0 0 0 0 0 0 0 0 0 0 0 0 0 0 0 0 0 0 0 0 0 0 0 0 0 0 0 0 0 0 0 0 0 0 0 0 0 0 0 0 0 0 0 0 0 0 0 0 0 0 0 0 0 0 0 0 0 0 0 0 0 0 0 0 0 0 0 0 0 0 0 0 0 0 0 0 0 0 0 0 0 0 0 0 0 0 0 0 0 0 0 0 0 0 0 0 0 0 0 0 0 0 0 0 0 0 0 0 0 0 0 0 0 0 0 0 0 0 0 0 0 0 0 0 0 0 0 0 0 0 0 0 0 0 0 0 0 0 0 0 0 0 0 0 0 0 0 0 0 0 0 0 0 0 0 0 0 0 0 0 0 0 0 0 0 0 0 0 0 0 0 0 0 0 0 0 0 0 0 0 0 0 0 0 0 0 0 0 0 0 0 0 0 0 0 0 0 0 0 0 0 0 0 0 0 0 0 0 0 0 0 0 0 0 0 0 0 0 0 0 0 0 0 0 0 0 0 0 0 0 0 0 0 0 0 0 0 0 0 0 0 0 0 0 0 0 0 0 0 0 0 0 0 0 0 0 0 0 0 0 0 0 0 0 0 0 0 0 0 0 0 0 0 0 0 0 0 0 0 0 0 0 0 0 
0 0 0 0 0 0 0 0 0 0 0 0 0 0 0 0 0 0 0 0 0 0 0 0 0 0 0 0 0 0 0 0 0 0 0 0 0 0 0 0 0 0 0 0 0 0 0 0 0 0 0 0 0 0 0 0 0 0 0 0 0 0 0 0 0 0 0 0 0 0 0 0 0 0 0 0 0 0 0 0 0 0 0 0 0 0 0 0 0 0 0 0 0 0 0 0 0 0 0 0 0 0 0 0 0 0 0 0 0 0 0 0 0 0 0 0 0 0 0 0 0 0 0 0 0 0 0 0 0 0 0 0 0 0 0 0 0 0 0 0 0 0 0 0 0 0 0 0 0 0 0 0 0 0 0 0 0 0 0 0 0 0 0 0 0 0 0 0 0 0 0 0 0 0 0 0 0 0 0 0 0 0 0 0 0 0 0 0 0 0 0 0 0 0 0 0 0 0 0 0 0 0 0 0 0 0 0 0 0 0 0 0 0 0 0 0 0 0 0 0 0 0 0 0 0 0 0 0 0 0 0 0 0 0 0 0 0 0 0 0 0 0 0 0 0 0 0 0 0 0 0 0 0 0 0 0 0 0 0 0 0 0 0 0 0 0 0 0 0 0 0 0 0 0 0 0 0 0 0 0 0 0 0 0 0 0 0 0 0 0 
0 0 0 0 0 0 0 0 0 0 0 0 0 0 0 0 0 0 0 0 0 0 0 0 0 0 0 0 0 0 0 0 0 0 0 0 0 0 0 0 0 0 0 0 0 0 0 0 0 0 0 0 0 0 0 0 0 0 0 0 0 0 0 0 0 0 0 0 0 0 0 0 0 0 0 0 0 0 0 0 0 0 0 0 0 0 0 0 0 0 0 0 0 0 0 0 0 0 0 0 0 0 0 0 0 0 0 0 0 0 0 0 0 0 0 0 0 0 0 0 0 0 0 0 0 0 0 0 0 0 0 0 0 0 0 0 0 0 0 0 0 0 0 0 0 0 0 0 0 0 0 0 0 0 0 0 0 0 0 0 0 0 0 0 0 0 0 0 0 0 0 0 0 0 0 0 0 0 0 0 0 0 0 0 0 0 0 0 0 0 0 0 0 0 0 0 0 0 0 0 0 0 0 0 0 0 0 0 0 0 0 0 0 0 0 0 0 0 0 0 0 0 0 0 0 0 0 0 0 0 0 0 0 0 0 0 0 0 0 0 0 0 0 0 0 0 0 0 0 0 0 0 0 0 0 0 0 0 0 0 0 0 0 0 0 0 0 0 0 0 0 0 0 0 0 0 0 0 0 0 0 0 0 0 0 0 0 0 0 0 
0 0 0 0 0 0 0 0 0 0 0 0 0 0 0 0 0 0 0 0 0 0 0 0 0 0 0 0 0 0 0 0 0 0 0 0 0 0 0 0 0 0 0 0 0 0 0 0 0 0 0 0 0 0 0 0 0 0 0 0 0 0 0 0 0 0 0 0 0 0 0 0 0 0 0 0 0 0 0 0 0 0 0 0 0 0 0 0 0 0 0 0 0 0 0 0 0 0 0 0 0 0 0 0 0 0 0 0 0 0 0 0 0 0 0 0 0 0 0 0 0 0 0 0 0 0 0 0 0 0 0 0 0 0 0 0 0 0 0 0 0 0 0 0 0 0 0 0 0 0 0 0 0 0 0 0 0 0 0 0 0 0 0 0 0 0 0 0 0 0 0 0 0 0 0 0 0 0 0 0 0 0 0 0 0 0 0 0 0 0 0 0 0 0 0 0 0 0 0 0 0 0 0 0 0 0 0 0 0 0 0 0 0 0 0 0 0 0 0 0 0 0 0 0 0 0 0 0 0 0 0 0 0 0 0 0 0 0 0 0 0 0 0 0 0 0 0 0 0 0 0 0 0 0 0 0 0 0 0 0 0 0 0 0 0 0 0 0 0 0 0 0 0 0 0 0 0 0 0 0 0 0 0 0 0 0 0 0 0 0 
0 0 0 0 0 0 0 0 0 0 0 0 0 0 0 0 0 0 0 0 0 0 0 0 0 0 0 0 0 0 0 0 0 0 0 0 0 0 0 0 0 0 0 0 0 0 0 0 0 0 0 0 0 0 0 0 0 0 0 0 0 0 0 0 0 0 0 0 0 0 0 0 0 0 0 0 0 0 0 0 0 0 0 0 0 0 0 0 0 0 0 0 0 0 0 0 0 0 0 0 0 0 0 0 0 0 0 0 0 0 0 0 0 0 0 0 0 0 0 0 0 0 0 0 0 0 0 0 0 0 0 0 0 0 0 0 0 0 0 0 0 0 0 0 0 0 0 0 0 0 0 0 0 0 0 0 0 0 0 0 0 0 0 0 0 0 0 0 0 0 0 0 0 0 0 0 0 0 0 0 0 0 0 0 0 0 0 0 0 0 0 0 0 0 0 0 0 0 0 0 0 0 0 0 0 0 0 0 0 0 0 0 0 0 0 0 0 0 0 0 0 0 0 0 0 0 0 0 0 0 0 0 0 0 0 0 0 0 0 0 0 0 0 0 0 0 0 0 0 0 0 0 0 0 0 0 0 0 0 0 0 0 0 0 0 0 0 0 0 0 0 0 0 0 0 0 0 0 0 0 0 0 0 0 0 0 0 0 0 0 
0 0 0 0 0 0 0 0 0 0 0 0 0 0 0 0 0 0 0 0 0 0 0 0 0 0 0 0 0 0 0 0 0 0 0 0 0 0 0 0 0 0 0 0 0 0 0 0 0 0 0 0 0 0 0 0 0 0 0 0 0 0 0 0 0 0 0 0 0 0 0 0 0 0 0 0 0 0 0 0 0 0 0 0 0 0 0 0 0 0 0 0 0 0 0 0 0 0 0 0 0 0 0 0 0 0 0 0 0 0 0 0 0 0 0 0 0 0 0 0 0 0 0 0 0 0 0 0 0 0 0 0 0 0 0 0 0 0 0 0 0 0 0 0 0 0 0 0 0 0 0 0 0 0 0 0 0 0 0 0 0 0 0 0 0 0 0 0 0 0 0 0 0 0 0 0 0 0 0 0 0 0 0 0 0 0 0 0 0 0 0 0 0 0 0 0 0 0 0 0 0 0 0 0 0 0 0 0 0 0 0 0 0 0 0 0 0 0 0 0 0 0 0 0 0 0 0 0 0 0 0 0 0 0 0 0 0 0 0 0 0 0 0 0 0 0 0 0 0 0 0 0 0 0 0 0 0 0 0 0 0 0 0 0 0 0 0 0 0 0 0 0 0 0 0 0 0 0 0 0 0 0 0 0 0 0 0 0 0 0 
0 0 0 0 0 0 0 0 0 0 0 0 0 0 0 0 0 0 0 0 0 0 0 0 0 0 0 0 0 0 0 0 0 0 0 0 0 0 0 0 0 0 0 0 0 0 0 0 0 0 0 0 0 0 0 0 0 0 0 0 0 0 0 0 0 0 0 0 0 0 0 0 0 0 0 0 0 0 0 0 0 0 0 0 0 0 0 0 0 0 0 0 0 0 0 0 0 0 0 0 0 0 0 0 0 0 0 0 0 0 0 0 0 0 0 0 0 0 0 0 0 0 0 0 0 0 0 0 0 0 0 0 0 0 0 0 0 0 0 0 0 0 0 0 0 0 0 0 0 0 0 0 0 0 0 0 0 0 0 0 0 0 0 0 0 0 0 0 0 0 0 0 0 0 0 0 0 0 0 0 0 0 0 0 0 0 0 0 0 0 0 0 0 0 0 0 0 0 0 0 0 0 0 0 0 0 0 0 0 0 0 0 0 0 0 0 0 0 0 0 0 0 0 0 0 0 0 0 0 0 0 0 0 0 0 0 0 0 0 0 0 0 0 0 0 0 0 0 0 0 0 0 0 0 0 0 0 0 0 0 0 0 0 0 0 0 0 0 0 0 0 0 0 0 0 0 0 0 0 0 0 0 0 0 0 0 0 0 0 0 
0 0 0 0 0 0 0 0 0 0 0 0 0 0 0 0 0 0 0 0 0 0 0 0 0 0 0 0 0 0 0 0 0 0 0 0 0 0 0 0 0 0 0 0 0 0 0 0 0 0 0 0 0 0 0 0 0 0 0 0 0 0 0 0 0 0 0 0 0 0 0 0 0 0 0 0 0 0 0 0 0 0 0 0 0 0 0 0 0 0 0 0 0 0 0 0 0 0 0 0 0 0 0 0 0 0 0 0 0 0 0 0 0 0 0 0 0 0 0 0 0 0 0 0 0 0 0 0 0 0 0 0 0 0 0 0 0 0 0 0 0 0 0 0 0 0 0 0 0 0 0 0 0 0 0 0 0 0 0 0 0 0 0 0 0 0 0 0 0 0 0 0 0 0 0 0 0 0 0 0 0 0 0 0 0 0 0 0 0 0 0 0 0 0 0 0 0 0 0 0 0 0 0 0 0 0 0 0 0 0 0 0 0 0 0 0 0 0 0 0 0 0 0 0 0 0 0 0 0 0 0 0 0 0 0 0 0 0 0 0 0 0 0 0 0 0 0 0 0 0 0 0 0 0 0 0 0 0 0 0 0 0 0 0 0 0 0 0 0 0 0 0 0 0 0 0 0 0 0 0 0 0 0 0 0 0 0 0 0 0 
0 0 0 0 0 0 0 0 0 0 0 0 0 0 0 0 0 0 0 0 0 0 0 0 0 0 0 0 0 0 0 0 0 0 0 0 0 0 0 0 0 0 0 0 0 0 0 0 0 0 0 0 0 0 0 0 0 0 0 0 0 0 0 0 0 0 0 0 0 0 0 0 0 0 0 0 0 0 0 0 0 0 0 0 0 0 0 0 0 0 0 0 0 0 0 0 0 0 0 0 0 0 0 0 0 0 0 0 0 0 0 0 0 0 0 0 0 0 0 0 0 0 0 0 0 0 0 0 0 0 0 0 0 0 0 0 0 0 0 0 0 0 0 0 0 0 0 0 0 0 0 0 0 0 0 0 0 0 0 0 0 0 0 0 0 0 0 0 0 0 0 0 0 0 0 0 0 0 0 0 0 0 0 0 0 0 0 0 0 0 0 0 0 0 0 0 0 0 0 0 0 0 0 0 0 0 0 0 0 0 0 0 0 0 0 0 0 0 0 0 0 0 0 0 0 0 0 0 0 0 0 0 0 0 0 0 0 0 0 0 0 0 0 0 0 0 0 0 0 0 0 0 0 0 0 0 0 0 0 0 0 0 0 0 0 0 0 0 0 0 0 0 0 0 0 0 0 0 0 0 0 0 0 0 0 0 0 0 0 0 
